; HEADER_BLOCK_START
; generated by OrcaSlicer 2.1.0-beta on 2024-07-11 at 12:02:21
; total layer number: 26
; filament_density: 1.04
; filament_diameter: 1.75
; max_z_height: 5.20
; HEADER_BLOCK_END

; THUMBNAIL_BLOCK_START

;
; THUMBNAIL_BLOCK_END

; external perimeters extrusion width = 0.40mm
; perimeters extrusion width = 0.40mm
; infill extrusion width = 0.45mm
; solid infill extrusion width = 0.40mm
; top infill extrusion width = 0.40mm
; first layer extrusion width = 0.40mm

; external perimeters extrusion width = 0.40mm
; perimeters extrusion width = 0.40mm
; infill extrusion width = 0.45mm
; solid infill extrusion width = 0.40mm
; top infill extrusion width = 0.40mm
; first layer extrusion width = 0.40mm

; external perimeters extrusion width = 0.40mm
; perimeters extrusion width = 0.40mm
; infill extrusion width = 0.45mm
; solid infill extrusion width = 0.40mm
; top infill extrusion width = 0.40mm
; first layer extrusion width = 0.40mm

; external perimeters extrusion width = 0.40mm
; perimeters extrusion width = 0.40mm
; infill extrusion width = 0.45mm
; solid infill extrusion width = 0.40mm
; top infill extrusion width = 0.40mm
; first layer extrusion width = 0.40mm

; EXECUTABLE_BLOCK_START
EXCLUDE_OBJECT_DEFINE NAME=a__BFI-V2.4_Belt_Clamp_x4.stl_id_0_copy_0 CENTER=187.5,190 POLYGON=[[177.5,179.5],[178.086,178.914],[181.5,177.5],[193.5,177.5],[196.914,178.914],[197.5,179.5],[197.5,200.5],[196.914,201.086],[193.5,202.5],[181.5,202.5],[178.086,201.086],[177.5,200.5],[177.5,179.5]]
EXCLUDE_OBJECT_DEFINE NAME=a__BFI-V2.4_Belt_Clamp_x4.stl_id_1_copy_0 CENTER=162.5,190 POLYGON=[[152.5,179.5],[153.086,178.914],[156.5,177.5],[168.5,177.5],[171.914,178.914],[172.5,179.5],[172.5,200.5],[171.914,201.086],[168.5,202.5],[156.5,202.5],[153.086,201.086],[152.5,200.5],[152.5,179.5]]
EXCLUDE_OBJECT_DEFINE NAME=a__BFI-V2.4_Belt_Clamp_x4.stl_id_2_copy_0 CENTER=187.5,160 POLYGON=[[177.5,149.5],[178.086,148.914],[181.5,147.5],[193.5,147.5],[196.914,148.914],[197.5,149.5],[197.5,170.5],[196.914,171.086],[193.5,172.5],[181.5,172.5],[178.086,171.086],[177.5,170.5],[177.5,149.5]]
EXCLUDE_OBJECT_DEFINE NAME=a__BFI-V2.4_Belt_Clamp_x4.stl_id_3_copy_0 CENTER=162.5,160 POLYGON=[[152.5,149.5],[153.086,148.914],[156.5,147.5],[168.5,147.5],[171.914,148.914],[172.5,149.5],[172.5,170.5],[171.914,171.086],[168.5,172.5],[156.5,172.5],[153.086,171.086],[152.5,170.5],[152.5,149.5]]
M73 P0 R30
;TYPE:Custom
; You can use following code instead if your PRINT_START macro support Chamber and print area bedmesh
PRINT_START EXTRUDER=240 BED=75 CHAMBER=65 PRINT_MIN=154.4,148.4 PRINT_MAX=195.6,201.6
M190 S75
M109 S240
G90
G21
M83 ; use relative distances for extrusion
; Filament gcode
SET_PRESSURE_ADVANCE ADVANCE=0.02; Override pressure advance value
M106 S0
;LAYER_CHANGE
;Z:0.2
;HEIGHT:0.2
;BEFORE_LAYER_CHANGE
;0.2
G92 E0

G1 E-.8 F1800
;AFTER_LAYER_CHANGE
;0.2
;_SET_FAN_SPEED_CHANGING_LAYER
SET_VELOCITY_LIMIT ACCEL=500 ACCEL_TO_DECEL=250
SET_VELOCITY_LIMIT SQUARE_CORNER_VELOCITY=9
; printing object [a]_BFI-V2.4_Belt_Clamp_x4.stl id:0 copy 0
EXCLUDE_OBJECT_START NAME=a__BFI-V2.4_Belt_Clamp_x4.stl_id_0_copy_0
G1 Z.4 F21000
G1 X193.836 Y181.341
G1 Z.4
G1 Z.2
G1 E.8 F1800
;TYPE:Inner wall
;WIDTH:0.399999
G1 F3000
G1 X193.694 Y181.321 E.00394
G1 X193.166 Y181.321 E.0146
G1 X192.44 Y181.491 E.02057
G1 X192.103 Y181.645 E.01023
G1 X191.617 Y181.959 E.01599
G1 X191.237 Y182.329 E.01464
G1 X191.259 Y182.155 E.00485
G1 X191.254 Y181.297 E.02369
G1 X191.133 Y180.705 E.01669
G1 X190.921 Y180.168 E.01594
G1 X192.979 Y180.171 E.05682
G1 X193.832 Y181.024 E.03334
G1 X193.835 Y181.301 E.00765
G1 E-.56 F1800
;WIPE_START
G1 F3000
G1 X193.694 Y181.321 E-.03413
G1 X193.166 Y181.321 E-.12688
G1 X192.845 Y181.397 E-.07898
;WIPE_END
G1 Z.6 F21000
G1 X184.463 Y183.962 Z.6
G1 Z.2
G1 E.8 F1800
G1 F3000
G1 X184.582 Y184.111 E.00526
G1 X185.193 Y184.714 E.02369
G1 X185.699 Y185.048 E.01676
G1 X186.243 Y185.298 E.01653
G1 X186.866 Y185.461 E.01779
G1 X187.372 Y185.503 E.01401
G1 X187.968 Y185.488 E.01647
G1 X188.788 Y185.298 E.02325
G1 X189.301 Y185.068 E.01551
G1 X189.876 Y184.683 E.01911
G1 X190.29 Y184.297 E.01564
G1 X190.536 Y183.987 E.01093
G1 X190.525 Y192.225 E.2275
G1 X190.345 Y192.082 E.00636
G1 X189.551 Y191.596 E.02569
G1 X188.679 Y191.274 E.02568
G1 X187.814 Y191.128 E.02422
G1 X187.207 Y191.125 E.01677
G1 X186.29 Y191.266 E.02562
G1 X185.417 Y191.582 E.02565
G1 X184.818 Y191.922 E.01901
G1 X184.466 Y192.196 E.01232
G1 X184.463 Y184.002 E.22626
G1 E-.56 F1800
;WIPE_START
G1 F3000
G1 X184.582 Y184.111 E-.03869
G1 X185.179 Y184.7 E-.20131
;WIPE_END
G1 Z.6 F21000
G1 X184.096 Y180.168 Z.6
G1 Z.2
G1 E.8 F1800
G1 F3000
G1 X183.907 Y180.666 E.01472
G1 X183.772 Y181.345 E.01912
G1 X183.753 Y181.911 E.01564
G1 X183.814 Y182.384 E.01317
G1 X183.472 Y182.025 E.01369
G1 X183.05 Y181.721 E.01439
G1 X182.581 Y181.496 E.01433
G1 X182.073 Y181.354 E.01458
G1 X181.492 Y181.312 E.01608
G1 X181.164 Y181.346 E.00909
G1 X181.168 Y181.024 E.00888
G1 X182.021 Y180.171 E.03334
G1 X184.056 Y180.168 E.05618
G1 E-.56 F1800
;WIPE_START
G1 F3000
G1 X183.907 Y180.666 E-.12481
G1 X183.813 Y181.137 E-.11519
;WIPE_END
G1 Z.6 F21000
G1 X194.22 Y181.792 Z.6
G1 Z.2
G1 E.8 F1800
G1 F3000
G1 X193.985 Y181.724 E.00677
G1 X193.48 Y181.666 E.01403
G1 X192.972 Y181.711 E.01406
G1 X192.396 Y181.889 E.01665
G1 X191.958 Y182.164 E.01427
G1 X191.605 Y182.443 E.01245
;WIDTH:0.438856
G1 X191.205 Y182.918 E.01902
;WIDTH:0.444345
G1 X190.974 Y183.433 E.01749
G1 X190.893 Y183.964 E.01669
;WIDTH:0.399999
G1 X190.881 Y192.855 E.2455
G1 X190.92 Y193.151 E.00824
G1 X190.732 Y192.918 E.00825
G1 X190.15 Y192.382 E.02185
G1 X189.419 Y191.928 E.02377
G1 X188.614 Y191.625 E.02376
G1 X187.803 Y191.485 E.02271
G1 X187.252 Y191.479 E.01522
G1 X186.403 Y191.604 E.0237
G1 X185.594 Y191.892 E.02372
G1 X184.853 Y192.334 E.02382
G1 X184.108 Y193.024 E.02805
G1 X184.119 Y184.141 E.24529
;WIDTH:0.430104
G1 X184.094 Y183.845 E.00891
;WIDTH:0.460209
G1 X184.07 Y183.548 E.0096
G1 X183.961 Y183.234 E.01073
;WIDTH:0.457789
G1 X183.728 Y182.836 E.01478
;WIDTH:0.417321
G1 X183.255 Y182.313 E.02044
;WIDTH:0.399999
G1 X182.86 Y182.023 E.01354
G1 X182.438 Y181.823 E.01288
G1 X181.807 Y181.678 E.01789
G1 X181.276 Y181.687 E.01465
G1 X180.78 Y181.793 E.01401
G1 X180.812 Y180.875 E.02536
G1 X181.873 Y179.814 E.04146
G1 X184.731 Y179.81 E.07891
G1 X184.437 Y180.278 E.01526
G1 X184.254 Y180.748 E.01393
G1 X184.128 Y181.357 E.01718
G1 X184.11 Y181.923 E.01564
G1 X184.176 Y182.371 E.0125
;WIDTH:0.430251
G1 X184.223 Y182.636 E.00807
;WIDTH:0.460502
G1 X184.271 Y182.901 E.0087
G1 X184.477 Y183.366 E.0164
;WIDTH:0.460209
G1 X184.66 Y183.616 E.01002
;WIDTH:0.430104
G1 X184.843 Y183.867 E.0093
;WIDTH:0.399999
G1 X185.389 Y184.416 E.02139
G1 X185.896 Y184.75 E.01676
G1 X186.379 Y184.968 E.01465
G1 X186.948 Y185.114 E.01621
G1 X187.384 Y185.146 E.01207
G1 X187.897 Y185.138 E.01417
G1 X188.652 Y184.968 E.02137
G1 X189.113 Y184.765 E.01392
G1 X189.633 Y184.423 E.01717
G1 X190.046 Y184.036 E.01564
G1 X190.251 Y183.771 E.00925
;WIDTH:0.444538
G1 X190.617 Y183.227 E.02034
G1 X190.796 Y182.754 E.01572
;WIDTH:0.438856
G1 X190.902 Y182.143 E.01899
;WIDTH:0.399999
G1 X190.921 Y181.577 E.01564
G1 X190.854 Y181.123 E.01268
G1 X190.718 Y180.578 E.01549
G1 X190.479 Y180.066 E.01561
G1 X190.312 Y179.81 E.00843
G1 X193.127 Y179.814 E.07771
G1 X194.188 Y180.875 E.04146
G1 X194.219 Y181.752 E.02421
G1 E-.56 F1800
;WIPE_START
G1 F3000
G1 X193.985 Y181.724 E-.05658
G1 X193.48 Y181.666 E-.12195
G1 X193.225 Y181.689 E-.06147
;WIPE_END
G1 Z.6 F21000
G1 X190.112 Y199.829 Z.6
G1 Z.2
G1 E.8 F1800
G1 F3000
G1 X190.716 Y199.373 E.02091
G1 X191.333 Y198.676 E.02571
G1 X191.802 Y197.872 E.0257
G1 X192.106 Y196.993 E.02567
G1 X192.232 Y196.075 E.02561
G1 X192.211 Y195.415 E.01821
G1 X192.807 Y195.621 E.01741
G1 X193.335 Y195.69 E.01469
G1 X193.827 Y195.647 E.01364
G1 X193.829 Y198.979 E.092
G1 X192.979 Y199.829 E.0332
G1 X190.152 Y199.829 E.07808
G1 E-.56 F1800
;WIPE_START
G1 F3000
G1 X190.716 Y199.373 E-.17415
G1 X190.898 Y199.168 E-.06585
;WIPE_END
G1 Z.6 F21000
G1 X188.4 Y200.186 Z.6
G1 Z.2
G1 E.8 F1800
G1 F3000
G1 X188.788 Y200.093 E.01101
G1 X189.642 Y199.721 E.02574
G1 X190.455 Y199.13 E.02775
G1 X191.029 Y198.488 E.02378
G1 X191.468 Y197.747 E.02378
G1 X191.753 Y196.935 E.02375
G1 X191.874 Y196.035 E.02509
G1 X191.831 Y195.228 E.02231
G1 X191.695 Y194.642 E.0166
G1 X191.904 Y194.82 E.00756
G1 X192.357 Y195.091 E.0146
G1 X192.876 Y195.27 E.01514
G1 X193.368 Y195.334 E.01371
G1 X193.69 Y195.309 E.00893
G1 X194.22 Y195.207 E.01489
G1 X194.191 Y195.726 E.01436
G1 X194.186 Y199.127 E.0939
G1 X193.127 Y200.186 E.04136
G1 X188.44 Y200.186 E.12943
G1 E-.56 F1800
;WIPE_START
G1 F3000
G1 X188.788 Y200.093 E-.08634
G1 X189.374 Y199.837 E-.15366
;WIPE_END
G1 Z.6 F21000
G1 X181.164 Y195.656 Z.6
G1 Z.2
G1 E.8 F1800
G1 F3000
G1 X181.665 Y195.69 E.01385
G1 X182.228 Y195.611 E.0157
G1 X182.729 Y195.441 E.01462
G1 X182.726 Y196.329 E.02454
G1 X182.887 Y197.199 E.02443
G1 X183.123 Y197.843 E.01892
G1 X183.341 Y198.248 E.01271
G1 X183.752 Y198.866 E.0205
G1 X184.354 Y199.489 E.02393
G1 X184.818 Y199.829 E.01587
G1 X182.021 Y199.829 E.07724
G1 X181.171 Y198.979 E.0332
G1 X181.164 Y195.696 E.09065
G1 X180.78 Y195.203 F21000
G1 F3000
G1 X181.035 Y195.279 E.00734
G1 X181.632 Y195.334 E.01655
G1 X182.123 Y195.27 E.01368
G1 X182.687 Y195.066 E.01656
G1 X183.23 Y194.709 E.01793
G1 X183.113 Y195.195 E.0138
G1 X183.079 Y195.625 E.0119
G1 X183.079 Y196.274 E.01792
G1 X183.222 Y197.076 E.02251
G1 X183.458 Y197.72 E.01892
G1 X183.646 Y198.062 E.01079
G1 X184.009 Y198.618 E.01833
G1 X184.768 Y199.371 E.02951
G1 X185.547 Y199.854 E.02531
G1 X186.187 Y200.104 E.01899
G1 X186.538 Y200.186 E.00994
G1 X181.873 Y200.186 E.12881
G1 X180.814 Y199.127 E.04136
G1 X180.809 Y195.726 E.0939
G1 X180.782 Y195.243 E.01336
M73 P0 R29
G1 E-.56 F1800
;WIPE_START
G1 F3000
G1 X181.035 Y195.279 E-.06121
G1 X181.632 Y195.334 E-.14383
G1 X181.776 Y195.315 E-.03496
;WIPE_END
G1 Z.6 F21000
G1 X184.788 Y198.896 Z.6
G1 Z.2
G1 E.8 F1800
G1 F3000
G1 X184.266 Y198.37 E.02047
G1 X183.793 Y197.597 E.02503
G1 X183.557 Y196.953 E.01892
G1 X183.432 Y196.219 E.02059
G1 X183.435 Y195.639 E.016
G1 X183.46 Y195.279 E.00998
G1 X183.597 Y194.707 E.01622
;WIDTH:0.428187
G1 X183.663 Y194.499 E.00651
;WIDTH:0.456375
G1 X183.73 Y194.291 E.00699
G1 X183.974 Y193.802 E.01747
;WIDTH:0.43936
G1 X184.402 Y193.248 E.02146
;WIDTH:0.399999
G1 X184.568 Y193.052 E.00708
G1 X185.086 Y192.604 E.01894
G1 X185.77 Y192.202 E.02189
G1 X186.516 Y191.943 E.0218
G1 X187.298 Y191.833 E.02179
G1 X187.874 Y191.85 E.01594
G1 X188.548 Y191.976 E.01892
G1 X189.287 Y192.26 E.02184
G1 X189.956 Y192.682 E.02185
G1 X190.485 Y193.176 E.01998
;WIDTH:0.43097
G1 X190.854 Y193.646 E.01794
;WIDTH:0.459168
G1 X191.039 Y193.9 E.01012
G1 X191.166 Y194.218 E.011
;WIDTH:0.430565
G1 X191.294 Y194.535 E.01024
;WIDTH:0.401961
G1 X191.455 Y195.186 E.01863
;WIDTH:0.399999
G1 X191.505 Y195.677 E.01363
G1 X191.514 Y196.191 E.01418
G1 X191.401 Y196.877 E.01922
G1 X191.133 Y197.621 E.02183
G1 X190.726 Y198.3 E.02186
G1 X190.194 Y198.887 E.02186
G1 X189.438 Y199.428 E.02566
G1 X188.653 Y199.763 E.02358
;WIDTH:0.444042
G1 X188.415 Y199.835 E.00769
;WIDTH:0.488085
G1 X188.178 Y199.907 E.00854
;WIDTH:0.532128
G1 X187.941 Y199.979 E.00938
G1 X187.141 Y199.991 E.03026
;WIDTH:0.529751
G1 X186.898 Y199.927 E.00945
;WIDTH:0.486501
G1 X186.655 Y199.863 E.00861
;WIDTH:0.44325
G1 X186.413 Y199.799 E.00777
;WIDTH:0.399999
G1 X185.677 Y199.521 E.02172
G1 X184.962 Y199.071 E.02332
G1 X184.817 Y198.924 E.00571
G1 X185.033 Y198.645 F21000
;TYPE:Outer wall
G1 F3000
G1 X184.523 Y198.122 E.02017
G1 X184.128 Y197.474 E.02096
G1 X183.893 Y196.831 E.01892
G1 X183.784 Y196.163 E.01867
G1 X183.803 Y195.396 E.02118
G1 X183.944 Y194.791 E.01718
G1 X184.355 Y193.89 E.02733
G1 X184.777 Y193.348 E.01899
G1 X185.32 Y192.874 E.0199
G1 X185.947 Y192.513 E.01997
G1 X186.629 Y192.282 E.01989
G1 X187.343 Y192.187 E.01988
G1 X187.809 Y192.201 E.01288
G1 X188.483 Y192.327 E.01892
G1 X189.154 Y192.591 E.01993
G1 X189.762 Y192.981 E.01993
G1 X190.237 Y193.433 E.01812
G1 X190.55 Y193.863 E.01466
G1 X190.763 Y194.229 E.01169
G1 X190.979 Y194.716 E.01472
G1 X191.135 Y195.389 E.01909
G1 X191.16 Y196.058 E.01846
G1 X191.048 Y196.82 E.02127
G1 X190.799 Y197.496 E.01991
G1 X190.422 Y198.112 E.01994
G1 X189.932 Y198.643 E.01994
G1 X189.234 Y199.135 E.02358
G1 X188.518 Y199.432 E.02142
G1 X187.86 Y199.563 E.01852
G1 X187.139 Y199.569 E.0199
G1 X186.479 Y199.448 E.01854
G1 X185.807 Y199.189 E.0199
G1 X185.156 Y198.771 E.02133
G1 X185.061 Y198.674 E.00377
G1 E-.56 F1800
;WIPE_START
G1 F3000
G1 X184.523 Y198.122 E-.18494
G1 X184.404 Y197.926 E-.05506
;WIPE_END
G1 Z.6 F21000
G1 X194.706 Y182.505 Z.6
G1 Z.2
G1 E.8 F1800
;TYPE:Inner wall
G1 F3000
G1 X194.435 Y182.293 E.00949
G1 X194.12 Y182.137 E.0097
G1 X193.592 Y182.028 E.01489
G1 X193.07 Y182.055 E.01444
G1 X192.491 Y182.244 E.01682
G1 X192.005 Y182.559 E.01599
G1 X191.575 Y183.045 E.01792
G1 X191.368 Y183.445 E.01244
G1 X191.25 Y183.964 E.01471
G1 X191.251 Y192.972 E.24872
;WIDTH:0.432157
G1 X191.3 Y193.282 E.00945
;WIDTH:0.464314
G1 X191.349 Y193.592 E.01023
G1 X191.558 Y193.988 E.01458
;WIDTH:0.459642
G1 X191.846 Y194.268 E.01296
;WIDTH:0.429821
G1 X192.135 Y194.548 E.01203
;WIDTH:0.399999
G1 X192.528 Y194.778 E.01259
G1 X193.046 Y194.944 E.01499
G1 X193.548 Y194.972 E.0139
G1 X194.083 Y194.873 E.01503
G1 X194.269 Y194.802 E.00549
G1 X194.7 Y194.518 E.01426
G1 X194.578 Y195.196 E.01904
G1 X194.548 Y195.727 E.01466
G1 X194.543 Y199.275 E.09797
G1 X193.275 Y200.543 E.04952
G1 X188.624 Y200.543 E.12842
;WIDTH:0.443702
G1 X188.359 Y200.521 E.00824
;WIDTH:0.487405
G1 X188.094 Y200.499 E.00914
;WIDTH:0.531107
G1 X187.829 Y200.477 E.01004
;WIDTH:0.537125
G1 X186.981 Y200.474 E.03243
G1 X186.768 Y200.497 E.00817
;WIDTH:0.491417
G1 X186.556 Y200.52 E.00741
;WIDTH:0.445708
G1 X186.343 Y200.543 E.00666
;WIDTH:0.399999
G1 X181.725 Y200.543 E.12752
G1 X180.457 Y199.275 E.04952
G1 X180.451 Y195.696 E.09881
G1 X180.415 Y195.137 E.01547
G1 X180.296 Y194.504 E.01778
G1 X180.432 Y194.622 E.00496
G1 X180.918 Y194.876 E.01513
G1 X181.48 Y194.977 E.01578
G1 X182.018 Y194.928 E.01491
G1 X182.498 Y194.762 E.01402
G1 X182.941 Y194.487 E.01441
;WIDTH:0.428187
G1 X183.155 Y194.289 E.00868
;WIDTH:0.456375
G1 X183.368 Y194.091 E.00932
G1 X183.621 Y193.614 E.01724
;WIDTH:0.443218
G1 X183.751 Y193.024 E.01871
;WIDTH:0.399999
G1 X183.762 Y184.152 E.24498
G1 X183.717 Y183.746 E.01128
G1 X183.596 Y183.359 E.01119
G1 X183.337 Y182.918 E.01413
G1 X182.978 Y182.54 E.0144
G1 X182.503 Y182.242 E.01547
G1 X181.966 Y182.063 E.01563
G1 X181.426 Y182.026 E.01495
G1 X180.905 Y182.129 E.01466
G1 X180.522 Y182.315 E.01176
G1 X180.297 Y182.495 E.00797
G1 X180.421 Y181.816 E.01907
G1 X180.452 Y181.287 E.01462
G1 X180.455 Y180.727 E.01549
G1 X181.725 Y179.457 E.04958
G1 X185.54 Y179.452 E.10535
G1 X185.155 Y179.819 E.0147
G1 X184.817 Y180.321 E.0167
G1 X184.602 Y180.83 E.01526
G1 X184.485 Y181.381 E.01555
G1 X184.477 Y182.06 E.01876
G1 X184.598 Y182.655 E.01676
G1 X184.806 Y183.162 E.01513
G1 X185.104 Y183.623 E.01516
G1 X185.586 Y184.118 E.01908
G1 X186.093 Y184.452 E.01676
G1 X186.598 Y184.664 E.01513
G1 X187.135 Y184.78 E.01516
G1 X187.826 Y184.789 E.01908
G1 X188.418 Y184.668 E.01669
G1 X188.925 Y184.461 E.01513
G1 X189.389 Y184.162 E.01523
G1 X189.883 Y183.679 E.01909
G1 X190.218 Y183.173 E.01676
G1 X190.43 Y182.668 E.01513
G1 X190.545 Y182.131 E.01516
G1 X190.552 Y181.43 E.01935
G1 X190.394 Y180.729 E.01985
G1 X190.156 Y180.216 E.01561
G1 X189.86 Y179.8 E.0141
G1 X189.441 Y179.437 E.0153
G1 X189.735 Y179.452 E.00815
G1 X193.275 Y179.457 E.09773
G1 X194.545 Y180.727 E.04958
G1 X194.549 Y181.316 E.01628
G1 X194.607 Y181.994 E.0188
G1 X194.698 Y182.466 E.01325
G1 E-.56 F1800
;WIPE_START
G1 F3000
G1 X194.435 Y182.293 E-.07552
G1 X194.12 Y182.137 E-.08427
G1 X193.793 Y182.07 E-.0802
;WIPE_END
G1 Z.6 F21000
G1 X181.577 Y200.9 Z.6
G1 Z.2
G1 E.8 F1800
;TYPE:Outer wall
G1 F3000
G1 X180.1 Y199.423 E.05768
