; HEADER_BLOCK_START
; generated by OrcaSlicer 2.1.0-beta on 2024-07-10 at 22:40:57
; total layer number: 75
; filament_density: 1.04
; filament_diameter: 1.75
; max_z_height: 15.00
; HEADER_BLOCK_END

; THUMBNAIL_BLOCK_START

;
; THUMBNAIL_BLOCK_END

; external perimeters extrusion width = 0.40mm
; perimeters extrusion width = 0.40mm
; infill extrusion width = 0.45mm
; solid infill extrusion width = 0.40mm
; top infill extrusion width = 0.40mm
; first layer extrusion width = 0.40mm

; external perimeters extrusion width = 0.40mm
; perimeters extrusion width = 0.40mm
; infill extrusion width = 0.45mm
; solid infill extrusion width = 0.40mm
; top infill extrusion width = 0.40mm
; first layer extrusion width = 0.40mm

; EXECUTABLE_BLOCK_START
EXCLUDE_OBJECT_DEFINE NAME=a__BFI-V2.4_Carrier_x2.stl_id_0_copy_0 CENTER=175,184.5 POLYGON=[[155.5,181.5],[157.809,177.5],[192.191,177.5],[194.5,181.5],[194.5,185.5],[192.191,189.5],[184.06,191.5],[165.94,191.5],[157.809,189.5],[155.5,185.5],[155.5,181.5]]
EXCLUDE_OBJECT_DEFINE NAME=a__BFI-V2.4_Carrier_x2.stl_id_1_copy_0 CENTER=175,165.5 POLYGON=[[155.5,162.5],[157.809,158.5],[192.191,158.5],[194.5,162.5],[194.5,166.5],[192.191,170.5],[184.06,172.5],[165.94,172.5],[157.809,170.5],[155.5,166.5],[155.5,162.5]]
M73 P0 R32
;TYPE:Custom
; You can use following code instead if your PRINT_START macro support Chamber and print area bedmesh
PRINT_START EXTRUDER=240 BED=75 CHAMBER=65 PRINT_MIN=155.8,158.8 PRINT_MAX=194.2,191.2
M190 S75
M109 S240
G90
G21
M83 ; use relative distances for extrusion
; Filament gcode
SET_PRESSURE_ADVANCE ADVANCE=0.02; Override pressure advance value
M106 S0
;LAYER_CHANGE
;Z:0.2
;HEIGHT:0.2
;BEFORE_LAYER_CHANGE
;0.2
G92 E0

G1 E-.8 F1800
;AFTER_LAYER_CHANGE
;0.2
;_SET_FAN_SPEED_CHANGING_LAYER
SET_VELOCITY_LIMIT ACCEL=500 ACCEL_TO_DECEL=250
SET_VELOCITY_LIMIT SQUARE_CORNER_VELOCITY=9
; printing object [a]_BFI-V2.4_Carrier_x2.stl id:0 copy 0
EXCLUDE_OBJECT_START NAME=a__BFI-V2.4_Carrier_x2.stl_id_0_copy_0
G1 Z.4 F21000
G1 X183.656 Y187.432
G1 Z.4
G1 Z.2
G1 E.8 F1800
;TYPE:Inner wall
;WIDTH:0.399999
G1 F3000
G1 X182.99 Y187.454 E.01839
G1 X182.676 Y187.563 E.00918
G1 X182.206 Y187.976 E.01729
G1 X182.071 Y188.412 E.01259
G1 X182.071 Y187.19 E.03372
G1 X181.996 Y186.762 E.01201
G1 X181.78 Y186.388 E.01193
G1 X181.338 Y186.052 E.01533
G1 X180.821 Y185.941 E.01458
G1 X169.179 Y185.941 E.3215
G1 X168.662 Y186.052 E.01458
G1 X168.22 Y186.388 E.01532
G1 X168.005 Y186.762 E.01193
G1 X167.929 Y187.19 E.01202
G1 X167.929 Y188.413 E.03375
G1 X167.794 Y187.976 E.01262
G1 X167.324 Y187.563 E.01729
G1 X167.156 Y187.493 E.00502
G1 X166.753 Y187.429 E.01127
G1 X166.349 Y187.432 E.01113
G1 X168.198 Y184.242 E.10181
G1 X168.398 Y183.791 E.01361
G1 X168.433 Y183.5 E.0081
G1 X168.403 Y183.231 E.00747
G1 X168.265 Y182.875 E.01054
G1 X166.355 Y179.567 E.10548
G1 X168.141 Y179.57 E.04932
G1 X169.264 Y180.693 E.04386
G1 X169.771 Y181.001 E.01636
G1 X170.148 Y181.06 E.01054
G1 X179.852 Y181.06 E.26795
G1 X180.229 Y181.001 E.01054
G1 X180.736 Y180.693 E.01637
G1 X181.859 Y179.57 E.04386
G1 X183.651 Y179.567 E.04949
G1 X181.655 Y183.013 E.10997
G1 X181.567 Y183.5 E.01366
G1 X181.602 Y183.791 E.0081
G1 X181.735 Y184.125 E.00992
G1 X183.636 Y187.397 E.1045
G1 X184.287 Y187.794 F21000
G1 F3000
G1 X183.115 Y187.785 E.03236
G1 X182.837 Y187.882 E.00813
G1 X182.501 Y188.177 E.01235
;WIDTH:0.445802
G1 X182.426 Y188.344 E.00571
;WIDTH:0.491604
G1 X182.352 Y188.511 E.00635
;WIDTH:0.537406
G1 X182.277 Y188.679 E.007
G1 X182.277 Y189.717 E.0397
G1 X181.783 Y189.717 E.0189
G1 X181.783 Y188.679 E.03971
G1 X181.76 Y188.431 E.00953
;WIDTH:0.491604
G1 X181.737 Y188.182 E.00864
;WIDTH:0.445802
G1 X181.714 Y187.934 E.00776
;WIDTH:0.399999
G1 X181.714 Y187.19 E.02055
G1 X181.66 Y186.884 E.00858
G1 X181.53 Y186.648 E.00745
G1 X181.19 Y186.377 E.012
G1 X180.821 Y186.298 E.01041
G1 X169.313 Y186.298 E.31777
G1 X168.81 Y186.377 E.01408
G1 X168.494 Y186.617 E.01095
G1 X168.34 Y186.884 E.00852
G1 X168.286 Y187.19 E.00858
G1 X168.286 Y187.934 E.02055
;WIDTH:0.445863
G1 X168.263 Y188.182 E.00776
;WIDTH:0.491726
G1 X168.24 Y188.431 E.00865
;WIDTH:0.537589
G1 X168.217 Y188.679 E.00953
G1 X168.217 Y189.717 E.03972
G1 X167.723 Y189.717 E.01892
G1 X167.722 Y188.679 E.03972
G1 X167.648 Y188.511 E.00701
;WIDTH:0.491726
G1 X167.573 Y188.344 E.00636
;WIDTH:0.445863
G1 X167.499 Y188.177 E.00571
;WIDTH:0.399999
G1 X167.163 Y187.882 E.01235
G1 X167.043 Y187.832 E.00359
G1 X166.614 Y187.787 E.01191
G1 X165.713 Y187.794 E.02488
G1 X166.189 Y187.007 E.0254
G1 X167.888 Y184.063 E.09387
G1 X168.051 Y183.708 E.01078
G1 X168.055 Y183.308 E.01105
G1 X167.956 Y183.054 E.00753
G1 X166.184 Y179.985 E.09785
G1 X165.709 Y179.2 E.02534
G1 X168.289 Y179.213 E.07125
G1 X169.517 Y180.441 E.04794
G1 X169.879 Y180.661 E.01169
G1 X170.148 Y180.702 E.00753
G1 X179.852 Y180.702 E.26795
G1 X180.121 Y180.661 E.00753
G1 X180.483 Y180.441 E.01169
G1 X181.711 Y179.213 E.04794
G1 X184.294 Y179.194 E.07134
G1 X183.811 Y179.993 E.02578
G1 X182.044 Y183.054 E.0976
G1 X181.945 Y183.308 E.00753
G1 X181.949 Y183.708 E.01105
G1 X182.044 Y183.946 E.00708
G1 X183.586 Y186.618 E.08517
G1 X184.267 Y187.76 E.03671
G1 X185.132 Y188.249 F21000
G1 F3000
G1 X184.774 Y188.188 E.01005
G1 X184.25 Y188.15 E.0145
G1 X183.242 Y188.143 E.02782
G1 X183.07 Y188.171 E.00483
G1 X182.796 Y188.378 E.00947
G1 X182.703 Y188.679 E.0087
G1 X182.703 Y190.143 E.04042
G1 X181.357 Y190.143 E.03716
G1 X181.357 Y187.19 E.08152
G1 X181.285 Y186.922 E.00766
G1 X181.043 Y186.702 E.00904
G1 X180.821 Y186.655 E.00625
G1 X169.313 Y186.655 E.31777
G1 X168.957 Y186.702 E.00992
G1 X168.715 Y186.922 E.00904
G1 X168.643 Y187.19 E.00766
G1 X168.643 Y190.143 E.08152
G1 X167.297 Y190.143 E.03717
G1 X167.296 Y188.679 E.04042
G1 X167.204 Y188.378 E.0087
G1 X166.93 Y188.171 E.00947
G1 X166.616 Y188.144 E.0087
G1 X165.608 Y188.159 E.02785
G1 X164.889 Y188.245 E.01998
G1 X165.119 Y187.985 E.00956
G1 X165.425 Y187.579 E.01405
G1 X165.879 Y186.829 E.02423
G1 X167.647 Y183.768 E.0976
G1 X167.718 Y183.5 E.00766
G1 X167.647 Y183.232 E.00766
G1 X165.876 Y180.165 E.09779
G1 X165.341 Y179.296 E.02819
G1 X164.868 Y178.752 E.01989
G1 X165.378 Y178.824 E.01421
G1 X165.903 Y178.852 E.01452
G1 X168.437 Y178.857 E.06998
G1 X169.769 Y180.188 E.05201
G1 X169.986 Y180.32 E.00701
G1 X170.148 Y180.345 E.00452
G1 X179.926 Y180.34 E.27001
G1 X180.231 Y180.188 E.00939
G1 X181.563 Y178.857 E.05201
G1 X184.149 Y178.849 E.07142
G1 X185.113 Y178.753 E.02674
G1 X184.935 Y178.947 E.00726
G1 X184.494 Y179.554 E.02073
G1 X184.121 Y180.171 E.01991
G1 X182.353 Y183.232 E.0976
G1 X182.282 Y183.5 E.00766
G1 X182.353 Y183.768 E.00766
G1 X183.794 Y186.263 E.07957
G1 X184.628 Y187.668 E.0451
G1 X185.106 Y188.218 E.02014
G1 X185.867 Y188.367 F21000
;TYPE:Outer wall
;WIDTH:0.399998
G1 F3000
G1 X191.194 Y188.371 E.1471
;WIDTH:0.448373
G1 X191.372 Y188.312 E.00588
G1 X191.991 Y187.383 E.03501
;WIDTH:0.402727
G1 X192.925 Y185.767 E.05195
;WIDTH:0.433667
G1 X193.103 Y185.401 E.01229
;WIDTH:0.464607
G1 X193.281 Y185.035 E.01326
G1 X193.361 Y184.785 E.00858
;WIDTH:0.439379
G1 X193.591 Y183.985 E.0255
;WIDTH:0.466423
G1 X193.665 Y183.876 E.0043
;WIDTH:0.514912
G1 X193.738 Y183.767 E.00479
;WIDTH:0.563401
G1 X193.811 Y183.658 E.00529
;WIDTH:0.61189
G1 X193.884 Y183.549 E.00578
G1 X193.908 Y183.645 E.00436
;WIDTH:0.564285
G1 X193.932 Y183.741 E.004
;WIDTH:0.516679
G1 X193.956 Y183.838 E.00363
;WIDTH:0.469073
G1 X193.98 Y183.934 E.00327
;WIDTH:0.421467
G1 X193.944 Y184.107 E.00516
;WIDTH:0.464607
G1 X193.652 Y185.233 E.03795
G1 X193.437 Y185.604 E.01398
;WIDTH:0.433667
G1 X193.221 Y185.974 E.01295
;WIDTH:0.402727
G1 X192.301 Y187.563 E.05109
;WIDTH:0.415482
G1 X192.043 Y187.993 E.01445
;WIDTH:0.449735
G1 X191.648 Y188.641 E.02386
G1 X191.026 Y188.729 E.01975
;WIDTH:0.399998
G1 X185.84 Y188.729 E.14322
G1 X184.747 Y188.544 E.0306
G1 X184.248 Y188.507 E.01383
G1 X183.24 Y188.5 E.02782
G1 X183.091 Y188.578 E.00464
G1 X183.06 Y188.679 E.0029
G1 X183.06 Y190.5 E.05028
G1 X181 Y190.5 E.05688
G1 X181 Y187.19 E.09138
G1 X180.963 Y187.082 E.00316
G1 X180.821 Y187.012 E.00437
G1 X169.179 Y187.012 E.32149
G1 X169.042 Y187.076 E.00417
G1 X169 Y187.19 E.00337
G1 X169 Y190.5 E.09138
G1 X166.94 Y190.5 E.05689
G1 X166.939 Y188.679 E.05028
G1 X166.908 Y188.578 E.0029
G1 X166.841 Y188.519 E.00247
G1 X166.619 Y188.501 E.00617
G1 X165.74 Y188.508 E.02426
G1 X165.167 Y188.558 E.0159
G1 X164.299 Y188.714 E.02434
G1 X163.806 Y188.729 E.01361
G1 X158.962 Y188.729 E.13378
;WIDTH:0.449855
G1 X158.352 Y188.641 E.01939
G1 X158.284 Y188.527 E.00416
;WIDTH:0.44816
G1 X157.706 Y187.578 E.03483
;WIDTH:0.402813
G1 X157.231 Y186.763 E.02624
;WIDTH:0.40613
G1 X156.75 Y185.93 E.027
;WIDTH:0.435419
G1 X156.547 Y185.577 E.01237
;WIDTH:0.464707
G1 X156.344 Y185.224 E.01329
G1 X156.272 Y185.002 E.00761
;WIDTH:0.451174
G1 X156.025 Y183.975 E.03335
;WIDTH:0.469145
G1 X156.047 Y183.868 E.00359
;WIDTH:0.516745
G1 X156.07 Y183.762 E.00399
;WIDTH:0.564345
G1 X156.093 Y183.656 E.00439
;WIDTH:0.611944
G1 X156.116 Y183.549 E.00479
G1 X156.175 Y183.628 E.00435
;WIDTH:0.564345
G1 X156.234 Y183.707 E.00398
;WIDTH:0.516745
G1 X156.293 Y183.786 E.00362
;WIDTH:0.469145
G1 X156.353 Y183.865 E.00326
;WIDTH:0.421545
G1 X156.417 Y184.009 E.0046
;WIDTH:0.464707
G1 X156.712 Y185.021 E.03439
G1 X156.897 Y185.401 E.0138
;WIDTH:0.434865
G1 X157.082 Y185.782 E.01283
;WIDTH:0.405023
G1 X157.543 Y186.586 E.02594
;WIDTH:0.402813
G1 X158.016 Y187.396 E.02613
;WIDTH:0.44816
G1 X158.634 Y188.321 E.03484
G1 X158.973 Y188.371 E.01076
;WIDTH:0.399999
G1 X164.2 Y188.371 E.14433
G1 X164.337 Y188.314 E.00409
G1 X164.798 Y187.815 E.01876
G1 X165.12 Y187.395 E.01462
G1 X165.57 Y186.65 E.02403
G1 X167.356 Y183.542 E.099
G1 X167.337 Y183.411 E.00365
G1 X165.569 Y180.348 E.09765
G1 X165.201 Y179.739 E.01966
G1 X164.906 Y179.339 E.01372
G1 X164.286 Y178.65 E.02559
G1 X163.914 Y178.629 E.01029
G1 X158.807 Y178.629 E.14102
;WIDTH:0.448552
G1 X158.628 Y178.688 E.00591
G1 X158.009 Y179.617 E.03502
;WIDTH:0.402727
G1 X157.075 Y181.233 E.05195
;WIDTH:0.433665
G1 X156.897 Y181.599 E.01229
;WIDTH:0.464603
G1 X156.719 Y181.965 E.01326
G1 X156.639 Y182.215 E.00858
;WIDTH:0.439376
G1 X156.409 Y183.015 E.0255
;WIDTH:0.465365
G1 X156.335 Y183.136 E.00464
;WIDTH:0.512798
G1 X156.261 Y183.257 E.00516
;WIDTH:0.560231
G1 X156.187 Y183.379 E.00568
;WIDTH:0.607664
G1 X156.113 Y183.5 E.0062
G1 X156.09 Y183.392 E.00485
;WIDTH:0.560231
G1 X156.066 Y183.283 E.00444
;WIDTH:0.512798
G1 X156.042 Y183.175 E.00403
;WIDTH:0.465365
G1 X156.019 Y183.066 E.00363
;WIDTH:0.417932
G1 X156.055 Y182.893 E.00513
;WIDTH:0.464603
G1 X156.348 Y181.767 E.03795
G1 X156.563 Y181.396 E.01398
;WIDTH:0.433665
G1 X156.779 Y181.026 E.01295
;WIDTH:0.402727
G1 X157.699 Y179.437 E.05109
;WIDTH:0.415615
G1 X157.957 Y179.007 E.01446
;WIDTH:0.449869
G1 X158.352 Y178.359 E.02386
G1 X158.992 Y178.271 E.02033
;WIDTH:0.399999
G1 X164.279 Y178.271 E.14599
G1 X164.885 Y178.394 E.01709
G1 X165.398 Y178.467 E.01429
G1 X165.904 Y178.495 E.014
G1 X168.586 Y178.5 E.07405
G1 X170.022 Y179.936 E.05608
G1 X170.148 Y179.988 E.00377
G1 X179.852 Y179.988 E.26795
G1 X179.978 Y179.936 E.00377
G1 X181.414 Y178.5 E.05608
G1 X184.113 Y178.494 E.07453
G1 X184.857 Y178.42 E.02064
G1 X185.462 Y178.324 E.0169
G1 X186.086 Y178.271 E.01729
G1 X191.02 Y178.271 E.13623
;WIDTH:0.424999
G1 X191.334 Y178.315 E.00938
;WIDTH:0.449999
G1 X191.648 Y178.359 E.00999
G1 X191.716 Y178.473 E.00416
;WIDTH:0.448349
G1 X192.294 Y179.422 E.03485
;WIDTH:0.402927
G1 X192.769 Y180.237 E.02625
;WIDTH:0.406151
G1 X193.25 Y181.069 E.02701
;WIDTH:0.435428
G1 X193.453 Y181.423 E.01237
;WIDTH:0.464704
G1 X193.656 Y181.776 E.01329
G1 X193.727 Y181.998 E.00761
;WIDTH:0.451184
G1 X193.981 Y183.063 E.03457
;WIDTH:0.466399
G1 X193.957 Y183.172 E.00366
;WIDTH:0.51347
G1 X193.934 Y183.282 E.00406
;WIDTH:0.560541
G1 X193.91 Y183.391 E.00447
;WIDTH:0.607612
G1 X193.887 Y183.5 E.00488
G1 X193.811 Y183.373 E.00646
;WIDTH:0.560541
G1 X193.735 Y183.246 E.00593
;WIDTH:0.51347
G1 X193.659 Y183.118 E.00539
;WIDTH:0.466399
G1 X193.583 Y182.991 E.00485
;WIDTH:0.464704
G1 X193.288 Y181.979 E.03438
G1 X193.103 Y181.599 E.01381
;WIDTH:0.434875
G1 X192.918 Y181.218 E.01283
;WIDTH:0.405045
G1 X192.457 Y180.414 E.02594
;WIDTH:0.402927
G1 X191.983 Y179.603 E.02614
;WIDTH:0.448349
G1 X191.366 Y178.679 E.03484
G1 X191.008 Y178.629 E.01134
;WIDTH:0.399999
G1 X185.803 Y178.629 E.14373
G1 X185.664 Y178.686 E.00417
G1 X185.215 Y179.169 E.01819
G1 X184.799 Y179.739 E.01949
G1 X184.43 Y180.35 E.01971
G1 X182.649 Y183.433 E.09832
G1 X182.663 Y183.589 E.00432
G1 X184.199 Y186.25 E.08484
G1 X184.883 Y187.398 E.0369
G1 X185.659 Y188.31 E.03306
;WIDTH:0.398561
G1 X185.763 Y188.367 E.00325
;WIDTH:0.399998
G1 X185.827 Y188.367 E.00177
G1 E-.56 F1800
;WIPE_START
G1 F3000
G1 X186.827 Y188.368 E-.24
;WIPE_END
G1 Z.6 F21000
G1 X183.195 Y180.131 Z.6
G1 Z.2
G1 E.8 F1800
;TYPE:Bottom surface
;WIDTH:0.405805
G1 F6300
G1 X182.9 Y179.836 E.01172
G1 X182.388 Y179.837 E.01437
G1 X182.89 Y180.339 E.01993
G1 X182.702 Y180.665 E.01054
G1 X181.923 Y179.885 E.03093
G1 X181.666 Y180.142 E.01018
G1 X182.514 Y180.99 E.03365
G1 X182.326 Y181.315 E.01054
G1 X181.409 Y180.398 E.03638
G1 X181.153 Y180.655 E.01018
G1 X182.138 Y181.641 E.03911
G1 X181.95 Y181.966 E.01054
G1 X180.891 Y180.906 E.04204
G1 X180.572 Y181.1 E.01048
G1 X181.763 Y182.291 E.04726
G1 X181.575 Y182.617 E.01054
G1 X180.233 Y181.274 E.05327
G1 X180.064 Y181.313 E.00486
G1 X179.772 Y181.327 E.00819
G1 X181.401 Y182.956 E.06465
G1 X181.334 Y183.175 E.00641
G1 X181.312 Y183.38 E.0058
G1 X179.259 Y181.327 E.08147
G1 X178.746 Y181.327 E.0144
G1 X181.386 Y183.967 E.10476
G1 X181.5 Y184.253 E.00864
G1 X181.97 Y185.065 E.02632
G1 X178.233 Y181.327 E.14831
G1 X177.72 Y181.327 E.0144
G1 X182.677 Y186.285 E.19675
G1 X183.192 Y187.172 E.02878
G1 X183.061 Y187.182 E.00368
G1 X177.206 Y181.327 E.23234
G1 X176.693 Y181.327 E.0144
G1 X181.096 Y185.73 E.17472
G1 X181.45 Y185.806 E.01016
G1 X181.979 Y186.209 E.01867
G1 X182.136 Y186.432 E.00767
G1 X182.248 Y186.671 E.00738
G1 X182.319 Y186.954 E.00819
G1 X182.65 Y187.284 E.01312
G1 X182.548 Y187.327 E.0031
G1 X182.352 Y187.499 E.00733
G1 X182.17 Y187.318 E.0072
G1 E-.56 F1800
;WIPE_START
G1 F6300
G1 X182.352 Y187.499 E-.06154
G1 X182.548 Y187.327 E-.06273
G1 X182.65 Y187.284 E-.0265
G1 X182.387 Y187.021 E-.08923
;WIPE_END
G1 Z.6 F21000
G1 X180.686 Y185.833 Z.6
G1 Z.2
G1 E.8 F1800
G1 F6300
G1 X176.18 Y181.327 E.17882
G1 X175.667 Y181.327 E.0144
G1 X180.012 Y185.673 E.17245
G1 X179.499 Y185.673 E.0144
G1 X175.154 Y181.327 E.17245
G1 X174.64 Y181.327 E.0144
G1 X178.986 Y185.673 E.17245
G1 X178.472 Y185.673 E.0144
G1 X174.127 Y181.327 E.17245
G1 X173.614 Y181.327 E.0144
G1 X177.959 Y185.673 E.17245
G1 X177.446 Y185.673 E.0144
G1 X173.101 Y181.327 E.17245
G1 X172.588 Y181.327 E.0144
G1 X176.933 Y185.673 E.17245
G1 X176.42 Y185.673 E.0144
G1 X172.074 Y181.327 E.17245
M73 P1 R32
G1 X171.561 Y181.327 E.0144
G1 X175.907 Y185.673 E.17245
G1 X175.393 Y185.673 E.0144
G1 X171.048 Y181.327 E.17245
G1 X170.535 Y181.327 E.0144
G1 X174.88 Y185.673 E.17245
G1 X174.367 Y185.673 E.0144
G1 X170.012 Y181.318 E.17282
G1 X169.683 Y181.255 E.00941
G1 X169.083 Y180.89 E.01972
G1 X168.019 Y179.838 E.04199
G1 X173.854 Y185.673 E.23156
G1 X173.341 Y185.673 E.0144
G1 X167.505 Y179.837 E.2316
G1 X166.991 Y179.836 E.01443
G1 X172.827 Y185.673 E.23163
G1 X172.314 Y185.673 E.0144
G1 X167.287 Y180.646 E.19949
G1 X167.988 Y181.86 E.03935
G1 X171.801 Y185.673 E.1513
G1 X171.288 Y185.673 E.0144
G1 X168.614 Y182.999 E.10613
G1 X168.666 Y183.175 E.00516
G1 X168.701 Y183.5 E.00919
G1 X168.691 Y183.589 E.0025
G1 X170.775 Y185.673 E.0827
G1 X170.261 Y185.673 E.0144
G1 X168.598 Y184.009 E.06602
G1 X168.5 Y184.253 E.00738
G1 X168.437 Y184.362 E.00353
G1 X169.748 Y185.673 E.05202
G1 X169.235 Y185.673 E.0144
G1 X168.25 Y184.687 E.0391
G1 X168.062 Y185.013 E.01054
G1 X168.801 Y185.752 E.02935
G1 X168.55 Y185.806 E.0072
G1 X168.432 Y185.896 E.00417
G1 X167.874 Y185.338 E.02215
G1 X167.686 Y185.663 E.01054
G1 X168.14 Y186.118 E.01803
