; HEADER_BLOCK_START
; generated by OrcaSlicer 2.1.0-beta on 2024-07-10 at 23:17:15
; total layer number: 30
; filament_density: 1.04
; filament_diameter: 1.75
; max_z_height: 6.00
; HEADER_BLOCK_END

; THUMBNAIL_BLOCK_START

;
; THUMBNAIL_BLOCK_END

; external perimeters extrusion width = 0.40mm
; perimeters extrusion width = 0.40mm
; infill extrusion width = 0.45mm
; solid infill extrusion width = 0.40mm
; top infill extrusion width = 0.40mm
; first layer extrusion width = 0.40mm

; external perimeters extrusion width = 0.40mm
; perimeters extrusion width = 0.40mm
; infill extrusion width = 0.45mm
; solid infill extrusion width = 0.40mm
; top infill extrusion width = 0.40mm
; first layer extrusion width = 0.40mm

; EXECUTABLE_BLOCK_START
EXCLUDE_OBJECT_DEFINE NAME=a__BFI-V2.4_Front_x2.stl_id_0_copy_0 CENTER=175,185.5 POLYGON=[[153.5,182.5],[155.014,179.976],[155.986,178.357],[157.5,177.5],[179.95,177.5],[193.5,177.5],[196.5,182.5],[196.5,188.5],[194.014,192.643],[192.5,193.5],[165.94,193.5],[157.5,193.5],[155.986,192.643],[155.014,191.024],[153.5,188.5],[153.5,182.5]]
EXCLUDE_OBJECT_DEFINE NAME=a__BFI-V2.4_Front_x2.stl_id_1_copy_0 CENTER=175,164.5 POLYGON=[[153.5,161.5],[155.014,158.976],[155.986,157.357],[157.5,156.5],[179.95,156.5],[193.5,156.5],[196.5,161.5],[196.5,167.5],[194.014,171.643],[192.5,172.5],[165.94,172.5],[157.5,172.5],[155.986,171.643],[155.014,170.024],[153.5,167.5],[153.5,161.5]]
M73 P0 R18
;TYPE:Custom
; You can use following code instead if your PRINT_START macro support Chamber and print area bedmesh
PRINT_START EXTRUDER=240 BED=75 CHAMBER=65 PRINT_MIN=155.9,158.4 PRINT_MAX=194.1,191.6
M190 S75
M109 S240
G90
G21
M83 ; use relative distances for extrusion
; Filament gcode
SET_PRESSURE_ADVANCE ADVANCE=0.02; Override pressure advance value
M106 S0
;LAYER_CHANGE
;Z:0.2
;HEIGHT:0.2
;BEFORE_LAYER_CHANGE
;0.2
G92 E0

G1 E-.8 F1800
;AFTER_LAYER_CHANGE
;0.2
;_SET_FAN_SPEED_CHANGING_LAYER
SET_VELOCITY_LIMIT ACCEL=500 ACCEL_TO_DECEL=250
SET_VELOCITY_LIMIT SQUARE_CORNER_VELOCITY=9
; printing object [a]_BFI-V2.4_Front_x2.stl id:0 copy 0
EXCLUDE_OBJECT_START NAME=a__BFI-V2.4_Front_x2.stl_id_0_copy_0
G1 Z.4 F21000
G1 X190.238 Y181.171
G1 Z.4
G1 Z.2
G1 E.8 F1800
;TYPE:Inner wall
;WIDTH:0.399999
G1 F3000
G1 X192.004 Y181.171 E.04878
G1 X192.329 Y181.712 E.0174
G1 X192.329 Y182.834 E.03099
G1 X192.215 Y182.676 E.00538
G1 X191.764 Y182.165 E.01881
G1 X191.505 Y181.938 E.00951
G1 X190.826 Y181.455 E.02302
G1 X190.274 Y181.189 E.01693
G1 E-.56 F1800
;WIPE_START
G1 F3000
G1 X191.274 Y181.179 E-.24
;WIPE_END
G1 Z.6 F21000
G1 X186.762 Y181.171 Z.6
G1 Z.2
G1 E.8 F1800
G1 F3000
G1 X185.961 Y181.584 E.02488
G1 X185.236 Y182.165 E.02566
G1 X184.639 Y182.878 E.02566
G1 X184.196 Y183.695 E.02566
G1 X183.922 Y184.602 E.02617
G1 X183.836 Y185.381 E.02163
G1 X183.837 Y185.661 E.00773
G1 X183.979 Y186.659 E.02786
G1 X184.299 Y187.532 E.02567
G1 X184.785 Y188.325 E.02566
G1 X185.418 Y189.005 E.02566
G1 X186.173 Y189.546 E.02566
G1 X186.761 Y189.829 E.018
G1 X163.216 Y189.829 E.65014
G1 X163.636 Y189.649 E.01262
G1 X164.416 Y189.144 E.02566
G1 X165.08 Y188.494 E.02566
G1 X165.602 Y187.725 E.02566
G1 X165.962 Y186.868 E.02566
G1 X166.144 Y185.957 E.02565
G1 X166.148 Y185.061 E.02474
G1 X166.021 Y184.341 E.0202
G1 X165.701 Y183.468 E.02567
G1 X165.215 Y182.676 E.02566
G1 X164.582 Y181.996 E.02566
G1 X163.826 Y181.455 E.02566
G1 X163.238 Y181.171 E.01803
G1 X186.722 Y181.171 E.64845
G1 E-.56 F1800
;WIPE_START
G1 F3000
G1 X185.961 Y181.584 E-.20775
G1 X185.856 Y181.668 E-.03225
;WIPE_END
G1 Z.6 F21000
G1 X192.329 Y188.148 Z.6
G1 Z.2
G1 E.8 F1800
G1 F3000
G1 X192.329 Y189.288 E.03149
G1 X192.004 Y189.829 E.0174
G1 X190.216 Y189.829 E.04939
G1 X190.636 Y189.649 E.01262
G1 X191.416 Y189.144 E.02566
G1 X191.915 Y188.68 E.01882
G1 X192.304 Y188.18 E.01751
G1 E-.56 F1800
;WIPE_START
G1 F3000
G1 X192.326 Y189.179 E-.24
;WIPE_END
G1 Z.6 F21000
G1 X159.762 Y181.171 Z.6
G1 Z.2
G1 E.8 F1800
G1 F3000
G1 X158.961 Y181.584 E.02488
G1 X158.236 Y182.165 E.02566
G1 X157.671 Y182.834 E.02416
G1 X157.671 Y181.712 E.03098
G1 X157.996 Y181.171 E.0174
G1 X159.722 Y181.171 E.04767
G1 E-.56 F1800
;WIPE_START
G1 F3000
G1 X158.961 Y181.584 E-.20775
G1 X158.856 Y181.668 E-.03225
;WIPE_END
G1 Z.6 F21000
G1 X157.671 Y188.167 Z.6
G1 Z.2
G1 E.8 F1800
G1 F3000
G1 X157.785 Y188.325 E.00536
G1 X158.236 Y188.835 E.01882
G1 X158.494 Y189.063 E.00951
G1 X159.173 Y189.546 E.02302
G1 X159.761 Y189.829 E.018
G1 X157.996 Y189.829 E.04875
G1 X157.671 Y189.288 E.0174
G1 X157.671 Y188.207 E.02986
G1 E-.56 F1800
;WIPE_START
G1 F3000
G1 X157.785 Y188.325 E-.03923
G1 X158.236 Y188.835 E-.16353
G1 X158.352 Y188.938 E-.03723
;WIPE_END
G1 Z.6 F21000
G1 X188.428 Y181.198 Z.6
G1 Z.2
G1 E.8 F1800
;WIDTH:0.427406
G1 F3000
G1 X187.766 Y181.238 E.01971
G1 X186.942 Y181.481 E.02553
;WIDTH:0.399999
G1 X186.177 Y181.869 E.0237
G1 X185.503 Y182.401 E.0237
G1 X184.949 Y183.057 E.0237
G1 X184.535 Y183.809 E.0237
G1 X184.277 Y184.641 E.02407
G1 X184.191 Y185.62 E.02712
G1 X184.318 Y186.546 E.0258
G1 X184.608 Y187.354 E.02371
G1 X185.052 Y188.088 E.0237
G1 X185.634 Y188.72 E.0237
G1 X186.328 Y189.224 E.0237
G1 X187.109 Y189.581 E.0237
;WIDTH:0.443444
G1 X187.764 Y189.77 E.02111
G1 X187.945 Y189.789 E.00562
;WIDTH:0.426892
G1 X188.805 Y189.808 E.02554
;WIDTH:0.440823
G1 X189.143 Y189.77 E.01049
;WIDTH:0.466352
G1 X189.482 Y189.732 E.01116
G1 X189.655 Y189.671 E.00601
;WIDTH:0.433642
G1 X190.45 Y189.345 E.02595
;WIDTH:0.399999
G1 X191.031 Y188.989 E.01881
G1 X191.231 Y188.829 E.00707
G1 X191.79 Y188.285 E.02154
G1 X192.277 Y187.578 E.0237
G1 X192.557 Y186.957 E.01881
G1 X192.686 Y186.472 E.01385
G1 X192.686 Y189.387 E.08049
G1 X192.207 Y190.186 E.02572
G1 X190.425 Y190.186 E.04921
;WIDTH:0.433176
G1 X189.969 Y190.169 E.01375
;WIDTH:0.466352
G1 X189.514 Y190.153 E.01492
G1 X189.065 Y190.167 E.0147
;WIDTH:0.438125
G1 X188.617 Y190.181 E.01372
;WIDTH:0.443444
G1 X187.715 Y190.164 E.02793
G1 X187.033 Y190.186 E.02111
;WIDTH:0.399999
G1 X163.425 Y190.186 E.65191
;WIDTH:0.433176
G1 X162.969 Y190.169 E.01375
;WIDTH:0.466352
G1 X162.514 Y190.153 E.01492
G1 X162.065 Y190.167 E.0147
;WIDTH:0.438125
G1 X161.617 Y190.181 E.01372
;WIDTH:0.443444
G1 X160.715 Y190.164 E.02793
G1 X160.033 Y190.186 E.02111
;WIDTH:0.399999
G1 X157.793 Y190.186 E.06186
G1 X157.314 Y189.387 E.02572
G1 X157.316 Y186.546 E.07845
G1 X157.608 Y187.354 E.02371
G1 X158.052 Y188.088 E.0237
G1 X158.503 Y188.599 E.01882
G1 X158.71 Y188.778 E.00755
G1 X159.328 Y189.224 E.02106
G1 X160.109 Y189.581 E.0237
;WIDTH:0.443444
G1 X160.764 Y189.77 E.02111
G1 X160.945 Y189.789 E.00562
;WIDTH:0.426892
G1 X161.805 Y189.808 E.02554
;WIDTH:0.440823
G1 X162.143 Y189.77 E.01049
;WIDTH:0.466352
G1 X162.482 Y189.732 E.01116
G1 X162.655 Y189.671 E.00601
;WIDTH:0.433642
G1 X163.45 Y189.345 E.02595
;WIDTH:0.399999
G1 X164.173 Y188.882 E.0237
G1 X164.79 Y188.285 E.0237
G1 X165.277 Y187.578 E.0237
G1 X165.614 Y186.789 E.02371
G1 X165.787 Y185.948 E.0237
G1 X165.795 Y185.114 E.02302
G1 X165.682 Y184.455 E.01848
G1 X165.392 Y183.647 E.02371
G1 X164.947 Y182.912 E.0237
G1 X164.366 Y182.28 E.0237
G1 X163.671 Y181.776 E.0237
G1 X162.89 Y181.42 E.0237
;WIDTH:0.417025
G1 X162.232 Y181.243 E.01971
G1 X161.623 Y181.186 E.0177
;WIDTH:0.427406
G1 X160.766 Y181.238 E.02552
G1 X159.942 Y181.481 E.02553
;WIDTH:0.399999
G1 X159.177 Y181.869 E.0237
G1 X158.503 Y182.401 E.0237
G1 X157.949 Y183.057 E.0237
G1 X157.535 Y183.809 E.0237
G1 X157.316 Y184.454 E.01882
G1 X157.314 Y181.613 E.07845
G1 X157.793 Y180.814 E.02572
G1 X160.033 Y180.814 E.06185
;WIDTH:0.427125
G1 X161.776 Y180.82 E.05177
;WIDTH:0.417025
G1 X162.966 Y180.814 E.03444
;WIDTH:0.399999
G1 X187.033 Y180.814 E.66456
;WIDTH:0.427125
G1 X188.776 Y180.82 E.05177
;WIDTH:0.417025
G1 X189.966 Y180.814 E.03444
;WIDTH:0.399999
G1 X192.207 Y180.814 E.06186
G1 X192.686 Y181.613 E.02572
G1 X192.686 Y183.773 E.05964
G1 X192.684 Y184.454 E.01882
G1 X192.392 Y183.647 E.02371
G1 X191.947 Y182.912 E.0237
G1 X191.497 Y182.401 E.01881
G1 X191.29 Y182.222 E.00755
G1 X190.671 Y181.776 E.02106
G1 X189.89 Y181.42 E.0237
;WIDTH:0.417025
G1 X189.232 Y181.243 E.01971
G1 X188.623 Y181.186 E.0177
;WIDTH:0.427406
G1 X188.468 Y181.196 E.00463
G1 X188.512 Y180.457 F21000
;WIDTH:0.399999
G1 F3000
G1 X192.409 Y180.457 E.1076
M73 P1 R18
G1 X193.043 Y181.514 E.03403
G1 X193.043 Y184.454 E.08119
;WIDTH:0.44052
G1 X193.023 Y184.493 E.00134
;WIDTH:0.48104
G1 X193.002 Y184.531 E.00148
;WIDTH:0.521561
G1 X192.982 Y184.57 E.00162
;WIDTH:0.562081
G1 X192.962 Y184.609 E.00175
G1 X192.983 Y185.268 E.0265
;WIDTH:0.519473
G1 X192.983 Y186.115 E.03121
G1 X193.003 Y186.342 E.0084
;WIDTH:0.479649
G1 X193.023 Y186.57 E.0077
;WIDTH:0.439824
G1 X193.043 Y186.797 E.007
;WIDTH:0.399999
G1 X193.043 Y189.486 E.07426
G1 X192.409 Y190.543 E.03403
G1 X157.591 Y190.543 E.96141
G1 X156.957 Y189.486 E.03403
G1 X156.957 Y186.546 E.08118
;WIDTH:0.439988
G1 X156.977 Y186.5 E.00155
;WIDTH:0.479976
G1 X156.997 Y186.454 E.0017
;WIDTH:0.519964
G1 X157.017 Y186.408 E.00186
;WIDTH:0.559952
G1 X157.037 Y186.361 E.00201
G1 X157.015 Y185.427 E.03738
;WIDTH:0.559742
G1 X157.037 Y184.643 E.03132
G1 X157.017 Y184.596 E.00205
;WIDTH:0.519807
G1 X156.997 Y184.549 E.00189
;WIDTH:0.479871
G1 X156.977 Y184.501 E.00174
;WIDTH:0.439935
G1 X156.957 Y184.454 E.00158
;WIDTH:0.399999
G1 X156.957 Y181.514 E.08118
G1 X157.591 Y180.457 E.03403
G1 X188.472 Y180.457 E.85271
G1 E-.56 F1800
;WIPE_START
G1 F3000
G1 X189.472 Y180.457 E-.24
;WIPE_END
G1 Z.6 F21000
G1 X192.611 Y190.9 Z.6
G1 Z.2
G1 E.8 F1800
;TYPE:Outer wall
G1 F3000
G1 X157.389 Y190.9 E.97258
G1 X156.6 Y189.585 E.04235
G1 X156.6 Y181.415 E.2256
G1 X157.389 Y180.1 E.04235
G1 X192.611 Y180.1 E.97258
G1 X193.4 Y181.415 E.04235
G1 X193.4 Y189.585 E.2256
G1 X192.632 Y190.866 E.04124
G1 E-.56 F1800
;WIPE_START
G1 F3000
G1 X191.632 Y190.867 E-.24
;WIPE_END
G1 Z.6 F21000
G1 X188.447 Y181.56 Z.6
G1 Z.2
G1 E.8 F1800
;TYPE:Inner wall
G1 F3000
G1 X188.641 Y181.548 E.00537
G1 X189.142 Y181.598 E.0139
G1 X189.802 Y181.766 E.01881
G1 X190.516 Y182.098 E.02175
G1 X191.074 Y182.507 E.0191
G1 X191.68 Y183.148 E.02435
G1 X192.083 Y183.825 E.02175
G1 X192.344 Y184.569 E.02176
;WIDTH:0.44052
G1 X192.369 Y184.588 E.00099
;WIDTH:0.48104
G1 X192.395 Y184.608 E.00109
;WIDTH:0.521561
G1 X192.42 Y184.628 E.00119
;WIDTH:0.562081
G1 X192.446 Y184.647 E.00129
G1 X192.503 Y185.158 E.02064
;WIDTH:0.527756
G1 X192.494 Y185.941 E.02934
G1 X192.418 Y186.197 E.01002
;WIDTH:0.485171
G1 X192.342 Y186.453 E.00914
;WIDTH:0.442585
G1 X192.266 Y186.709 E.00826
;WIDTH:0.399999
G1 X191.951 Y187.431 E.02175
G1 X191.5 Y188.077 E.02175
G1 X190.988 Y188.567 E.01958
G1 X190.264 Y189.04 E.02388
G1 X189.527 Y189.319 E.02175
G1 X188.75 Y189.447 E.02175
G1 X187.963 Y189.419 E.02175
G1 X187.197 Y189.235 E.02175
G1 X186.483 Y188.902 E.02175
G1 X185.849 Y188.435 E.02175
G1 X185.32 Y187.852 E.02175
G1 X184.917 Y187.175 E.02175
G1 X184.656 Y186.432 E.02175
G1 X184.546 Y185.579 E.02375
G1 X184.632 Y184.68 E.02493
G1 X184.873 Y183.922 E.02197
G1 X185.258 Y183.235 E.02175
G1 X185.771 Y182.638 E.02175
G1 X186.392 Y182.154 E.02175
G1 X187.097 Y181.802 E.02175
G1 X187.858 Y181.598 E.02175
G1 X188.407 Y181.563 E.01521
G1 X188.475 Y181.915 F21000
;TYPE:Outer wall
G1 F3000
G1 X188.659 Y181.904 E.00508
G1 X189.054 Y181.944 E.01095
G1 X189.714 Y182.112 E.01881
G1 X190.362 Y182.42 E.01979
G1 X190.859 Y182.792 E.01714
G1 X191.412 Y183.385 E.0224
G1 X191.773 Y184.004 E.01979
G1 X192.005 Y184.682 E.0198
G1 X192.089 Y185.221 E.01505
G1 X192.073 Y185.93 E.01959
G1 X191.917 Y186.63 E.01979
G1 X191.626 Y187.284 E.01979
G1 X191.21 Y187.868 E.01979
G1 X190.745 Y188.305 E.01762
G1 X190.078 Y188.735 E.02192
G1 X189.405 Y188.984 E.01979
G1 X188.697 Y189.094 E.01979
G1 X187.981 Y189.062 E.01979
G1 X187.286 Y188.889 E.01979
G1 X186.638 Y188.581 E.01979
G1 X186.065 Y188.151 E.01979
G1 X185.588 Y187.616 E.01979
G1 X185.226 Y186.997 E.01979
G1 X184.995 Y186.318 E.0198
G1 X184.901 Y185.538 E.0217
G1 X184.987 Y184.719 E.02273
G1 X185.212 Y184.036 E.01986
G1 X185.567 Y183.414 E.01979
G1 X186.039 Y182.874 E.01979
G1 X186.608 Y182.438 E.01979
G1 X187.252 Y182.124 E.01979
G1 X187.946 Y181.944 E.01979
G1 X188.436 Y181.917 E.01354
G1 E-.56 F1800
;WIPE_START
G1 F3000
G1 X188.659 Y181.904 E-.05376
G1 X189.054 Y181.944 E-.09521
G1 X189.421 Y182.037 E-.09103
;WIPE_END
G1 Z.6 F21000
G1 X160.563 Y181.677 Z.6
G1 Z.2
G1 E.8 F1800
;TYPE:Inner wall
G1 F3000
G1 X160.858 Y181.598 E.00843
G1 X161.641 Y181.548 E.02168
G1 X162.142 Y181.598 E.0139
G1 X162.802 Y181.766 E.01881
G1 X163.516 Y182.098 E.02175
G1 X164.151 Y182.565 E.02175
G1 X164.68 Y183.148 E.02175
G1 X165.083 Y183.825 E.02175
G1 X165.344 Y184.569 E.02175
G1 X165.442 Y185.168 E.01676
G1 X165.43 Y185.939 E.02131
G1 X165.266 Y186.709 E.02174
G1 X164.951 Y187.431 E.02175
G1 X164.5 Y188.077 E.02175
G1 X163.93 Y188.62 E.02175
G1 X163.264 Y189.04 E.02175
G1 X162.527 Y189.319 E.02175
G1 X161.75 Y189.447 E.02175
G1 X160.963 Y189.419 E.02175
G1 X160.197 Y189.235 E.02175
G1 X159.483 Y188.902 E.02175
G1 X158.926 Y188.493 E.0191
G1 X158.32 Y187.852 E.02435
G1 X157.917 Y187.175 E.02175
G1 X157.656 Y186.432 E.02175
;WIDTH:0.439988
G1 X157.63 Y186.407 E.00111
;WIDTH:0.479976
G1 X157.604 Y186.382 E.00122
;WIDTH:0.519964
G1 X157.578 Y186.357 E.00133
;WIDTH:0.559952
G1 X157.552 Y186.332 E.00144
G1 X157.488 Y185.586 E.02995
;WIDTH:0.559742
G1 X157.552 Y184.671 E.03662
G1 X157.578 Y184.646 E.00146
;WIDTH:0.519807
G1 X157.604 Y184.62 E.00135
;WIDTH:0.479871
G1 X157.63 Y184.594 E.00124
;WIDTH:0.439935
G1 X157.656 Y184.568 E.00112
;WIDTH:0.399999
G1 X157.873 Y183.922 E.01882
G1 X158.258 Y183.235 E.02175
G1 X158.771 Y182.638 E.02175
G1 X159.392 Y182.154 E.02175
G1 X160.097 Y181.802 E.02175
G1 X160.524 Y181.687 E.01221
G1 X160.66 Y182.018 F21000
;TYPE:Outer wall
G1 F3000
G1 X160.946 Y181.944 E.00814
G1 X161.659 Y181.904 E.01973
G1 X162.054 Y181.944 E.01095
G1 X162.714 Y182.112 E.01881
G1 X163.362 Y182.42 E.01979
G1 X163.935 Y182.85 E.01979
G1 X164.412 Y183.385 E.01979
G1 X164.773 Y184.004 E.01979
G1 X165.005 Y184.682 E.0198
G1 X165.089 Y185.221 E.01505
G1 X165.073 Y185.93 E.01959
G1 X164.917 Y186.63 E.01979
G1 X164.626 Y187.284 E.01979
G1 X164.21 Y187.868 E.01979
G1 X163.687 Y188.359 E.01979
G1 X163.078 Y188.735 E.01979
G1 X162.405 Y188.984 E.01979
G1 X161.697 Y189.094 E.01979
G1 X160.981 Y189.062 E.01979
G1 X160.286 Y188.889 E.01979
G1 X159.638 Y188.581 E.01979
G1 X159.141 Y188.209 E.01714
G1 X158.588 Y187.616 E.02239
G1 X158.226 Y186.997 E.01979
G1 X157.995 Y186.318 E.0198
G1 X157.901 Y185.538 E.0217
G1 X157.987 Y184.719 E.02273
G1 X158.212 Y184.036 E.01986
G1 X158.567 Y183.414 E.01979
G1 X159.039 Y182.874 E.01979
G1 X159.608 Y182.438 E.01979
G1 X160.252 Y182.124 E.01979
G1 X160.622 Y182.028 E.01054
G1 E-.56 F1800
;WIPE_START
G1 F3000
G1 X160.946 Y181.944 E-.08037
G1 X161.61 Y181.907 E-.15963
;WIPE_END
G1 Z.6 F21000
G1 X158.012 Y181.352 Z.6
G1 Z.2
G1 E.8 F1800
;TYPE:Bottom surface
;WIDTH:0.457172
G1 F6300
G1 X158.367 Y181.706 E.01606
G1 X158.124 Y181.894 E.00981
G1 X158.051 Y181.976 E.00354
G1 X157.792 Y181.718 E.01169
G1 E-.56 F1800
;WIPE_START
G1 F6300
G1 X158.051 Y181.976 E-.08761
G1 X158.124 Y181.894 E-.02653
G1 X158.367 Y181.706 E-.07351
G1 X158.212 Y181.552 E-.05235
;WIPE_END
G1 Z.6 F21000
G1 X158.803 Y189.665 Z.6
G1 Z.2
G1 E.8 F1800
;WIDTH:0.434798
G1 F6300
G1 X157.778 Y188.641 E.04391
G1 E-.56 F1800
;WIPE_START
G1 F6300
G1 X158.485 Y189.348 E-.24
;WIPE_END
G1 Z.6 F21000
G1 X185.541 Y181.768 Z.6
G1 Z.2
G1 E.8 F1800
;WIDTH:0.40327
G1 F6300
G1 X185.211 Y181.439 E.01298
G1 X184.702 Y181.439 E.0142
G1 X185.146 Y181.884 E.01752
G1 X184.897 Y182.144 E.01004
G1 X184.192 Y181.439 E.02777
G1 X183.683 Y181.439 E.0142
M73 P2 R18
G1 X184.658 Y182.415 E.03844
G1 X184.437 Y182.703 E.01013
G1 X183.173 Y181.439 E.0498
G1 X182.663 Y181.439 E.0142
G1 X184.247 Y183.022 E.0624
G1 X184.061 Y183.346 E.0104
G1 X182.154 Y181.439 E.07516
G1 X181.644 Y181.439 E.0142
G1 X183.91 Y183.705 E.08931
G1 X183.782 Y184.087 E.01121
G1 X181.135 Y181.439 E.10434
G1 X180.625 Y181.439 E.0142
G1 X183.674 Y184.488 E.12015
