; HEADER_BLOCK_START
; generated by OrcaSlicer 2.1.0-beta on 2024-07-24 at 08:08:05
; total layer number: 21
; filament_density: 1.04
; filament_diameter: 1.75
; max_z_height: 5.10
; HEADER_BLOCK_END

; THUMBNAIL_BLOCK_START

;
; THUMBNAIL_BLOCK_END

; external perimeters extrusion width = 0.62mm
; perimeters extrusion width = 0.62mm
; infill extrusion width = 0.62mm
; solid infill extrusion width = 0.62mm
; top infill extrusion width = 0.62mm
; first layer extrusion width = 0.62mm

; EXECUTABLE_BLOCK_START
EXCLUDE_OBJECT_DEFINE NAME=Disc_id_0_copy_0 CENTER=175,175 POLYGON=[[125,174.16],[125.056,172.481],[125.169,170.805],[125.338,169.133],[125.563,167.468],[125.844,165.812],[126.181,164.166],[126.572,162.532],[127.018,160.912],[127.519,159.309],[128.073,157.722],[128.68,156.156],[129.339,154.611],[130.05,153.088],[130.811,151.591],[131.622,150.12],[132.483,148.677],[133.391,147.263],[134.346,145.881],[135.347,144.532],[136.393,143.217],[137.483,141.938],[138.615,140.697],[139.787,139.494],[141,138.331],[142.251,137.21],[143.539,136.131],[144.863,135.096],[146.22,134.107],[147.61,133.163],[149.031,132.267],[150.481,131.418],[151.959,130.619],[153.463,129.871],[154.991,129.173],[156.542,128.526],[158.114,127.933],[159.704,127.392],[161.312,126.905],[162.936,126.473],[164.573,126.095],[166.222,125.772],[167.88,125.505],[169.547,125.294],[171.22,125.139],[172.897,125.041],[174.576,124.998],[176.256,125.012],[177.935,125.083],[179.61,125.21],[181.28,125.393],[182.943,125.632],[184.597,125.927],[186.24,126.277],[187.871,126.682],[189.487,127.142],[191.086,127.656],[192.668,128.223],[194.229,128.843],[195.769,129.515],[197.285,130.239],[198.776,131.013],[200.24,131.836],[201.676,132.709],[203.082,133.629],[204.456,134.596],[205.796,135.608],[207.102,136.665],[208.372,137.765],[209.604,138.908],[210.797,140.09],[211.95,141.313],[213.06,142.573],[214.128,143.87],[215.152,145.202],[216.13,146.568],[217.062,147.966],[217.947,149.394],[218.783,150.852],[219.569,152.336],[220.305,153.846],[220.99,155.38],[221.623,156.937],[222.204,158.513],[222.731,160.108],[223.204,161.72],[223.623,163.347],[223.987,164.987],[224.296,166.639],[224.549,168.3],[224.746,169.968],[224.887,171.642],[224.972,173.32],[225,175],[224.972,176.68],[224.887,178.358],[224.746,180.032],[224.549,181.7],[224.296,183.361],[223.987,185.013],[223.623,186.653],[223.204,188.28],[222.731,189.892],[222.204,191.487],[221.623,193.063],[220.99,194.62],[220.305,196.154],[219.569,197.664],[218.783,199.148],[217.947,200.606],[217.062,202.034],[216.13,203.432],[215.152,204.798],[214.128,206.13],[213.06,207.427],[211.95,208.687],[210.797,209.91],[209.604,211.092],[208.372,212.235],[207.102,213.335],[205.796,214.392],[204.456,215.404],[203.082,216.371],[201.676,217.291],[200.24,218.164],[198.776,218.987],[197.285,219.761],[195.769,220.485],[194.229,221.157],[192.668,221.777],[191.086,222.344],[189.487,222.858],[187.871,223.318],[186.24,223.723],[184.597,224.073],[182.943,224.368],[181.28,224.607],[179.61,224.79],[177.935,224.917],[176.256,224.988],[174.576,225.002],[172.897,224.959],[171.22,224.861],[169.547,224.706],[167.88,224.495],[166.222,224.228],[164.573,223.905],[162.936,223.527],[161.312,223.095],[159.704,222.608],[158.114,222.067],[156.542,221.474],[154.991,220.827],[153.463,220.129],[151.959,219.381],[150.481,218.582],[149.031,217.733],[147.61,216.837],[146.22,215.893],[144.863,214.904],[143.539,213.869],[142.251,212.79],[141,211.669],[139.787,210.506],[138.615,209.303],[137.483,208.062],[136.393,206.783],[135.347,205.468],[134.346,204.119],[133.391,202.737],[132.483,201.323],[131.622,199.88],[130.811,198.409],[130.05,196.912],[129.339,195.389],[128.68,193.844],[128.073,192.278],[127.519,190.691],[127.018,189.088],[126.572,187.468],[126.181,185.834],[125.844,184.188],[125.563,182.532],[125.338,180.867],[125.169,179.195],[125.056,177.519],[125,175.84],[125,174.16]]
M73 P0 R20
;TYPE:Custom
; You can use following code instead if your PRINT_START macro support Chamber and print area bedmesh
PRINT_START EXTRUDER=270 BED=110 CHAMBER=70 PRINT_MIN=125,124.998 PRINT_MAX=225,225.002
M190 S110
M109 S270
G90
G21
M83 ; use relative distances for extrusion
; Filament gcode
SET_PRESSURE_ADVANCE ADVANCE=0.02; Override pressure advance value
M106 S0
;LAYER_CHANGE
;Z:0.3
;HEIGHT:0.3
;BEFORE_LAYER_CHANGE
;0.3
G92 E0

G1 E-.8 F1800
;AFTER_LAYER_CHANGE
;0.3
;_SET_FAN_SPEED_CHANGING_LAYER
SET_VELOCITY_LIMIT ACCEL=500 ACCEL_TO_DECEL=250
SET_VELOCITY_LIMIT SQUARE_CORNER_VELOCITY=9
; printing object Disc id:0 copy 0
EXCLUDE_OBJECT_START NAME=Disc_id_0_copy_0
G1 Z.4 F21000
G1 X210.751 Y142.405
G1 Z.4
G1 Z.3
G1 E.8 F1800
;TYPE:Inner wall
;WIDTH:0.62
G1 F3000
G1 X211.826 Y143.625 E.10589
G1 X212.859 Y144.88 E.1059
G1 X213.85 Y146.169 E.10589
G1 X214.796 Y147.49 E.10589
G1 X215.698 Y148.843 E.10589
G1 X216.554 Y150.225 E.1059
G1 X217.363 Y151.635 E.10589
G1 X218.124 Y153.071 E.10589
G1 X218.814 Y154.488 E.10266
G1 X219.499 Y156.017 E.10917
G1 X220.111 Y157.522 E.10584
G1 X220.673 Y159.048 E.10589
G1 X221.183 Y160.591 E.10589
G1 X221.641 Y162.151 E.10589
G1 X222.047 Y163.725 E.10589
G1 X222.399 Y165.312 E.10588
G1 X222.697 Y166.91 E.1059
G1 X222.942 Y168.517 E.10589
G1 X223.133 Y170.131 E.1059
G1 X223.269 Y171.751 E.10589
G1 X223.349 Y173.325 E.10266
G1 X223.379 Y175.001 E.10917
G1 X223.351 Y176.625 E.10584
G1 X223.269 Y178.249 E.10589
G1 X223.133 Y179.869 E.10589
G1 X222.942 Y181.483 E.1059
G1 X222.697 Y183.09 E.10589
G1 X222.399 Y184.688 E.1059
G1 X222.047 Y186.275 E.10589
G1 X221.641 Y187.849 E.10589
G1 X221.183 Y189.409 E.1059
G1 X220.673 Y190.952 E.10589
G1 X220.111 Y192.478 E.10589
G1 X219.499 Y193.983 E.10589
G1 X218.836 Y195.468 E.10589
G1 X218.124 Y196.929 E.10589
G1 X217.363 Y198.365 E.10589
G1 X216.554 Y199.775 E.10589
G1 X215.698 Y201.157 E.1059
G1 X214.796 Y202.51 E.10589
G1 X213.85 Y203.831 E.1059
G1 X212.859 Y205.12 E.10589
G1 X211.826 Y206.375 E.10589
G1 X210.751 Y207.595 E.10589
G1 X209.636 Y208.778 E.10589
G1 X208.482 Y209.922 E.10589
G1 X207.29 Y211.027 E.1059
G1 X206.061 Y212.092 E.10588
G1 X204.798 Y213.114 E.10589
G1 X203.5 Y214.094 E.10589
G1 X202.171 Y215.03 E.10589
G1 X200.811 Y215.92 E.10589
G1 X199.422 Y216.764 E.1059
G1 X198.048 Y217.537 E.10266
G1 X196.562 Y218.31 E.10916
G1 X195.095 Y219.01 E.10585
G1 X193.605 Y219.66 E.10588
G1 X192.141 Y220.242 E.10267
G1 X190.564 Y220.809 E.10917
G1 X189.017 Y221.306 E.10583
G1 X187.453 Y221.751 E.1059
G1 X185.876 Y222.143 E.10589
G1 X184.286 Y222.482 E.10589
G1 X182.686 Y222.767 E.10589
G1 X181.077 Y222.999 E.10589
G1 X179.461 Y223.176 E.10589
G1 X177.84 Y223.298 E.10589
G1 X176.216 Y223.367 E.10589
G1 X174.59 Y223.38 E.10589
G1 X172.965 Y223.339 E.10589
G1 X171.342 Y223.244 E.10589
G1 X169.724 Y223.094 E.1059
G1 X168.111 Y222.89 E.10589
G1 X166.506 Y222.631 E.10589
G1 X164.911 Y222.319 E.10589
G1 X163.327 Y221.954 E.10589
G1 X161.756 Y221.535 E.10589
G1 X160.2 Y221.064 E.10589
G1 X158.661 Y220.541 E.10589
G1 X157.14 Y219.967 E.1059
G1 X155.64 Y219.341 E.10589
G1 X154.161 Y218.666 E.10589
G1 X152.751 Y217.964 E.10266
G1 X151.276 Y217.168 E.10918
G1 X149.873 Y216.348 E.10583
G1 X148.498 Y215.48 E.10589
G1 X147.153 Y214.567 E.10589
G1 X145.88 Y213.639 E.10266
G1 X144.559 Y212.608 E.10918
G1 X143.313 Y211.565 E.10584
G1 X142.103 Y210.48 E.10589
G1 X140.929 Y209.355 E.10589
G1 X139.794 Y208.191 E.10589
G1 X138.699 Y206.99 E.10589
G1 X137.645 Y205.752 E.10589
G1 X136.633 Y204.48 E.10589
G1 X135.664 Y203.175 E.10589
G1 X134.74 Y201.837 E.10589
G1 X133.861 Y200.47 E.1059
G1 X133.029 Y199.074 E.10589
G1 X132.244 Y197.65 E.10589
G1 X131.507 Y196.201 E.1059
G1 X130.819 Y194.728 E.10589
G1 X130.182 Y193.233 E.10589
G1 X129.594 Y191.717 E.10589
G1 X129.058 Y190.183 E.10589
G1 X128.574 Y188.631 E.1059
G1 X128.143 Y187.064 E.10589
G1 X127.764 Y185.483 E.10589
G1 X127.438 Y183.89 E.1059
G1 X127.166 Y182.287 E.10589
G1 X126.949 Y180.677 E.10589
G1 X126.785 Y179.059 E.10589
G1 X126.676 Y177.437 E.1059
G1 X126.621 Y175.813 E.10589
G1 X126.621 Y174.187 E.10589
G1 X126.676 Y172.563 E.10589
G1 X126.785 Y170.941 E.1059
G1 X126.949 Y169.323 E.10589
G1 X127.166 Y167.713 E.10589
G1 X127.438 Y166.11 E.10589
G1 X127.764 Y164.517 E.1059
G1 X128.143 Y162.936 E.10589
G1 X128.574 Y161.369 E.10589
G1 X129.058 Y159.817 E.1059
G1 X129.594 Y158.283 E.10589
G1 X130.164 Y156.813 E.10266
G1 X130.82 Y155.271 E.10918
G1 X131.507 Y153.799 E.10584
G1 X132.244 Y152.35 E.10589
G1 X133.029 Y150.926 E.10589
G1 X133.861 Y149.53 E.10589
G1 X134.74 Y148.163 E.1059
G1 X135.636 Y146.866 E.10266
G1 X136.634 Y145.519 E.10918
G1 X137.645 Y144.248 E.10583
G1 X138.699 Y143.01 E.10589
G1 X139.794 Y141.809 E.10589
G1 X140.929 Y140.645 E.10589
G1 X142.103 Y139.52 E.10589
G1 X143.313 Y138.435 E.10589
G1 X144.559 Y137.392 E.10589
G1 X145.84 Y136.39 E.10589
G1 X147.153 Y135.433 E.1059
G1 X148.498 Y134.52 E.10589
G1 X149.873 Y133.652 E.1059
G1 X151.276 Y132.832 E.10589
G1 X152.706 Y132.059 E.10589
G1 X154.161 Y131.334 E.10589
G1 X155.64 Y130.659 E.10589
G1 X157.14 Y130.033 E.10589
G1 X158.661 Y129.459 E.1059
G1 X160.2 Y128.936 E.10589
G1 X161.756 Y128.465 E.10589
G1 X163.327 Y128.046 E.10589
G1 X164.911 Y127.681 E.10589
G1 X166.506 Y127.369 E.10589
G1 X168.111 Y127.11 E.10589
G1 X169.724 Y126.906 E.10589
G1 X171.342 Y126.756 E.1059
G1 X172.96 Y126.661 E.10558
G1 X175.052 Y126.624 E.13628
G1 X176.391 Y126.642 E.0872
G1 X177.84 Y126.702 E.09453
G1 X179.461 Y126.824 E.10584
G1 X181.077 Y127.001 E.10589
G1 X182.686 Y127.233 E.10589
G1 X184.286 Y127.518 E.10589
G1 X185.876 Y127.857 E.10589
G1 X187.453 Y128.249 E.10589
G1 X189.017 Y128.694 E.1059
G1 X190.564 Y129.191 E.10589
G1 X192.094 Y129.74 E.10589
G1 X193.605 Y130.34 E.1059
G1 X195.095 Y130.99 E.10588
G1 X196.562 Y131.69 E.1059
G1 X198.005 Y132.439 E.10589
G1 X199.422 Y133.236 E.10589
G1 X200.811 Y134.08 E.10589
G1 X202.171 Y134.97 E.10589
G1 X203.5 Y135.906 E.10589
G1 X204.798 Y136.886 E.1059
G1 X206.061 Y137.908 E.10589
G1 X207.29 Y138.973 E.10588
G1 X208.482 Y140.078 E.1059
G1 X209.636 Y141.222 E.10589
G1 X210.71 Y142.362 E.10198
G1 X211.162 Y142.031 F21000
G1 F3000
G1 X212.249 Y143.264 E.1071
G1 X213.294 Y144.534 E.10711
G1 X214.296 Y145.837 E.10711
G1 X215.254 Y147.174 E.10711
G1 X216.166 Y148.542 E.10711
G1 X217.031 Y149.94 E.10711
G1 X217.849 Y151.366 E.10711
G1 X218.619 Y152.819 E.1071
G1 X219.318 Y154.252 E.10386
G1 X220.01 Y155.799 E.11039
G1 X220.63 Y157.322 E.10707
G1 X221.198 Y158.865 E.10711
G1 X221.714 Y160.426 E.10711
G1 X222.177 Y162.003 E.10711
G1 X222.587 Y163.596 E.10711
G1 X222.943 Y165.201 E.1071
G1 X223.245 Y166.817 E.10711
G1 X223.493 Y168.442 E.1071
G1 X223.686 Y170.075 E.10711
G1 X223.824 Y171.714 E.10711
G1 X223.904 Y173.306 E.10386
G1 X223.934 Y175 E.11038
G1 X223.907 Y176.644 E.10708
G1 X223.824 Y178.286 E.10711
G1 X223.686 Y179.925 E.10711
G1 X223.493 Y181.557 E.10711
G1 X223.245 Y183.183 E.1071
G1 X222.943 Y184.799 E.10711
G1 X222.587 Y186.404 E.1071
G1 X222.177 Y187.997 E.10711
G1 X221.714 Y189.574 E.10711
G1 X221.198 Y191.135 E.10711
G1 X220.63 Y192.678 E.10711
G1 X220.01 Y194.201 E.1071
G1 X219.34 Y195.703 E.10711
G1 X218.619 Y197.181 E.10711
G1 X217.849 Y198.634 E.10711
G1 X217.031 Y200.06 E.10711
G1 X216.166 Y201.458 E.10711
G1 X215.254 Y202.826 E.10711
G1 X214.296 Y204.163 E.10711
G1 X213.294 Y205.466 E.1071
G1 X212.249 Y206.736 E.10711
G1 X211.162 Y207.969 E.10711
G1 X210.034 Y209.166 E.10711
G1 X208.867 Y210.323 E.1071
G1 X207.661 Y211.441 E.10712
G1 X206.418 Y212.518 E.1071
G1 X205.14 Y213.552 E.10711
G1 X203.828 Y214.543 E.10711
G1 X202.483 Y215.489 E.10711
G1 X201.108 Y216.39 E.10711
G1 X199.702 Y217.244 E.10711
G1 X198.313 Y218.025 E.10386
G1 X196.81 Y218.807 E.11038
G1 X195.326 Y219.515 E.10709
G1 X193.819 Y220.173 E.1071
G1 X192.337 Y220.762 E.10387
G1 X190.743 Y221.335 E.11039
G1 X189.178 Y221.838 E.10707
G1 X187.596 Y222.288 E.10712
G1 X186.001 Y222.685 E.10711
G1 X184.393 Y223.027 E.10711
G1 X182.774 Y223.316 E.10711
G1 X181.146 Y223.55 E.10711
G1 X179.512 Y223.729 E.10711
G1 X177.872 Y223.853 E.10711
G1 X176.23 Y223.922 E.10711
G1 X174.585 Y223.936 E.10711
G1 X172.942 Y223.895 E.10711
G1 X171.3 Y223.798 E.1071
G1 X169.663 Y223.646 E.10711
G1 X168.032 Y223.44 E.10711
G1 X166.409 Y223.178 E.10711
G1 X164.795 Y222.863 E.10711
G1 X163.193 Y222.493 E.10711
G1 X161.604 Y222.07 E.10711
G1 X160.03 Y221.593 E.10711
G1 X158.474 Y221.064 E.10711
G1 X156.935 Y220.483 E.10711
G1 X155.418 Y219.851 E.10711
G1 X153.922 Y219.168 E.1071
G1 X152.495 Y218.457 E.10386
G1 X151.003 Y217.652 E.11039
G1 X149.585 Y216.823 E.10707
G1 X148.194 Y215.945 E.10711
G1 X146.834 Y215.022 E.10711
G1 X145.545 Y214.083 E.10386
G1 X144.209 Y213.04 E.11039
G1 X142.949 Y211.985 E.10707
G1 X141.725 Y210.887 E.10711
G1 X140.538 Y209.749 E.10711
G1 X139.39 Y208.572 E.10711
G1 X138.282 Y207.357 E.10711
G1 X137.216 Y206.105 E.10711
G1 X136.192 Y204.819 E.1071
G1 X135.213 Y203.498 E.10711
G1 X134.278 Y202.146 E.10711
G1 X133.389 Y200.762 E.10711
G1 X132.547 Y199.35 E.10711
G1 X131.753 Y197.91 E.10711
G1 X131.008 Y196.445 E.10711
G1 X130.312 Y194.955 E.10711
G1 X129.667 Y193.442 E.10711
G1 X129.073 Y191.909 E.10711
G1 X128.531 Y190.357 E.10711
G1 X128.041 Y188.787 E.10711
G1 X127.604 Y187.202 E.1071
G1 X127.221 Y185.603 E.10711
G1 X126.892 Y183.992 E.10711
G1 X126.617 Y182.371 E.10711
G1 X126.397 Y180.742 E.1071
G1 X126.231 Y179.106 E.10711
G1 X126.121 Y177.465 E.10711
G1 X126.066 Y175.822 E.10711
G1 X126.066 Y174.178 E.10711
G1 X126.121 Y172.535 E.10711
G1 X126.231 Y170.894 E.10711
G1 X126.397 Y169.258 E.10711
G1 X126.617 Y167.629 E.1071
G1 X126.892 Y166.008 E.10711
G1 X127.221 Y164.397 E.10711
G1 X127.604 Y162.798 E.10711
G1 X128.041 Y161.213 E.1071
G1 X128.531 Y159.643 E.10711
G1 X129.073 Y158.091 E.10711
G1 X129.649 Y156.604 E.10386
G1 X130.312 Y155.045 E.11039
G1 X131.008 Y153.555 E.10707
G1 X131.753 Y152.09 E.10711
G1 X132.547 Y150.65 E.10711
G1 X133.389 Y149.238 E.1071
G1 X134.278 Y147.854 E.10711
G1 X135.184 Y146.543 E.10385
G1 X136.193 Y145.181 E.1104
G1 X137.216 Y143.895 E.10707
G1 X138.282 Y142.643 E.10711
G1 X139.39 Y141.428 E.10711
G1 X140.538 Y140.251 E.10711
M73 P1 R20
G1 X141.725 Y139.113 E.10711
G1 X142.949 Y138.015 E.10711
G1 X144.21 Y136.96 E.10711
G1 X145.505 Y135.947 E.10711
G1 X146.834 Y134.978 E.10711
G1 X148.194 Y134.055 E.10711
G1 X149.585 Y133.177 E.10711
G1 X151.004 Y132.347 E.1071
G1 X152.45 Y131.565 E.10711
G1 X153.922 Y130.832 E.10711
G1 X155.418 Y130.149 E.1071
G1 X156.935 Y129.517 E.10711
G1 X158.474 Y128.936 E.10711
G1 X160.03 Y128.407 E.10711
G1 X161.604 Y127.93 E.10711
G1 X163.193 Y127.507 E.10711
G1 X164.795 Y127.137 E.10711
G1 X166.409 Y126.822 E.10711
G1 X168.032 Y126.56 E.10711
G1 X169.663 Y126.354 E.10711
G1 X171.3 Y126.202 E.10711
G1 X172.939 Y126.106 E.10692
G1 X175.057 Y126.068 E.13799
G1 X176.413 Y126.087 E.08838
G1 X177.873 Y126.147 E.09516
G1 X179.512 Y126.271 E.10707
G1 X181.146 Y126.45 E.10711
G1 X182.774 Y126.684 E.10711
G1 X184.393 Y126.973 E.10711
G1 X186.001 Y127.315 E.10711
G1 X187.596 Y127.712 E.10711
G1 X189.178 Y128.162 E.10711
G1 X190.743 Y128.665 E.1071
G1 X192.291 Y129.22 E.10711
G1 X193.819 Y129.827 E.10712
G1 X195.326 Y130.485 E.1071
G1 X196.81 Y131.193 E.10712
G1 X198.269 Y131.95 E.1071
G1 X199.702 Y132.756 E.10711
G1 X201.108 Y133.61 E.10711
G1 X202.483 Y134.511 E.1071
G1 X203.828 Y135.457 E.10711
G1 X205.14 Y136.448 E.10711
G1 X206.418 Y137.482 E.10711
G1 X207.661 Y138.559 E.1071
G1 X208.866 Y139.677 E.10711
G1 X210.034 Y140.835 E.10711
G1 X211.121 Y141.987 E.1032
G1 X211.573 Y141.656 F21000
;TYPE:Outer wall
G1 F3000
G1 X212.672 Y142.904 E.10832
G1 X213.729 Y144.188 E.10833
G1 X214.742 Y145.506 E.10832
G1 X215.711 Y146.858 E.10833
G1 X216.633 Y148.242 E.10832
G1 X217.508 Y149.656 E.10833
G1 X218.336 Y151.098 E.10832
G1 X219.114 Y152.567 E.10832
G1 X219.821 Y154.017 E.10506
G1 X220.521 Y155.581 E.11161
G1 X221.148 Y157.121 E.10831
G1 X221.722 Y158.681 E.10832
G1 X222.244 Y160.26 E.10833
G1 X222.713 Y161.856 E.10833
G1 X223.127 Y163.466 E.10833
G1 X223.488 Y165.09 E.10832
G1 X223.793 Y166.724 E.10833
G1 X224.044 Y168.368 E.10832
