; HEADER_BLOCK_START
; generated by OrcaSlicer 2.1.0-beta on 2024-07-24 at 08:48:23
; total layer number: 21
; filament_density: 1.04
; filament_diameter: 1.75
; max_z_height: 5.10
; HEADER_BLOCK_END

; THUMBNAIL_BLOCK_START

;
; THUMBNAIL_BLOCK_END

; external perimeters extrusion width = 0.62mm
; perimeters extrusion width = 0.62mm
; infill extrusion width = 0.62mm
; solid infill extrusion width = 0.62mm
; top infill extrusion width = 0.62mm
; first layer extrusion width = 0.62mm

; EXECUTABLE_BLOCK_START
EXCLUDE_OBJECT_DEFINE NAME=Disc_id_0_copy_0 CENTER=175,175 POLYGON=[[125,174.16],[125.056,172.481],[125.169,170.805],[125.338,169.133],[125.563,167.468],[125.844,165.812],[126.181,164.166],[126.572,162.532],[127.018,160.912],[127.519,159.309],[128.073,157.722],[128.68,156.156],[129.339,154.611],[130.05,153.088],[130.811,151.591],[131.622,150.12],[132.483,148.677],[133.391,147.263],[134.346,145.881],[135.347,144.532],[136.393,143.217],[137.483,141.938],[138.615,140.697],[139.787,139.494],[141,138.331],[142.251,137.21],[143.539,136.131],[144.863,135.096],[146.22,134.107],[147.61,133.163],[149.031,132.267],[150.481,131.418],[151.959,130.619],[153.463,129.871],[154.991,129.173],[156.542,128.526],[158.114,127.933],[159.704,127.392],[161.312,126.905],[162.936,126.473],[164.573,126.095],[166.222,125.772],[167.88,125.505],[169.547,125.294],[171.22,125.139],[172.897,125.041],[174.576,124.998],[176.256,125.012],[177.935,125.083],[179.61,125.21],[181.28,125.393],[182.943,125.632],[184.597,125.927],[186.24,126.277],[187.871,126.682],[189.487,127.142],[191.086,127.656],[192.668,128.223],[194.229,128.843],[195.769,129.515],[197.285,130.239],[198.776,131.013],[200.24,131.836],[201.676,132.709],[203.082,133.629],[204.456,134.596],[205.796,135.608],[207.102,136.665],[208.372,137.765],[209.604,138.908],[210.797,140.09],[211.95,141.313],[213.06,142.573],[214.128,143.87],[215.152,145.202],[216.13,146.568],[217.062,147.966],[217.947,149.394],[218.783,150.852],[219.569,152.336],[220.305,153.846],[220.99,155.38],[221.623,156.937],[222.204,158.513],[222.731,160.108],[223.204,161.72],[223.623,163.347],[223.987,164.987],[224.296,166.639],[224.549,168.3],[224.746,169.968],[224.887,171.642],[224.972,173.32],[225,175],[224.972,176.68],[224.887,178.358],[224.746,180.032],[224.549,181.7],[224.296,183.361],[223.987,185.013],[223.623,186.653],[223.204,188.28],[222.731,189.892],[222.204,191.487],[221.623,193.063],[220.99,194.62],[220.305,196.154],[219.569,197.664],[218.783,199.148],[217.947,200.606],[217.062,202.034],[216.13,203.432],[215.152,204.798],[214.128,206.13],[213.06,207.427],[211.95,208.687],[210.797,209.91],[209.604,211.092],[208.372,212.235],[207.102,213.335],[205.796,214.392],[204.456,215.404],[203.082,216.371],[201.676,217.291],[200.24,218.164],[198.776,218.987],[197.285,219.761],[195.769,220.485],[194.229,221.157],[192.668,221.777],[191.086,222.344],[189.487,222.858],[187.871,223.318],[186.24,223.723],[184.597,224.073],[182.943,224.368],[181.28,224.607],[179.61,224.79],[177.935,224.917],[176.256,224.988],[174.576,225.002],[172.897,224.959],[171.22,224.861],[169.547,224.706],[167.88,224.495],[166.222,224.228],[164.573,223.905],[162.936,223.527],[161.312,223.095],[159.704,222.608],[158.114,222.067],[156.542,221.474],[154.991,220.827],[153.463,220.129],[151.959,219.381],[150.481,218.582],[149.031,217.733],[147.61,216.837],[146.22,215.893],[144.863,214.904],[143.539,213.869],[142.251,212.79],[141,211.669],[139.787,210.506],[138.615,209.303],[137.483,208.062],[136.393,206.783],[135.347,205.468],[134.346,204.119],[133.391,202.737],[132.483,201.323],[131.622,199.88],[130.811,198.409],[130.05,196.912],[129.339,195.389],[128.68,193.844],[128.073,192.278],[127.519,190.691],[127.018,189.088],[126.572,187.468],[126.181,185.834],[125.844,184.188],[125.563,182.532],[125.338,180.867],[125.169,179.195],[125.056,177.519],[125,175.84],[125,174.16]]
M73 P0 R20
;TYPE:Custom
; You can use following code instead if your PRINT_START macro support Chamber and print area bedmesh
PRINT_START EXTRUDER=270 BED=110 CHAMBER=70 PRINT_MIN=124.749,124.747 PRINT_MAX=225.251,225.253
M190 S110
M109 S270
G90
G21
M83 ; use relative distances for extrusion
; Filament gcode
SET_PRESSURE_ADVANCE ADVANCE=0.05; Override pressure advance value
M106 S0
;LAYER_CHANGE
;Z:0.3
;HEIGHT:0.3
;BEFORE_LAYER_CHANGE
;0.3
G92 E0

G1 E-.8 F1800
;AFTER_LAYER_CHANGE
;0.3
;_SET_FAN_SPEED_CHANGING_LAYER
SET_VELOCITY_LIMIT ACCEL=500 ACCEL_TO_DECEL=250
SET_VELOCITY_LIMIT SQUARE_CORNER_VELOCITY=9
; printing object Disc id:0 copy 0
EXCLUDE_OBJECT_START NAME=Disc_id_0_copy_0
G1 Z.4 F21000
G1 X210.937 Y142.236
G1 Z.4
G1 Z.3
G1 E.8 F1800
;TYPE:Inner wall
;WIDTH:0.62
G1 F3000
G1 X212.017 Y143.462 E.10644
G1 X213.056 Y144.723 E.10645
G1 X214.052 Y146.019 E.10644
G1 X215.003 Y147.347 E.10644
G1 X215.909 Y148.707 E.10644
G1 X216.77 Y150.096 E.10644
G1 X217.583 Y151.513 E.10644
G1 X218.348 Y152.957 E.10644
G1 X219.042 Y154.381 E.1032
G1 X219.73 Y155.919 E.10974
G1 X220.346 Y157.432 E.10639
G1 X220.91 Y158.965 E.10644
G1 X221.423 Y160.516 E.10644
G1 X221.883 Y162.084 E.10645
G1 X222.291 Y163.667 E.10644
G1 X222.645 Y165.262 E.10644
G1 X222.945 Y166.868 E.10645
G1 X223.191 Y168.483 E.10644
G1 X223.383 Y170.106 E.10645
G1 X223.52 Y171.734 E.10645
G1 X223.6 Y173.316 E.10319
G1 X223.63 Y175.001 E.10974
G1 X223.602 Y176.634 E.10639
G1 X223.52 Y178.266 E.10644
G1 X223.383 Y179.894 E.10644
G1 X223.191 Y181.517 E.10645
G1 X222.945 Y183.132 E.10644
G1 X222.645 Y184.738 E.10645
G1 X222.291 Y186.333 E.10644
G1 X221.883 Y187.916 E.10644
G1 X221.423 Y189.484 E.10645
G1 X220.91 Y191.035 E.10644
G1 X220.346 Y192.568 E.10644
G1 X219.73 Y194.082 E.10644
G1 X219.064 Y195.574 E.10644
G1 X218.348 Y197.043 E.10644
G1 X217.583 Y198.487 E.10644
G1 X216.77 Y199.904 E.10644
G1 X215.909 Y201.293 E.10645
G1 X215.003 Y202.653 E.10644
G1 X214.052 Y203.981 E.10645
G1 X213.056 Y205.277 E.10644
G1 X212.017 Y206.538 E.10644
G1 X210.937 Y207.764 E.10644
G1 X209.816 Y208.953 E.10644
G1 X208.656 Y210.103 E.10644
G1 X207.457 Y211.214 E.10645
G1 X206.223 Y212.284 E.10643
G1 X204.953 Y213.312 E.10644
G1 X203.648 Y214.297 E.10645
G1 X202.312 Y215.237 E.10644
G1 X200.945 Y216.132 E.10644
G1 X199.549 Y216.981 E.10645
G1 X198.168 Y217.758 E.10319
G1 X196.674 Y218.535 E.10973
G1 X195.199 Y219.238 E.1064
G1 X193.702 Y219.892 E.10643
G1 X192.23 Y220.477 E.1032
G1 X190.644 Y221.047 E.10974
G1 X189.09 Y221.547 E.10638
G1 X187.518 Y221.994 E.10645
G1 X185.932 Y222.388 E.10644
G1 X184.334 Y222.728 E.10644
G1 X182.725 Y223.015 E.10644
G1 X181.108 Y223.248 E.10644
G1 X179.484 Y223.426 E.10644
G1 X177.854 Y223.549 E.10644
G1 X176.222 Y223.618 E.10644
G1 X174.588 Y223.632 E.10644
G1 X172.954 Y223.59 E.10644
G1 X171.323 Y223.494 E.10644
G1 X169.696 Y223.344 E.10645
G1 X168.075 Y223.138 E.10644
G1 X166.462 Y222.879 E.10644
G1 X164.858 Y222.565 E.10644
G1 X163.266 Y222.198 E.10644
G1 X161.687 Y221.777 E.10644
G1 X160.123 Y221.303 E.10644
G1 X158.576 Y220.778 E.10644
G1 X157.048 Y220.2 E.10645
G1 X155.539 Y219.572 E.10644
G1 X154.053 Y218.893 E.10644
G1 X152.635 Y218.187 E.1032
G1 X151.152 Y217.387 E.10974
G1 X149.743 Y216.563 E.10639
G1 X148.361 Y215.691 E.10644
G1 X147.009 Y214.773 E.10644
G1 X145.729 Y213.84 E.1032
G1 X144.4 Y212.803 E.10974
G1 X143.148 Y211.755 E.10639
G1 X141.932 Y210.664 E.10644
G1 X140.752 Y209.533 E.10645
G1 X139.611 Y208.363 E.10644
G1 X138.511 Y207.156 E.10644
G1 X137.451 Y205.912 E.10644
G1 X136.434 Y204.633 E.10644
G1 X135.46 Y203.321 E.10644
G1 X134.531 Y201.977 E.10644
G1 X133.648 Y200.602 E.10645
G1 X132.811 Y199.199 E.10644
G1 X132.022 Y197.768 E.10644
G1 X131.281 Y196.311 E.10645
G1 X130.59 Y194.831 E.10644
G1 X129.949 Y193.328 E.10644
G1 X129.359 Y191.804 E.10644
G1 X128.82 Y190.261 E.10644
G1 X128.333 Y188.702 E.10645
G1 X127.899 Y187.126 E.10644
G1 X127.518 Y185.537 E.10644
G1 X127.191 Y183.936 E.10645
G1 X126.918 Y182.325 E.10644
G1 X126.699 Y180.706 E.10644
G1 X126.535 Y179.08 E.10645
G1 X126.425 Y177.45 E.10644
G1 X126.37 Y175.817 E.10644
G1 X126.37 Y174.183 E.10644
G1 X126.425 Y172.55 E.10644
G1 X126.535 Y170.92 E.10644
G1 X126.699 Y169.294 E.10645
G1 X126.918 Y167.675 E.10644
G1 X127.191 Y166.064 E.10644
G1 X127.518 Y164.463 E.10645
G1 X127.899 Y162.874 E.10644
G1 X128.333 Y161.298 E.10644
G1 X128.82 Y159.739 E.10645
G1 X129.359 Y158.196 E.10644
G1 X129.931 Y156.719 E.10319
G1 X130.59 Y155.169 E.10974
G1 X131.281 Y153.689 E.10639
G1 X132.022 Y152.232 E.10644
G1 X132.811 Y150.801 E.10644
G1 X133.648 Y149.398 E.10644
G1 X134.531 Y148.023 E.10645
G1 X135.432 Y146.72 E.10319
G1 X136.434 Y145.366 E.10975
G1 X137.451 Y144.088 E.10638
G1 X138.511 Y142.844 E.10644
G1 X139.611 Y141.637 E.10644
G1 X140.752 Y140.467 E.10644
G1 X141.932 Y139.336 E.10645
G1 X143.148 Y138.245 E.10644
G1 X144.401 Y137.196 E.10644
G1 X145.688 Y136.19 E.10645
G1 X147.009 Y135.227 E.10644
G1 X148.361 Y134.309 E.10644
G1 X149.743 Y133.437 E.10645
G1 X151.153 Y132.613 E.10643
G1 X152.59 Y131.836 E.10644
G1 X154.053 Y131.107 E.10644
G1 X155.539 Y130.428 E.10644
G1 X157.048 Y129.8 E.10644
G1 X158.576 Y129.222 E.10645
G1 X160.123 Y128.697 E.10644
G1 X161.687 Y128.223 E.10644
G1 X163.266 Y127.802 E.10644
G1 X164.858 Y127.435 E.10644
G1 X166.462 Y127.121 E.10644
G1 X168.075 Y126.862 E.10644
G1 X169.696 Y126.656 E.10644
G1 X171.323 Y126.506 E.10645
G1 X172.95 Y126.41 E.10613
G1 X175.052 Y126.372 E.137
G1 X176.398 Y126.391 E.08765
G1 X177.855 Y126.451 E.09501
G1 X179.484 Y126.574 E.10639
G1 X181.108 Y126.752 E.10645
G1 X182.725 Y126.985 E.10644
G1 X184.334 Y127.272 E.10644
G1 X185.932 Y127.612 E.10644
G1 X187.518 Y128.006 E.10644
G1 X189.09 Y128.453 E.10644
G1 X190.645 Y128.953 E.10644
G1 X192.183 Y129.505 E.10644
G1 X193.702 Y130.108 E.10645
G1 X195.199 Y130.762 E.10644
G1 X196.674 Y131.465 E.10645
G1 X198.124 Y132.218 E.10644
G1 X199.549 Y133.019 E.10644
G1 X200.945 Y133.868 E.10644
G1 X202.312 Y134.763 E.10644
G1 X203.648 Y135.703 E.10644
G1 X204.953 Y136.688 E.10645
G1 X206.223 Y137.716 E.10644
G1 X207.457 Y138.786 E.10644
G1 X208.656 Y139.897 E.10645
G1 X209.816 Y141.047 E.10644
G1 X210.896 Y142.192 E.10254
G1 X211.348 Y141.862 F21000
G1 F3000
G1 X212.44 Y143.101 E.10766
G1 X213.491 Y144.377 E.10766
G1 X214.498 Y145.688 E.10765
G1 X215.46 Y147.031 E.10766
G1 X216.377 Y148.406 E.10765
G1 X217.247 Y149.812 E.10766
G1 X218.069 Y151.245 E.10766
G1 X218.843 Y152.705 E.10766
G1 X219.545 Y154.146 E.10439
G1 X220.241 Y155.701 E.11096
G1 X220.864 Y157.231 E.10762
G1 X221.435 Y158.782 E.10766
G1 X221.954 Y160.351 E.10766
G1 X222.419 Y161.937 E.10766
G1 X222.831 Y163.537 E.10765
G1 X223.189 Y165.151 E.10766
G1 X223.493 Y166.775 E.10766
G1 X223.742 Y168.409 E.10765
G1 X223.936 Y170.05 E.10766
G1 X224.075 Y171.697 E.10766
G1 X224.155 Y173.298 E.10439
G1 X224.185 Y175 E.11095
G1 X224.158 Y176.652 E.10763
G1 X224.075 Y178.303 E.10766
G1 X223.936 Y179.95 E.10766
G1 X223.742 Y181.591 E.10766
G1 X223.493 Y183.225 E.10765
G1 X223.189 Y184.85 E.10766
G1 X222.831 Y186.463 E.10765
G1 X222.419 Y188.063 E.10766
G1 X221.954 Y189.649 E.10766
G1 X221.435 Y191.218 E.10766
G1 X220.864 Y192.769 E.10765
G1 X220.241 Y194.3 E.10765
G1 X219.567 Y195.809 E.10766
G1 X218.843 Y197.295 E.10766
G1 X218.069 Y198.755 E.10766
G1 X217.247 Y200.188 E.10766
G1 X216.377 Y201.594 E.10766
G1 X215.46 Y202.969 E.10766
G1 X214.498 Y204.312 E.10766
G1 X213.491 Y205.623 E.10765
G1 X212.44 Y206.899 E.10766
G1 X211.348 Y208.138 E.10766
G1 X210.214 Y209.341 E.10766
G1 X209.04 Y210.505 E.10765
G1 X207.828 Y211.628 E.10767
G1 X206.579 Y212.71 E.10765
G1 X205.295 Y213.75 E.10766
G1 X203.976 Y214.746 E.10766
G1 X202.624 Y215.697 E.10766
G1 X201.242 Y216.602 E.10766
G1 X199.829 Y217.461 E.10766
G1 X198.432 Y218.246 E.10439
G1 X196.922 Y219.032 E.11095
G1 X195.43 Y219.744 E.10764
G1 X193.916 Y220.405 E.10765
G1 X192.426 Y220.997 E.1044
G1 X190.824 Y221.573 E.11096
G1 X189.251 Y222.078 E.10762
G1 X187.661 Y222.531 E.10767
G1 X186.057 Y222.929 E.10766
G1 X184.441 Y223.274 E.10765
G1 X182.814 Y223.564 E.10766
G1 X181.178 Y223.799 E.10766
G1 X179.535 Y223.979 E.10766
G1 X177.887 Y224.104 E.10766
G1 X176.236 Y224.173 E.10766
G1 X174.583 Y224.187 E.10766
G1 X172.931 Y224.146 E.10766
G1 X171.281 Y224.049 E.10765
G1 X169.636 Y223.896 E.10766
G1 X167.996 Y223.688 E.10766
G1 X166.364 Y223.426 E.10766
G1 X164.743 Y223.108 E.10766
G1 X163.132 Y222.737 E.10766
G1 X161.535 Y222.311 E.10766
G1 X159.954 Y221.832 E.10766
G1 X158.389 Y221.301 E.10766
G1 X156.843 Y220.717 E.10766
G1 X155.317 Y220.081 E.10766
G1 X153.814 Y219.394 E.10765
G1 X152.379 Y218.68 E.10439
G1 X150.88 Y217.871 E.11096
G1 X149.454 Y217.037 E.10762
G1 X148.056 Y216.156 E.10766
G1 X146.689 Y215.227 E.10766
G1 X145.394 Y214.283 E.10439
G1 X144.051 Y213.235 E.11096
G1 X142.785 Y212.175 E.10762
G1 X141.554 Y211.072 E.10766
G1 X140.361 Y209.928 E.10766
G1 X139.207 Y208.744 E.10766
G1 X138.094 Y207.523 E.10766
G1 X137.022 Y206.265 E.10766
G1 X135.993 Y204.972 E.10765
G1 X135.008 Y203.645 E.10766
G1 X134.069 Y202.285 E.10766
G1 X133.175 Y200.895 E.10766
G1 X132.329 Y199.475 E.10766
G1 X131.531 Y198.028 E.10766
G1 X130.782 Y196.555 E.10766
G1 X130.082 Y195.057 E.10766
G1 X129.434 Y193.537 E.10766
G1 X128.837 Y191.996 E.10766
G1 X128.292 Y190.436 E.10766
G1 X127.8 Y188.858 E.10766
G1 X127.361 Y187.265 E.10765
G1 X126.976 Y185.658 E.10766
G1 X126.645 Y184.038 E.10766
G1 X126.369 Y182.409 E.10766
G1 X126.147 Y180.771 E.10765
G1 X125.981 Y179.127 E.10766
G1 X125.87 Y177.478 E.10766
G1 X125.814 Y175.826 E.10766
G1 X125.814 Y174.174 E.10766
G1 X125.87 Y172.522 E.10766
G1 X125.981 Y170.873 E.10766
G1 X126.147 Y169.229 E.10766
G1 X126.369 Y167.591 E.10765
G1 X126.645 Y165.962 E.10766
G1 X126.976 Y164.342 E.10766
G1 X127.361 Y162.735 E.10766
G1 X127.8 Y161.142 E.10765
G1 X128.292 Y159.564 E.10766
G1 X128.837 Y158.004 E.10766
G1 X129.416 Y156.51 E.10439
G1 X130.083 Y154.942 E.11096
G1 X130.782 Y153.445 E.10762
G1 X131.531 Y151.972 E.10766
G1 X132.329 Y150.525 E.10766
G1 X133.175 Y149.105 E.10766
G1 X134.069 Y147.715 E.10766
G1 X134.98 Y146.397 E.10439
G1 X135.994 Y145.028 E.11096
G1 X137.022 Y143.735 E.10762
G1 X138.094 Y142.477 E.10766
G1 X139.207 Y141.256 E.10766
G1 X140.361 Y140.072 E.10766
G1 X141.554 Y138.928 E.10766
M73 P1 R20
G1 X142.785 Y137.825 E.10766
G1 X144.051 Y136.764 E.10765
G1 X145.353 Y135.746 E.10766
G1 X146.689 Y134.773 E.10766
G1 X148.056 Y133.844 E.10766
G1 X149.454 Y132.963 E.10766
G1 X150.881 Y132.128 E.10765
G1 X152.334 Y131.342 E.10766
G1 X153.814 Y130.606 E.10766
G1 X155.317 Y129.919 E.10765
G1 X156.843 Y129.283 E.10766
G1 X158.389 Y128.699 E.10766
G1 X159.953 Y128.168 E.10766
G1 X161.535 Y127.689 E.10766
G1 X163.132 Y127.263 E.10766
G1 X164.743 Y126.892 E.10766
G1 X166.364 Y126.574 E.10766
G1 X167.996 Y126.312 E.10766
G1 X169.636 Y126.104 E.10766
G1 X171.281 Y125.951 E.10766
G1 X172.928 Y125.855 E.10747
G1 X175.057 Y125.817 E.1387
G1 X176.421 Y125.836 E.08883
G1 X177.888 Y125.896 E.09563
G1 X179.535 Y126.021 E.10763
G1 X181.178 Y126.201 E.10766
G1 X182.814 Y126.436 E.10766
G1 X184.441 Y126.726 E.10766
G1 X186.057 Y127.071 E.10766
G1 X187.661 Y127.469 E.10765
G1 X189.251 Y127.922 E.10767
G1 X190.824 Y128.427 E.10765
G1 X192.38 Y128.985 E.10766
G1 X193.916 Y129.595 E.10767
G1 X195.43 Y130.256 E.10765
G1 X196.922 Y130.968 E.10767
G1 X198.389 Y131.729 E.10765
G1 X199.829 Y132.539 E.10766
G1 X201.242 Y133.398 E.10766
G1 X202.624 Y134.303 E.10766
G1 X203.976 Y135.254 E.10766
G1 X205.295 Y136.25 E.10766
G1 X206.579 Y137.29 E.10766
G1 X207.828 Y138.372 E.10765
G1 X209.04 Y139.495 E.10766
G1 X210.214 Y140.659 E.10766
G1 X211.306 Y141.818 E.10375
G1 X211.758 Y141.487 F21000
;TYPE:Outer wall
G1 F3000
G1 X212.863 Y142.741 E.10887
G1 X213.926 Y144.031 E.10888
G1 X214.944 Y145.357 E.10887
G1 X215.917 Y146.715 E.10888
G1 X216.844 Y148.106 E.10887
G1 X217.724 Y149.527 E.10888
G1 X218.556 Y150.977 E.10888
G1 X219.338 Y152.454 E.10887
G1 X220.049 Y153.911 E.10559
G1 X220.752 Y155.482 E.11217
G1 X221.382 Y157.03 E.10886
G1 X221.96 Y158.599 E.10887
G1 X222.484 Y160.185 E.10887
G1 X222.955 Y161.789 E.10888
G1 X223.372 Y163.408 E.10887
