; HEADER_BLOCK_START
; generated by OrcaSlicer 2.1.0-beta on 2024-07-10 at 13:23:01
; total layer number: 55
; filament_density: 1.27
; filament_diameter: 1.75
; max_z_height: 10.02
; HEADER_BLOCK_END

; THUMBNAIL_BLOCK_START

;
; THUMBNAIL_BLOCK_END

; external perimeters extrusion width = 0.62mm
; perimeters extrusion width = 0.62mm
; infill extrusion width = 0.62mm
; solid infill extrusion width = 0.62mm
; top infill extrusion width = 0.62mm
; first layer extrusion width = 0.62mm

; external perimeters extrusion width = 0.62mm
; perimeters extrusion width = 0.62mm
; infill extrusion width = 0.62mm
; solid infill extrusion width = 0.62mm
; top infill extrusion width = 0.62mm
; first layer extrusion width = 0.62mm

; EXECUTABLE_BLOCK_START
EXCLUDE_OBJECT_DEFINE NAME=Object_1_id_0_copy_0 CENTER=179.453,185.053 POLYGON=[[168.05,179.309],[168.051,179.212],[168.052,179.157],[168.056,179.062],[168.058,179.006],[169.069,173.272],[169.073,173.25],[169.078,173.229],[169.082,173.208],[169.088,173.188],[169.093,173.167],[169.1,173.146],[169.106,173.126],[169.113,173.106],[169.121,173.086],[169.129,173.066],[169.137,173.046],[169.146,173.026],[169.155,173.007],[169.165,172.988],[169.175,172.969],[169.185,172.95],[169.196,172.931],[169.207,172.913],[169.219,172.895],[169.231,172.877],[169.243,172.86],[169.256,172.842],[169.269,172.825],[169.283,172.809],[169.297,172.792],[169.311,172.776],[169.325,172.76],[169.34,172.745],[169.356,172.73],[169.371,172.715],[169.387,172.7],[169.403,172.686],[169.419,172.672],[169.436,172.659],[169.453,172.646],[169.471,172.633],[169.488,172.621],[169.506,172.609],[169.524,172.597],[169.542,172.586],[169.561,172.575],[169.58,172.565],[169.599,172.555],[169.618,172.545],[169.637,172.536],[169.657,172.527],[169.677,172.519],[169.697,172.511],[169.717,172.504],[169.737,172.497],[169.758,172.49],[169.778,172.484],[169.799,172.478],[169.82,172.473],[169.841,172.468],[169.862,172.464],[169.883,172.46],[169.904,172.456],[169.925,172.453],[169.947,172.451],[169.968,172.449],[169.99,172.447],[170.011,172.446],[170.033,172.445],[170.054,172.445],[175.877,172.445],[175.927,172.452],[176.027,172.466],[176.081,172.474],[176.176,172.49],[176.229,172.499],[176.325,172.517],[176.376,172.527],[176.473,172.548],[176.523,172.559],[176.62,172.581],[176.669,172.593],[176.767,172.618],[176.913,172.658],[177.058,172.701],[177.202,172.748],[177.344,172.797],[177.486,172.85],[177.627,172.905],[177.766,172.964],[177.904,173.025],[178.041,173.09],[178.176,173.158],[178.31,173.228],[178.442,173.302],[178.572,173.378],[178.701,173.457],[178.828,173.539],[178.953,173.624],[179.077,173.711],[179.198,173.801],[179.318,173.894],[179.435,173.989],[179.55,174.086],[179.664,174.187],[179.775,174.289],[179.883,174.394],[179.99,174.502],[180.094,174.611],[180.195,174.723],[180.295,174.837],[180.391,174.954],[180.485,175.072],[180.577,175.192],[180.666,175.314],[180.752,175.439],[180.835,175.565],[180.916,175.692],[180.994,175.822],[181.069,175.953],[190.484,193.214],[190.515,193.271],[190.544,193.329],[190.572,193.388],[190.599,193.447],[190.625,193.507],[190.649,193.567],[190.672,193.628],[190.694,193.689],[190.714,193.751],[190.733,193.813],[190.751,193.875],[190.767,193.938],[190.782,194.001],[190.796,194.065],[190.808,194.129],[190.819,194.193],[190.828,194.257],[190.837,194.322],[190.843,194.386],[190.848,194.451],[190.852,194.516],[190.855,194.581],[190.856,194.646],[190.855,194.711],[190.853,194.776],[190.85,194.841],[190.846,194.906],[190.84,194.97],[190.832,195.035],[190.823,195.099],[190.813,195.164],[190.802,195.228],[190.789,195.291],[190.774,195.355],[190.759,195.418],[190.741,195.48],[190.723,195.543],[190.703,195.605],[190.682,195.666],[190.66,195.727],[190.636,195.788],[190.611,195.848],[190.584,195.907],[190.557,195.966],[190.528,196.024],[190.498,196.082],[190.466,196.138],[190.434,196.195],[190.4,196.25],[190.365,196.305],[190.329,196.359],[190.291,196.412],[190.253,196.464],[190.213,196.516],[190.172,196.567],[190.13,196.616],[190.088,196.665],[190.044,196.713],[189.999,196.76],[189.953,196.806],[189.906,196.851],[189.858,196.895],[189.809,196.938],[189.759,196.979],[189.708,197.02],[189.657,197.06],[189.604,197.098],[189.551,197.135],[189.497,197.172],[189.442,197.206],[189.387,197.24],[189.331,197.273],[189.274,197.304],[189.216,197.334],[189.158,197.363],[189.099,197.391],[189.04,197.417],[188.98,197.442],[188.919,197.466],[188.858,197.488],[188.796,197.509],[188.735,197.529],[188.672,197.547],[188.609,197.564],[188.546,197.58],[188.483,197.594],[188.419,197.607],[188.355,197.619],[188.291,197.629],[188.227,197.637],[188.162,197.645],[188.097,197.651],[188.033,197.655],[187.968,197.658],[187.903,197.66],[187.838,197.66],[187.773,197.659],[187.708,197.657],[187.643,197.653],[187.578,197.648],[187.513,197.641],[187.449,197.633],[187.385,197.623],[187.321,197.612],[187.257,197.6],[187.193,197.586],[187.13,197.571],[187.067,197.555],[187.005,197.537],[186.942,197.518],[186.881,197.498],[186.819,197.476],[186.759,197.453],[186.698,197.428],[186.639,197.403],[186.58,197.376],[186.521,197.347],[186.463,197.318],[186.406,197.287],[186.349,197.255],[186.294,197.222],[186.238,197.187],[186.184,197.152],[186.131,197.115],[186.078,197.077],[186.026,197.038],[185.975,196.998],[170.611,184.729],[170.495,184.632],[170.381,184.533],[170.269,184.431],[170.159,184.327],[170.052,184.22],[169.947,184.112],[169.845,184.001],[169.744,183.887],[169.658,183.785],[169.647,183.772],[169.563,183.669],[169.552,183.654],[169.471,183.551],[169.459,183.535],[169.382,183.43],[169.369,183.413],[169.295,183.308],[169.282,183.29],[169.21,183.184],[169.197,183.165],[169.129,183.058],[169.115,183.038],[169.05,182.93],[169.036,182.909],[168.974,182.801],[168.96,182.778],[168.9,182.67],[168.887,182.646],[168.83,182.538],[168.816,182.512],[168.762,182.404],[168.749,182.377],[168.697,182.268],[168.684,182.24],[168.636,182.132],[168.623,182.102],[168.577,181.994],[168.564,181.963],[168.521,181.854],[168.509,181.822],[168.468,181.714],[168.456,181.681],[168.419,181.572],[168.407,181.538],[168.372,181.43],[168.361,181.394],[168.328,181.286],[168.317,181.249],[168.288,181.142],[168.277,181.103],[168.251,180.996],[168.241,180.957],[168.216,180.85],[168.207,180.809],[168.185,180.703],[168.177,180.661],[168.157,180.556],[168.15,180.512],[168.133,180.408],[168.126,180.363],[168.111,180.259],[168.105,180.213],[168.093,180.111],[168.088,180.063],[168.078,179.961],[168.074,179.913],[168.066,179.812],[168.063,179.762],[168.058,179.662],[168.055,179.611],[168.052,179.512],[168.051,179.46],[168.05,179.362],[168.05,179.309]]
EXCLUDE_OBJECT_DEFINE NAME=Object_2_id_1_copy_0 CENTER=175,168.34 POLYGON=[[159,157.34],[159.001,157.232],[159.005,157.124],[159.01,157.017],[159.019,156.91],[159.029,156.803],[159.042,156.696],[159.057,156.589],[159.074,156.483],[159.094,156.377],[159.115,156.272],[159.139,156.167],[159.166,156.063],[159.194,155.959],[159.225,155.856],[159.258,155.754],[159.293,155.652],[159.331,155.551],[159.37,155.451],[159.412,155.352],[159.456,155.254],[159.502,155.156],[159.55,155.06],[159.6,154.965],[159.652,154.871],[159.706,154.778],[159.762,154.686],[159.82,154.595],[159.88,154.506],[159.942,154.418],[160.006,154.331],[160.072,154.246],[160.139,154.162],[160.208,154.08],[160.28,153.999],[160.352,153.92],[160.427,153.842],[160.503,153.766],[160.58,153.692],[160.66,153.619],[160.741,153.548],[160.823,153.479],[160.907,153.411],[160.992,153.346],[161.078,153.282],[161.167,153.22],[161.256,153.16],[161.346,153.102],[161.438,153.046],[161.531,152.992],[161.625,152.939],[161.72,152.889],[161.817,152.841],[161.914,152.796],[162.012,152.752],[162.112,152.71],[162.212,152.67],[162.312,152.633],[162.414,152.598],[162.516,152.565],[162.62,152.534],[162.723,152.505],[162.828,152.479],[162.932,152.455],[163.038,152.433],[163.144,152.413],[163.25,152.396],[163.356,152.381],[163.463,152.368],[163.57,152.358],[163.677,152.35],[163.785,152.344],[163.892,152.341],[164,152.34],[186,152.34],[186.108,152.341],[186.215,152.344],[186.322,152.35],[186.43,152.358],[186.537,152.368],[186.644,152.381],[186.75,152.396],[186.856,152.413],[186.962,152.433],[187.068,152.455],[187.172,152.479],[187.277,152.505],[187.38,152.534],[187.484,152.565],[187.586,152.598],[187.688,152.633],[187.788,152.67],[187.888,152.71],[187.988,152.752],[188.086,152.796],[188.183,152.841],[188.279,152.889],[188.375,152.939],[188.469,152.992],[188.562,153.046],[188.654,153.102],[188.744,153.16],[188.833,153.22],[188.921,153.282],[189.008,153.346],[189.093,153.411],[189.177,153.479],[189.259,153.548],[189.34,153.619],[189.42,153.692],[189.497,153.766],[189.573,153.842],[189.648,153.92],[189.72,153.999],[189.791,154.08],[189.861,154.162],[189.928,154.246],[189.994,154.331],[190.058,154.418],[190.12,154.506],[190.18,154.595],[190.238,154.686],[190.294,154.778],[190.348,154.871],[190.4,154.965],[190.45,155.06],[190.498,155.156],[190.544,155.254],[190.588,155.352],[190.63,155.451],[190.669,155.551],[190.707,155.652],[190.742,155.754],[190.775,155.856],[190.806,155.959],[190.834,156.063],[190.861,156.167],[190.885,156.272],[190.906,156.377],[190.926,156.483],[190.943,156.589],[190.958,156.696],[190.971,156.803],[190.981,156.91],[190.99,157.017],[190.995,157.124],[190.999,157.232],[191,157.34],[191,179.34],[190.999,179.447],[190.995,179.555],[190.99,179.662],[190.981,179.769],[190.971,179.877],[190.958,179.983],[190.943,180.09],[190.926,180.196],[190.906,180.302],[190.885,180.407],[190.861,180.512],[190.834,180.616],[190.806,180.72],[190.775,180.823],[190.742,180.926],[190.707,181.027],[190.669,181.128],[190.63,181.228],[190.588,181.327],[190.544,181.426],[190.498,181.523],[190.45,181.619],[190.4,181.714],[190.348,181.808],[190.294,181.901],[190.238,181.993],[190.18,182.084],[190.12,182.173],[190.058,182.261],[189.994,182.348],[189.928,182.433],[189.861,182.517],[189.791,182.599],[189.72,182.68],[189.648,182.759],[189.573,182.837],[189.497,182.913],[189.42,182.987],[189.34,183.06],[189.259,183.131],[189.177,183.2],[189.093,183.268],[189.008,183.333],[188.921,183.397],[188.833,183.459],[188.744,183.519],[188.654,183.577],[188.562,183.633],[188.469,183.688],[188.375,183.74],[188.279,183.79],[188.183,183.838],[188.086,183.884],[187.988,183.928],[187.888,183.969],[187.788,184.009],[187.688,184.046],[187.586,184.081],[187.484,184.114],[187.38,184.145],[187.277,184.174],[187.172,184.2],[187.068,184.224],[186.962,184.246],[186.856,184.266],[186.75,184.283],[186.644,184.298],[186.537,184.311],[186.43,184.321],[186.322,184.329],[186.215,184.335],[186.108,184.338],[186,184.34],[164,184.34],[163.892,184.338],[163.785,184.335],[163.677,184.329],[163.57,184.321],[163.463,184.311],[163.356,184.298],[163.25,184.283],[163.144,184.266],[163.038,184.246],[162.932,184.224],[162.828,184.2],[162.723,184.174],[162.62,184.145],[162.516,184.114],[162.414,184.081],[162.312,184.046],[162.212,184.009],[162.112,183.969],[162.012,183.928],[161.914,183.884],[161.817,183.838],[161.72,183.79],[161.625,183.74],[161.531,183.688],[161.438,183.633],[161.346,183.577],[161.256,183.519],[161.167,183.459],[161.078,183.397],[160.992,183.333],[160.907,183.268],[160.823,183.2],[160.741,183.131],[160.66,183.06],[160.58,182.987],[160.503,182.913],[160.427,182.837],[160.352,182.759],[160.28,182.68],[160.208,182.599],[160.139,182.517],[160.072,182.433],[160.006,182.348],[159.942,182.261],[159.88,182.173],[159.82,182.084],[159.762,181.993],[159.706,181.901],[159.652,181.808],[159.6,181.714],[159.55,181.619],[159.502,181.523],[159.456,181.426],[159.412,181.327],[159.37,181.228],[159.331,181.128],[159.293,181.027],[159.258,180.926],[159.225,180.823],[159.194,180.72],[159.166,180.616],[159.139,180.512],[159.115,180.407],[159.094,180.302],[159.074,180.196],[159.057,180.09],[159.042,179.983],[159.029,179.877],[159.019,179.769],[159.01,179.662],[159.005,179.555],[159.001,179.447],[159,179.34],[159,157.34]]
M73 P0 R18
;TYPE:Custom
; You can use following code instead if your PRINT_START macro support Chamber and print area bedmesh
PRINT_START EXTRUDER=240 BED=70 CHAMBER=40 PRINT_MIN=159.65,152.99 PRINT_MAX=190.522,197.327
M190 S70
M109 S240
G90
G21
M83 ; use relative distances for extrusion
; filament start gcode
M106 S0
;LAYER_CHANGE
;Z:0.3
;HEIGHT:0.3
;BEFORE_LAYER_CHANGE
;0.3
G92 E0

G1 E-.8 F1800
;AFTER_LAYER_CHANGE
;0.3
;_SET_FAN_SPEED_CHANGING_LAYER
SET_VELOCITY_LIMIT ACCEL=500 ACCEL_TO_DECEL=250
SET_VELOCITY_LIMIT SQUARE_CORNER_VELOCITY=9
; printing object Object_1 id:0 copy 0
EXCLUDE_OBJECT_START NAME=Object_1_id_0_copy_0
G1 Z.4 F21000
G1 X172.722 Y173.645
G1 Z.4
G1 Z.3
G1 E.8 F1800
;TYPE:Inner wall
;WIDTH:0.62
G1 F3000
G1 X171.704 Y174.166 E.07529
G1 X171.074 Y174.628 E.05143
G1 X170.296 Y175.404 E.07236
G1 X169.785 Y176.117 E.05775
G1 X170.221 Y173.646 E.16524
G1 X172.662 Y173.645 E.16072
G1 E-.56 F1800
;WIPE_START
G1 F3000
G1 X171.784 Y174.123 E-.24
;WIPE_END
G1 Z.7 F21000
G1 X170.731 Y174.148 Z.7
G1 Z.3
G1 E.8 F1800
;WIDTH:0.637703
G1 F3000
G1 X170.659 Y174.148 E.00487
G1 X170.623 Y174.21 E.00487
G1 X170.659 Y174.272 E.00487
G1 X170.731 Y174.272 E.00487
G1 X170.766 Y174.21 E.00487
G1 E-.585 F1800
;WIPE_START
G1 F3000
G1 X170.731 Y174.272 E-.043
G1 X170.659 Y174.272 E-.043
G1 X170.623 Y174.21 E-.043
G1 X170.659 Y174.148 E-.043
G1 X170.731 Y174.148 E-.043
;WIPE_END
G1 Z.7 F21000
G1 X180.172 Y183.566 Z.7
G1 Z.3
G1 E.8 F1800
;WIDTH:0.62
G1 F3000
G1 X188.736 Y193.772 E.87714
G1 X188.998 Y194.182 E.03201
G1 X189.085 Y194.632 E.03018
G1 X189.071 Y194.868 E.01556
G1 X188.904 Y195.319 E.03168
G1 X188.518 Y195.701 E.03576
G1 X188.248 Y195.835 E.01984
G1 X187.874 Y195.901 E.02498
G1 X187.503 Y195.85 E.02466
G1 X187.164 Y195.691 E.02464
G1 X186.872 Y195.425 E.02599
G1 X178.268 Y185.171 E.88126
G1 X178.46 Y185.065 E.01446
G1 X178.994 Y184.706 E.04236
G1 X179.649 Y184.146 E.05671
G1 X180.132 Y183.611 E.04747
G1 X180.219 Y182.74 F21000
G1 F3000
G1 X180.259 Y182.805 E.00505
G1 X189.162 Y193.415 E.91183
G1 X189.412 Y193.761 E.02809
G1 X189.575 Y194.19 E.03026
G1 X189.641 Y194.654 E.03087
G1 X189.587 Y195.138 E.03204
G1 X189.442 Y195.473 E.02402
G1 X189.232 Y195.814 E.02637
G1 X188.829 Y196.167 E.03525
G1 X188.443 Y196.358 E.02839
G1 X187.883 Y196.459 E.03744
G1 X187.345 Y196.385 E.03575
G1 X186.854 Y196.154 E.03574
G1 X186.458 Y195.796 E.03509
G1 X177.5 Y185.12 E.91753
G1 X177.344 Y184.998 E.01303
G1 X178.156 Y184.601 E.05947
G1 X178.641 Y184.277 E.03841
G1 X179.236 Y183.774 E.05128
G1 X179.851 Y183.092 E.06052
G1 X180.163 Y182.648 E.03568
G1 X180.188 Y182.688 E.00309
G1 X180.602 Y182.139 F21000
;TYPE:Outer wall
;WIDTH:0.710173
G1 F3000
G1 X180.61 Y182.245 E.00817
;WIDTH:0.678529
G1 X180.618 Y182.352 E.00777
;WIDTH:0.646885
G1 X180.684 Y182.448 E.00809
;WIDTH:0.62
G1 X189.747 Y193.248 E.92816
G1 X190.047 Y193.797 E.04117
G1 X190.189 Y194.345 E.03732
G1 X190.203 Y194.855 E.03353
G1 X190.122 Y195.3 E.02977
G1 X189.876 Y195.87 E.04087
G1 X189.646 Y196.19 E.02597
G1 X189.141 Y196.633 E.04421
G1 X188.638 Y196.882 E.03694
G1 X188.062 Y197 E.03872
G1 X187.541 Y196.995 E.03434
G1 X187.018 Y196.855 E.03559
G1 X186.543 Y196.616 E.03499
G1 X186.044 Y196.167 E.0442
G1 X177.439 Y185.912 E.88138
;WIDTH:0.636029
G1 X176.988 Y185.4 E.04621
;WIDTH:0.673523
G1 X176.885 Y185.371 E.00769
;WIDTH:0.711018
G1 X176.783 Y185.342 E.00817
G1 X176.283 Y185.468 E.03947
;WIDTH:0.708775
G1 X175.744 Y185.556 E.04174
;WIDTH:0.714211
G1 X175.201 Y185.595 E.04192
G1 X174.656 Y185.592 E.04191
;WIDTH:0.707774
G1 X174.071 Y185.532 E.04485
;WIDTH:0.706832
G1 X173.579 Y185.438 E.03813
;WIDTH:0.714374
G1 X173.055 Y185.288 E.04194
G1 X172.395 Y185.026 E.05472
;WIDTH:0.706132
G1 X171.691 Y184.656 E.06048
;WIDTH:0.715682
G1 X171.256 Y184.353 E.04091
G1 X170.812 Y183.994 E.04404
;WIDTH:0.70906
G1 X170.447 Y183.637 E.03897
;WIDTH:0.713032
G1 X170.095 Y183.228 E.04154
G1 X169.777 Y182.79 E.04153
G1 X169.5 Y182.326 E.04154
G1 X169.141 Y181.545 E.06609
;WIDTH:0.704954
G1 X168.914 Y180.812 E.05824
;WIDTH:0.712656
G1 X168.779 Y180.013 E.06226
G1 X168.747 Y179.058 E.07337
;WIDTH:0.707307
