; HEADER_BLOCK_START
; generated by OrcaSlicer 2.1.0-beta on 2024-07-10 at 13:48:33
; total layer number: 83
; filament_density: 1.27
; filament_diameter: 1.75
; max_z_height: 15.06
; HEADER_BLOCK_END

; THUMBNAIL_BLOCK_START

;
; THUMBNAIL_BLOCK_END

; external perimeters extrusion width = 0.62mm
; perimeters extrusion width = 0.62mm
; infill extrusion width = 0.62mm
; solid infill extrusion width = 0.62mm
; top infill extrusion width = 0.62mm
; first layer extrusion width = 0.62mm

; external perimeters extrusion width = 0.62mm
; perimeters extrusion width = 0.62mm
; infill extrusion width = 0.62mm
; solid infill extrusion width = 0.62mm
; top infill extrusion width = 0.62mm
; first layer extrusion width = 0.62mm

; EXECUTABLE_BLOCK_START
EXCLUDE_OBJECT_DEFINE NAME=Object_1_id_0_copy_0 CENTER=181.679,190.079 POLYGON=[[164.575,181.463],[164.577,181.318],[164.579,181.236],[164.584,181.093],[164.587,181.01],[166.104,172.407],[166.11,172.376],[166.116,172.344],[166.124,172.313],[166.132,172.282],[166.14,172.25],[166.15,172.22],[166.159,172.189],[166.17,172.159],[166.181,172.128],[166.193,172.098],[166.206,172.069],[166.219,172.039],[166.233,172.01],[166.247,171.981],[166.262,171.953],[166.278,171.925],[166.294,171.897],[166.311,171.87],[166.329,171.842],[166.347,171.816],[166.365,171.789],[166.384,171.763],[166.404,171.738],[166.424,171.713],[166.445,171.688],[166.466,171.664],[166.488,171.64],[166.51,171.617],[166.533,171.594],[166.557,171.572],[166.58,171.55],[166.605,171.529],[166.629,171.508],[166.654,171.488],[166.68,171.469],[166.706,171.45],[166.732,171.431],[166.759,171.413],[166.786,171.396],[166.814,171.379],[166.841,171.363],[166.87,171.347],[166.898,171.332],[166.927,171.318],[166.956,171.304],[166.986,171.291],[167.015,171.279],[167.045,171.267],[167.076,171.256],[167.106,171.245],[167.137,171.235],[167.168,171.226],[167.199,171.217],[167.23,171.209],[167.261,171.202],[167.293,171.196],[167.325,171.19],[167.356,171.185],[167.388,171.18],[167.42,171.176],[167.452,171.173],[167.484,171.171],[167.517,171.169],[167.549,171.168],[167.581,171.168],[176.316,171.168],[176.39,171.178],[176.541,171.199],[176.621,171.212],[176.765,171.235],[176.843,171.249],[176.988,171.276],[177.064,171.291],[177.21,171.321],[177.284,171.338],[177.431,171.372],[177.503,171.39],[177.651,171.427],[177.869,171.487],[178.087,171.552],[178.302,171.621],[178.517,171.695],[178.729,171.774],[178.94,171.858],[179.149,171.946],[179.356,172.038],[179.561,172.135],[179.764,172.237],[179.964,172.342],[180.163,172.452],[180.358,172.567],[180.552,172.686],[180.742,172.808],[180.93,172.935],[181.115,173.066],[181.297,173.201],[181.477,173.34],[181.653,173.483],[181.826,173.63],[181.995,173.78],[182.162,173.934],[182.325,174.092],[182.485,174.253],[182.641,174.417],[182.793,174.585],[182.942,174.756],[183.087,174.93],[183.228,175.108],[183.365,175.288],[183.499,175.472],[183.628,175.658],[183.753,175.847],[183.874,176.039],[183.991,176.233],[184.104,176.43],[198.226,202.321],[198.272,202.407],[198.316,202.494],[198.359,202.582],[198.399,202.67],[198.437,202.76],[198.474,202.85],[198.509,202.941],[198.541,203.033],[198.572,203.126],[198.6,203.219],[198.627,203.313],[198.651,203.407],[198.674,203.502],[198.694,203.597],[198.712,203.693],[198.729,203.789],[198.743,203.886],[198.755,203.983],[198.765,204.08],[198.773,204.177],[198.778,204.274],[198.782,204.372],[198.784,204.469],[198.783,204.566],[198.78,204.664],[198.775,204.761],[198.769,204.859],[198.76,204.956],[198.748,205.053],[198.735,205.149],[198.72,205.245],[198.703,205.341],[198.683,205.437],[198.661,205.532],[198.638,205.627],[198.612,205.721],[198.585,205.814],[198.555,205.907],[198.523,205.999],[198.49,206.091],[198.454,206.182],[198.416,206.271],[198.377,206.36],[198.335,206.449],[198.292,206.536],[198.247,206.622],[198.2,206.708],[198.151,206.792],[198.1,206.875],[198.047,206.957],[197.993,207.038],[197.937,207.118],[197.879,207.197],[197.82,207.274],[197.758,207.35],[197.696,207.425],[197.631,207.498],[197.565,207.57],[197.498,207.64],[197.429,207.709],[197.359,207.776],[197.287,207.842],[197.213,207.906],[197.139,207.969],[197.063,208.03],[196.985,208.09],[196.907,208.147],[196.827,208.203],[196.746,208.257],[196.664,208.31],[196.58,208.36],[196.496,208.409],[196.411,208.456],[196.324,208.501],[196.237,208.545],[196.148,208.586],[196.059,208.625],[195.969,208.663],[195.878,208.699],[195.787,208.732],[195.695,208.764],[195.602,208.793],[195.508,208.821],[195.414,208.846],[195.32,208.87],[195.224,208.891],[195.129,208.911],[195.033,208.928],[194.937,208.943],[194.84,208.956],[194.743,208.967],[194.646,208.976],[194.549,208.983],[194.452,208.988],[194.354,208.99],[194.257,208.991],[194.159,208.989],[194.062,208.985],[193.964,208.979],[193.867,208.971],[193.77,208.961],[193.673,208.949],[193.577,208.935],[193.481,208.919],[193.385,208.9],[193.29,208.88],[193.195,208.857],[193.101,208.832],[193.007,208.806],[192.914,208.777],[192.821,208.746],[192.729,208.714],[192.638,208.679],[192.548,208.642],[192.458,208.604],[192.37,208.563],[192.282,208.521],[192.195,208.477],[192.109,208.43],[192.024,208.382],[191.94,208.333],[191.858,208.281],[191.776,208.227],[191.696,208.172],[191.617,208.115],[191.539,208.057],[191.462,207.996],[168.417,189.593],[168.242,189.448],[168.071,189.299],[167.904,189.146],[167.739,188.99],[167.578,188.83],[167.421,188.667],[167.267,188.501],[167.117,188.331],[166.987,188.178],[166.97,188.158],[166.845,188.003],[166.827,187.982],[166.707,187.826],[166.689,187.802],[166.572,187.645],[166.554,187.62],[166.442,187.462],[166.423,187.435],[166.315,187.276],[166.296,187.247],[166.193,187.087],[166.173,187.056],[166.074,186.896],[166.055,186.863],[165.96,186.702],[165.94,186.667],[165.85,186.505],[165.83,186.469],[165.745,186.307],[165.725,186.268],[165.643,186.106],[165.623,186.066],[165.546,185.903],[165.526,185.861],[165.454,185.697],[165.434,185.653],[165.365,185.49],[165.346,185.444],[165.282,185.281],[165.263,185.234],[165.202,185.071],[165.184,185.021],[165.128,184.858],[165.11,184.807],[165.058,184.645],[165.041,184.591],[164.992,184.429],[164.976,184.373],[164.932,184.212],[164.916,184.155],[164.876,183.994],[164.861,183.935],[164.824,183.775],[164.811,183.714],[164.778,183.555],[164.765,183.492],[164.736,183.334],[164.724,183.268],[164.699,183.112],[164.689,183.045],[164.667,182.889],[164.658,182.82],[164.64,182.666],[164.632,182.595],[164.617,182.442],[164.611,182.369],[164.599,182.218],[164.594,182.143],[164.586,181.993],[164.583,181.916],[164.578,181.768],[164.577,181.69],[164.575,181.543],[164.575,181.463]]
EXCLUDE_OBJECT_DEFINE NAME=Object_2_id_1_copy_0 CENTER=175,165.009 POLYGON=[[151,148.509],[151.002,148.348],[151.007,148.187],[151.016,148.026],[151.028,147.865],[151.043,147.704],[151.062,147.544],[151.085,147.384],[151.111,147.225],[151.14,147.066],[151.173,146.908],[151.209,146.751],[151.249,146.594],[151.292,146.439],[151.338,146.284],[151.387,146.13],[151.44,145.978],[151.496,145.827],[151.556,145.677],[151.618,145.528],[151.684,145.38],[151.753,145.234],[151.825,145.09],[151.9,144.947],[151.978,144.806],[152.059,144.667],[152.143,144.529],[152.231,144.393],[152.321,144.259],[152.413,144.127],[152.509,143.997],[152.608,143.869],[152.709,143.744],[152.813,143.62],[152.919,143.499],[153.028,143.38],[153.14,143.263],[153.254,143.149],[153.371,143.038],[153.49,142.929],[153.611,142.822],[153.734,142.718],[153.86,142.617],[153.988,142.519],[154.118,142.423],[154.25,142.33],[154.384,142.24],[154.519,142.153],[154.657,142.069],[154.797,141.988],[154.938,141.909],[155.081,141.834],[155.225,141.762],[155.371,141.693],[155.518,141.628],[155.667,141.565],[155.817,141.506],[155.969,141.449],[156.121,141.397],[156.275,141.347],[156.429,141.301],[156.585,141.258],[156.741,141.219],[156.899,141.182],[157.057,141.15],[157.215,141.12],[157.375,141.094],[157.534,141.072],[157.695,141.053],[157.855,141.037],[158.016,141.025],[158.177,141.016],[158.339,141.011],[158.5,141.009],[191.5,141.009],[191.661,141.011],[191.823,141.016],[191.984,141.025],[192.145,141.037],[192.305,141.053],[192.466,141.072],[192.625,141.094],[192.785,141.12],[192.943,141.15],[193.101,141.182],[193.259,141.219],[193.415,141.258],[193.571,141.301],[193.725,141.347],[193.879,141.397],[194.031,141.449],[194.183,141.506],[194.333,141.565],[194.482,141.628],[194.629,141.693],[194.775,141.762],[194.919,141.834],[195.062,141.909],[195.203,141.988],[195.343,142.069],[195.481,142.153],[195.616,142.24],[195.75,142.33],[195.882,142.423],[196.012,142.519],[196.14,142.617],[196.266,142.718],[196.389,142.822],[196.51,142.929],[196.629,143.038],[196.746,143.149],[196.86,143.263],[196.972,143.38],[197.081,143.499],[197.187,143.62],[197.291,143.744],[197.392,143.869],[197.491,143.997],[197.587,144.127],[197.679,144.259],[197.769,144.393],[197.857,144.529],[197.941,144.667],[198.022,144.806],[198.1,144.947],[198.175,145.09],[198.247,145.234],[198.316,145.38],[198.382,145.528],[198.444,145.677],[198.504,145.827],[198.56,145.978],[198.613,146.13],[198.662,146.284],[198.708,146.439],[198.751,146.594],[198.791,146.751],[198.827,146.908],[198.86,147.066],[198.889,147.225],[198.915,147.384],[198.938,147.544],[198.957,147.704],[198.972,147.865],[198.984,148.026],[198.993,148.187],[198.998,148.348],[199,148.509],[199,181.509],[198.998,181.671],[198.993,181.832],[198.984,181.993],[198.972,182.154],[198.957,182.315],[198.938,182.475],[198.915,182.635],[198.889,182.794],[198.86,182.953],[198.827,183.111],[198.791,183.268],[198.751,183.425],[198.708,183.58],[198.662,183.735],[198.613,183.888],[198.56,184.041],[198.504,184.192],[198.444,184.342],[198.382,184.491],[198.316,184.638],[198.247,184.784],[198.175,184.929],[198.1,185.072],[198.022,185.213],[197.941,185.352],[197.857,185.49],[197.769,185.626],[197.679,185.76],[197.587,185.892],[197.491,186.022],[197.392,186.149],[197.291,186.275],[197.187,186.399],[197.081,186.52],[196.972,186.639],[196.86,186.755],[196.746,186.869],[196.629,186.981],[196.51,187.09],[196.389,187.197],[196.266,187.301],[196.14,187.402],[196.012,187.5],[195.882,187.596],[195.75,187.689],[195.616,187.779],[195.481,187.866],[195.343,187.95],[195.203,188.031],[195.062,188.109],[194.919,188.185],[194.775,188.257],[194.629,188.326],[194.482,188.391],[194.333,188.454],[194.183,188.513],[194.031,188.569],[193.879,188.622],[193.725,188.672],[193.571,188.718],[193.415,188.761],[193.259,188.8],[193.101,188.836],[192.943,188.869],[192.785,188.899],[192.625,188.924],[192.466,188.947],[192.305,188.966],[192.145,188.982],[191.984,188.994],[191.823,189.002],[191.661,189.008],[191.5,189.009],[158.5,189.009],[158.339,189.008],[158.177,189.002],[158.016,188.994],[157.855,188.982],[157.695,188.966],[157.534,188.947],[157.375,188.924],[157.215,188.899],[157.057,188.869],[156.899,188.836],[156.741,188.8],[156.585,188.761],[156.429,188.718],[156.275,188.672],[156.121,188.622],[155.969,188.569],[155.817,188.513],[155.667,188.454],[155.518,188.391],[155.371,188.326],[155.225,188.257],[155.081,188.185],[154.938,188.109],[154.797,188.031],[154.657,187.95],[154.519,187.866],[154.384,187.779],[154.25,187.689],[154.118,187.596],[153.988,187.5],[153.86,187.402],[153.734,187.301],[153.611,187.197],[153.49,187.09],[153.371,186.981],[153.254,186.869],[153.14,186.755],[153.028,186.639],[152.919,186.52],[152.813,186.399],[152.709,186.275],[152.608,186.149],[152.509,186.022],[152.413,185.892],[152.321,185.76],[152.231,185.626],[152.143,185.49],[152.059,185.352],[151.978,185.213],[151.9,185.072],[151.825,184.929],[151.753,184.784],[151.684,184.638],[151.618,184.491],[151.556,184.342],[151.496,184.192],[151.44,184.041],[151.387,183.888],[151.338,183.735],[151.292,183.58],[151.249,183.425],[151.209,183.268],[151.173,183.111],[151.14,182.953],[151.111,182.794],[151.085,182.635],[151.062,182.475],[151.043,182.315],[151.028,182.154],[151.016,181.993],[151.007,181.832],[151.002,181.671],[151,181.509],[151,148.509]]
M73 P0 R44
;TYPE:Custom
; You can use following code instead if your PRINT_START macro support Chamber and print area bedmesh
PRINT_START EXTRUDER=240 BED=70 CHAMBER=40 PRINT_MIN=152.05,142.059 PRINT_MAX=198.164,208.371
M190 S70
M109 S240
G90
G21
M83 ; use relative distances for extrusion
; filament start gcode
M106 S0
;LAYER_CHANGE
;Z:0.3
;HEIGHT:0.3
;BEFORE_LAYER_CHANGE
;0.3
G92 E0

G1 E-.8 F1800
;AFTER_LAYER_CHANGE
;0.3
;_SET_FAN_SPEED_CHANGING_LAYER
SET_VELOCITY_LIMIT ACCEL=500 ACCEL_TO_DECEL=250
SET_VELOCITY_LIMIT SQUARE_CORNER_VELOCITY=9
; printing object Object_1 id:0 copy 0
EXCLUDE_OBJECT_START NAME=Object_1_id_0_copy_0
G1 Z.4 F21000
G1 X182.684 Y186.84
G1 Z.4
G1 Z.3
G1 E.8 F1800
;TYPE:Inner wall
;WIDTH:0.62
G1 F3000
G1 X196.073 Y202.797 E1.37134
G1 X196.381 Y203.215 E.03419
G1 X196.604 Y203.72 E.03637
G1 X196.703 Y204.165 E.03
G1 X196.724 Y204.648 E.03185
G1 X196.615 Y205.256 E.04065
G1 X196.415 Y205.706 E.03243
G1 X196.183 Y206.044 E.02696
G1 X195.834 Y206.392 E.03246
G1 X195.484 Y206.632 E.02792
G1 X194.958 Y206.843 E.03735
G1 X194.372 Y206.944 E.03914
G1 X193.826 Y206.896 E.03611
G1 X193.265 Y206.724 E.03861
G1 X192.753 Y206.402 E.0398
G1 X192.37 Y206.036 E.03487
G1 X178.919 Y190.006 E1.37769
G1 X179.811 Y189.538 E.06631
G1 X180.557 Y189.042 E.05903
G1 X181.064 Y188.636 E.04272
G1 X181.949 Y187.787 E.08073
G1 X182.647 Y186.887 E.07499
G1 E-.56 F1800
;WIPE_START
G1 F3000
G1 X183.292 Y187.652 E-.24
;WIPE_END
G1 Z.7 F21000
G1 X182.863 Y185.836 Z.7
G1 Z.3
G1 E.8 F1800
;WIDTH:0.716717
G1 F3000
G1 X182.888 Y185.982 E.01147
;WIDTH:0.673046
G1 X182.914 Y186.135 E.0112
;WIDTH:0.629375
G1 X183.085 Y186.454 E.02421
;WIDTH:0.62
G1 X196.673 Y202.647 E1.39165
G1 X197.063 Y203.328 E.05171
G1 X197.221 Y203.825 E.03428
G1 X197.261 Y204.151 E.02166
G1 X197.263 Y204.931 E.05138
G1 X197.144 Y205.434 E.03403
G1 X196.902 Y205.979 E.03919
G1 X196.612 Y206.401 E.03372
G1 X196.191 Y206.822 E.03921
G1 X195.761 Y207.116 E.03428
G1 X195.12 Y207.374 E.0455
G1 X194.624 Y207.474 E.03331
G1 X193.94 Y207.484 E.04504
G1 X193.276 Y207.319 E.04503
G1 X192.821 Y207.113 E.03289
G1 X192.41 Y206.839 E.03255
G1 X191.956 Y206.407 E.04121
G1 X178.466 Y190.33 E1.38168
;WIDTH:0.658298
G1 X178.279 Y190.239 E.01466
;WIDTH:0.696596
G1 X178.092 Y190.147 E.01561
;WIDTH:0.734894
G1 F2982.787
G1 X177.905 Y190.055 E.01655
;WIDTH:0.773193
G1 F2821.623
G1 X177.718 Y189.963 E.0175
G1 X178.025 Y189.816 E.02862
;WIDTH:0.734894
G1 F2982.787
G1 X178.332 Y189.669 E.02707
;WIDTH:0.696596
G1 F3000
G1 X178.64 Y189.522 E.02553
;WIDTH:0.658298
G1 X178.947 Y189.374 E.02398
;WIDTH:0.62
G1 X179.505 Y189.074 E.04172
G1 X180.215 Y188.604 E.05605
G1 X180.679 Y188.235 E.03902
G1 X181.53 Y187.419 E.07762
G1 X182.047 Y186.788 E.05369
;WIDTH:0.629375
G1 X182.528 Y186.086 E.057
;WIDTH:0.673046
G1 X182.631 Y185.949 E.01233
;WIDTH:0.716717
G1 X182.733 Y185.812 E.01321
;WIDTH:0.760389
G1 F2873.53
G1 X182.836 Y185.676 E.0141
G1 X182.853 Y185.777 E.00842
G1 E-.56 F1800
;WIPE_START
G1 F2873.53
G1 X182.888 Y185.982 E-.05002
G1 X182.914 Y186.135 E-.03727
G1 X183.085 Y186.454 E-.08679
G1 X183.262 Y186.664 E-.06592
;WIPE_END
G1 Z.7 F21000
G1 X167.574 Y175.822 Z.7
G1 Z.3
G1 E.8 F1800
;WIDTH:0.62
G1 F3000
G1 X168.034 Y173.209 E.17468
G1 X170.675 Y173.208 E.17387
G1 X169.96 Y173.623 E.05447
G1 X168.997 Y174.332 E.07868
G1 X168.466 Y174.808 E.04694
G1 X167.928 Y175.378 E.05158
G1 X167.611 Y175.775 E.03346
G1 E-.56 F1800
;WIPE_START
G1 F3000
G1 X167.774 Y174.788 E-.24
;WIPE_END
G1 Z.7 F21000
G1 X166.576 Y178.705 Z.7
G1 Z.3
G1 E.8 F1800
;WIDTH:0.767713
G1 F2843.607
G1 X166.597 Y178.444 E.02186
;WIDTH:0.718475
G1 F3000
G1 X166.618 Y178.182 E.02033
;WIDTH:0.669237
G1 X166.639 Y177.921 E.0188
;WIDTH:0.62
G1 X167.394 Y173.642 E.28601
G1 X167.581 Y172.678 E.06468
G1 X167.671 Y172.653 E.00614
G1 X172.798 Y172.653 E.33752
;WIDTH:0.658294
G1 X173.174 Y172.672 E.02652
;WIDTH:0.696588
G1 X173.551 Y172.692 E.02823
;WIDTH:0.734882
G1 F2982.844
G1 X173.927 Y172.712 E.02994
G1 X173.531 Y172.808 E.03238
;WIDTH:0.696588
G1 F3000
G1 X173.135 Y172.904 E.03053
;WIDTH:0.658294
G1 X172.739 Y172.999 E.02868
