; HEADER_BLOCK_START
; generated by OrcaSlicer 2.1.0-beta on 2024-07-23 at 09:20:19
; total layer number: 56
; filament_density: 1.24
; filament_diameter: 1.75
; max_z_height: 11.20
; HEADER_BLOCK_END

; THUMBNAIL_BLOCK_START

;
; THUMBNAIL_BLOCK_END

; external perimeters extrusion width = 0.40mm
; perimeters extrusion width = 0.40mm
; infill extrusion width = 0.45mm
; solid infill extrusion width = 0.40mm
; top infill extrusion width = 0.40mm
; first layer extrusion width = 0.40mm

; EXECUTABLE_BLOCK_START
EXCLUDE_OBJECT_DEFINE NAME=Rocket_middle.STL_id_0_copy_0 CENTER=194.52,183.435 POLYGON=[[177.464,191.857],[177.788,185.383],[178.489,178.939],[178.581,178.288],[178.664,177.725],[178.75,177.162],[179.565,172.547],[181.011,166.229],[182.823,160.005],[184.995,153.898],[185.183,153.416],[185.962,151.458],[186.078,151.172],[187.31,148.202],[188.385,145.713],[188.587,145.256],[188.79,144.799],[192.128,137.685],[192.364,137.294],[192.663,136.95],[193.016,136.662],[193.413,136.438],[193.843,136.284],[194.292,136.207],[194.748,136.207],[195.198,136.284],[195.627,136.438],[196.024,136.662],[196.378,136.95],[196.676,137.294],[196.912,137.685],[200.251,144.799],[200.453,145.256],[200.656,145.713],[201.733,148.208],[202.963,151.172],[203.078,151.458],[203.857,153.416],[204.045,153.898],[206.217,160.005],[208.03,166.229],[209.476,172.547],[210.291,177.162],[210.376,177.725],[210.459,178.288],[210.551,178.939],[211.252,185.383],[211.576,191.857],[211.522,198.339],[211.439,200.162],[211.09,204.807],[210.282,211.238],[209.1,217.612],[207.549,223.905],[205.633,230.098],[203.98,230.664],[185.06,230.664],[183.408,230.098],[182.885,228.529],[182.835,228.374],[181.692,224.616],[181.492,223.905],[179.941,217.612],[178.759,211.238],[177.95,204.807],[177.602,200.162],[177.518,198.339],[177.464,191.857]]
M73 P0 R48
;TYPE:Custom
; You can use following code instead if your PRINT_START macro support Chamber and print area bedmesh
PRINT_START EXTRUDER=225 BED=55 CHAMBER=35 PRINT_MIN=177.464,136.207 PRINT_MAX=211.576,230.664
M190 S55
M109 S225
G90
G21
M83 ; use relative distances for extrusion
; filament start gcode
SET_PRESSURE_ADVANCE ADVANCE=0.04; Override pressure advance value
M106 S0
;LAYER_CHANGE
;Z:0.2
;HEIGHT:0.2
;BEFORE_LAYER_CHANGE
;0.2
G92 E0

G1 E-.8 F1800
;AFTER_LAYER_CHANGE
;0.2
;_SET_FAN_SPEED_CHANGING_LAYER
SET_VELOCITY_LIMIT ACCEL=500 ACCEL_TO_DECEL=250
SET_VELOCITY_LIMIT SQUARE_CORNER_VELOCITY=9
; printing object Rocket_middle.STL id:0 copy 0
EXCLUDE_OBJECT_START NAME=Rocket_middle.STL_id_0_copy_0
G1 Z.4 F21000
G1 X208.683 Y197.526
G1 Z.4
G1 Z.2
G1 E.8 F1800
;TYPE:Inner wall
;WIDTH:0.399999
G1 F3000
G1 X208.134 Y197.613 E.01616
G1 X207.53 Y197.901 E.01947
G1 X207.244 Y198.099 E.01011
G1 X206.857 Y198.5 E.01621
G1 X206.631 Y198.826 E.01155
G1 X206.372 Y199.444 E.0195
G1 X206.271 Y200.069 E.01842
G1 X206.316 Y200.626 E.01625
G1 X206.408 Y201.001 E.01125
G1 X206.621 Y201.473 E.01506
G1 X206.809 Y201.77 E.01021
G1 X207.19 Y202.171 E.0161
G1 X207.53 Y202.422 E.0123
G1 X208.099 Y202.698 E.01839
G1 X208.845 Y202.822 E.022
G1 X209.454 Y202.76 E.01784
G1 X209.326 Y204.637 E.05473
G1 X208.624 Y210.239 E.1643
G1 X208.016 Y210.033 E.0187
G1 X207.454 Y210 E.01636
G1 X206.743 Y210.114 E.02096
G1 X206.142 Y210.401 E.01937
G1 X205.84 Y210.615 E.01078
G1 X205.47 Y211 E.01553
G1 X205.263 Y211.288 E.01033
G1 X205.035 Y211.788 E.01598
G1 X204.937 Y212.125 E.01022
G1 X204.888 Y212.676 E.0161
G1 X204.924 Y213.097 E.01229
G1 X205.142 Y213.817 E.02188
G1 X205.488 Y214.346 E.01841
G1 X205.781 Y214.652 E.0123
G1 X206.335 Y215.042 E.01972
G1 X207.009 Y215.268 E.02068
G1 X207.434 Y215.32 E.01248
G1 X207.729 Y215.305 E.00859
G1 X207.368 Y217.237 E.0572
G1 X205.986 Y222.851 E.16823
G1 X205.493 Y222.625 E.01579
G1 X205.024 Y222.52 E.01398
G1 X204.594 Y222.5 E.01251
G1 X204.117 Y222.561 E.014
G1 X203.713 Y222.685 E.01231
G1 X203.143 Y222.984 E.01872
G1 X202.778 Y223.324 E.01452
G1 X202.669 Y223.152 E.00593
G1 X202.469 Y222.984 E.00761
G1 X202.129 Y222.821 E.01095
G1 X201.767 Y222.768 E.01067
G1 X187.274 Y222.768 E.42171
G1 X186.881 Y222.831 E.01157
G1 X186.508 Y223.03 E.0123
G1 X186.255 Y223.305 E.01089
G1 X185.921 Y223.011 E.01294
G1 X185.561 Y222.79 E.0123
G1 X185.082 Y222.598 E.01501
G1 X184.567 Y222.5 E.01524
G1 X183.769 Y222.564 E.02329
G1 X183.354 Y222.695 E.01269
G1 X183.061 Y222.848 E.0096
G1 X181.672 Y217.236 E.16822
G1 X181.312 Y215.309 E.05705
G1 X181.806 Y215.304 E.01438
G1 X182.277 Y215.205 E.01399
G1 X182.64 Y215.067 E.01129
G1 X183.084 Y214.795 E.01519
G1 X183.402 Y214.515 E.0123
G1 X183.86 Y213.894 E.02245
G1 X184.071 Y213.318 E.01784
G1 X184.138 Y212.997 E.00956
G1 X184.142 Y212.421 E.01676
G1 X184.098 Y212.093 E.00961
G1 X183.92 Y211.563 E.01629
G1 X183.665 Y211.118 E.01491
G1 X183.462 Y210.866 E.00941
G1 X183.061 Y210.511 E.01558
G1 X182.739 Y210.306 E.01113
G1 X182.255 Y210.11 E.01519
G1 X181.708 Y210 E.01624
G1 X180.909 Y210.064 E.02331
G1 X180.416 Y210.236 E.0152
G1 X179.714 Y204.636 E.16422
G1 X179.587 Y202.767 E.05453
G1 X179.968 Y202.82 E.01121
G1 X180.449 Y202.802 E.01399
G1 X180.867 Y202.713 E.01245
G1 X181.314 Y202.533 E.014
G1 X181.642 Y202.339 E.01111
G1 X182.035 Y201.994 E.01521
G1 X182.276 Y201.707 E.0109
G1 X182.535 Y201.245 E.01541
G1 X182.667 Y200.892 E.01096
G1 X182.757 Y200.373 E.01535
G1 X182.768 Y200.025 E.01011
G1 X182.676 Y199.476 E.0162
G1 X182.582 Y199.171 E.00928
G1 X182.3 Y198.658 E.01704
G1 X182.035 Y198.329 E.01229
G1 X181.494 Y197.88 E.02046
G1 X180.867 Y197.61 E.01985
G1 X180.32 Y197.5 E.01625
G1 X179.521 Y197.564 E.02332
G1 X179.284 Y197.64 E.00724
G1 X179.236 Y191.892 E.16727
G1 X179.314 Y190.183 E.04978
G1 X179.549 Y190.258 E.00718
G1 X180.026 Y190.322 E.01399
G1 X180.563 Y190.282 E.01567
G1 X181.152 Y190.132 E.01769
G1 X181.727 Y189.794 E.0194
G1 X181.99 Y189.578 E.00991
G1 X182.346 Y189.141 E.01641
G1 X182.552 Y188.772 E.01229
G1 X182.763 Y188.13 E.01966
G1 X182.784 Y187.421 E.02064
G1 X182.746 Y187.115 E.00897
G1 X182.552 Y186.551 E.01735
G1 X182.346 Y186.182 E.01229
G1 X182.044 Y185.808 E.014
G1 X181.762 Y185.551 E.01111
G1 X181.317 Y185.277 E.01521
G1 X180.931 Y185.12 E.01212
G1 X180.453 Y185.018 E.01423
G1 X180.025 Y185.002 E.01245
G1 X179.605 Y185.058 E.01232
G1 X180.008 Y181.353 E.10844
G1 X180.365 Y181.56 E.012
G1 X182.727 Y182.751 E.07699
G1 X183.329 Y183.031 E.01931
G1 X186.272 Y184.097 E.09109
G1 X189.549 Y184.878 E.09801
G1 X192.91 Y185.27 E.09845
G1 X196.204 Y185.27 E.09585
G1 X199.516 Y184.874 E.09706
G1 X201.395 Y184.432 E.05618
G1 X202.733 Y184.108 E.04006
G1 X205.504 Y183.106 E.08573
G1 X206.061 Y182.879 E.01749
G1 X209.035 Y181.379 E.09693
G1 X209.435 Y185.051 E.10748
G1 X208.815 Y185.001 E.01807
G1 X208.173 Y185.092 E.01887
G1 X207.501 Y185.401 E.02153
G1 X207.23 Y185.585 E.00952
G1 X206.828 Y186 E.01681
G1 X206.591 Y186.35 E.01229
G1 X206.3 Y187.092 E.0232
G1 X206.247 Y187.904 E.02367
G1 X206.403 Y188.563 E.0197
G1 X206.531 Y188.874 E.00981
G1 X206.846 Y189.346 E.01651
G1 X207.072 Y189.598 E.00984
G1 X207.526 Y189.937 E.01648
G1 X207.903 Y190.128 E.0123
G1 X208.478 Y190.298 E.01744
G1 X209.268 Y190.299 E.02298
G1 X209.726 Y190.189 E.01373
G1 X209.804 Y191.937 E.05091
G1 X209.757 Y197.61 E.16508
G1 X209.27 Y197.52 E.01442
G1 X208.843 Y197.5 E.01245
G1 X208.722 Y197.519 E.00355
G1 E-.56 F1800
;WIPE_START
G1 F3000
G1 X208.134 Y197.613 E-.14291
G1 X207.769 Y197.787 E-.09709
;WIPE_END
G1 Z.6 F21000
G1 X187.258 Y223.136 Z.6
G1 Z.2
G1 E.8 F1800
G1 F3000
G1 X186.993 Y223.17 E.00777
G1 X186.727 Y223.312 E.00879
G1 X186.525 Y223.531 E.00868
G1 X186.406 Y223.809 E.00878
G1 X186.381 Y224.093 E.00829
G1 X186.236 Y223.832 E.00868
G1 X186.046 Y223.597 E.00878
G1 X185.523 Y223.166 E.01971
G1 X184.981 Y222.942 E.01707
G1 X184.522 Y222.854 E.0136
G1 X183.816 Y222.918 E.02063
G1 X183.519 Y223.012 E.00906
G1 X183.094 Y223.234 E.01397
G1 X182.839 Y223.435 E.00944
G1 X181.323 Y217.312 E.18354
G1 X180.866 Y214.867 E.07237
G1 X181.42 Y214.964 E.01635
G1 X181.733 Y214.954 E.00912
G1 X182.203 Y214.856 E.01399
G1 X182.462 Y214.757 E.00807
G1 X182.897 Y214.49 E.01485
G1 X183.097 Y214.323 E.00759
G1 X183.426 Y213.917 E.01521
G1 X183.574 Y213.653 E.00878
G1 X183.782 Y212.97 E.02079
G1 X183.785 Y212.421 E.01597
G1 X183.74 Y212.141 E.00825
G1 X183.531 Y211.585 E.0173
G1 X183.215 Y211.124 E.01625
G1 X182.825 Y210.779 E.01513
G1 X182.595 Y210.632 E.00795
G1 X182.122 Y210.442 E.01485
G1 X181.663 Y210.354 E.0136
G1 X180.956 Y210.418 E.02064
G1 X180.659 Y210.513 E.00909
G1 X180.129 Y210.818 E.01778
G1 X179.359 Y204.671 E.18026
G1 X179.195 Y202.274 E.06991
G1 X179.646 Y202.42 E.0138
G1 X179.955 Y202.463 E.00907
G1 X180.435 Y202.445 E.01399
G1 X180.734 Y202.381 E.00889
G1 X181.181 Y202.202 E.014
G1 X181.415 Y202.063 E.00793
G1 X181.799 Y201.726 E.01486
G1 X181.971 Y201.521 E.00778
G1 X182.223 Y201.071 E.01501
G1 X182.318 Y200.819 E.00783
G1 X182.405 Y200.312 E.01496
G1 X182.405 Y200.011 E.00878
G1 X182.257 Y199.319 E.02059
G1 X181.989 Y198.832 E.01617
G1 X181.799 Y198.597 E.00878
G1 X181.31 Y198.185 E.01861
G1 X180.734 Y197.942 E.01818
G1 X180.275 Y197.854 E.01361
G1 X179.568 Y197.918 E.02064
G1 X179.269 Y198.014 E.00915
G1 X178.932 Y198.192 E.01109
G1 X178.879 Y191.885 E.18354
G1 X178.982 Y189.64 E.06537
G1 X179.296 Y189.808 E.01035
G1 X179.597 Y189.904 E.0092
G1 X180.073 Y189.968 E.01399
G1 X180.488 Y189.933 E.01211
G1 X181.012 Y189.803 E.01571
G1 X181.273 Y189.654 E.00875
G1 X181.727 Y189.336 E.01614
G1 X182.068 Y188.917 E.01572
G1 X182.202 Y188.689 E.00769
G1 X182.376 Y188.199 E.01511
G1 X182.427 Y187.902 E.00878
G1 X182.4 Y187.202 E.02037
G1 X182.216 Y186.67 E.01639
G1 X182.068 Y186.407 E.00878
G1 X181.766 Y186.032 E.014
G1 X181.501 Y185.809 E.01008
G1 X181.064 Y185.544 E.01488
G1 X180.378 Y185.367 E.02061
G1 X180.073 Y185.356 E.00889
G1 X179.597 Y185.42 E.01397
G1 X179.193 Y185.573 E.01257
G1 X179.717 Y180.734 E.14163
G1 X180.526 Y181.241 E.02779
G1 X182.888 Y182.433 E.07699
G1 X183.452 Y182.695 E.01809
G1 X186.356 Y183.75 E.08991
G1 X189.591 Y184.524 E.09678
G1 X191.899 Y184.799 E.06764
G1 X192.91 Y184.913 E.02958
G1 X196.183 Y184.913 E.09524
G1 X199.434 Y184.527 E.09526
G1 X202.612 Y183.772 E.09504
G1 X205.382 Y182.77 E.08573
G1 X205.9 Y182.56 E.01625
G1 X208.688 Y181.154 E.09085
G1 X209.324 Y180.732 E.02221
G1 X209.848 Y185.576 E.14178
G1 X209.561 Y185.453 E.00909
G1 X209.089 Y185.356 E.01402
G1 X208.383 Y185.415 E.02063
G1 X208.092 Y185.503 E.00886
G1 X207.468 Y185.851 E.02078
G1 X207.086 Y186.247 E.01601
G1 X206.917 Y186.497 E.00878
G1 X206.719 Y186.935 E.014
G1 X206.631 Y187.358 E.01256
G1 X206.603 Y187.869 E.01489
G1 X206.749 Y188.473 E.01807
G1 X206.84 Y188.695 E.007
G1 X207.142 Y189.146 E.01579
G1 X207.303 Y189.326 E.00703
G1 X207.738 Y189.65 E.01577
G1 X208.008 Y189.786 E.00879
G1 X208.55 Y189.948 E.01646
G1 X209.251 Y189.942 E.0204
G1 X209.554 Y189.874 E.00906
G1 X210.059 Y189.648 E.01608
G1 X210.161 Y191.94 E.06676
G1 X210.109 Y198.197 E.18209
G1 X209.662 Y197.973 E.01457
G1 X209.193 Y197.869 E.01398
G1 X208.887 Y197.855 E.00889
G1 X208.245 Y197.952 E.01891
G1 X207.691 Y198.22 E.01791
G1 X207.487 Y198.361 E.00722
G1 X207.115 Y198.747 E.01558
G1 X206.954 Y198.98 E.00825
G1 X206.721 Y199.522 E.01715
G1 X206.628 Y200.061 E.01593
G1 X206.672 Y200.596 E.01561
G1 X206.737 Y200.864 E.00803
G1 X206.946 Y201.326 E.01476
G1 X207.08 Y201.538 E.0073
G1 X207.448 Y201.924 E.0155
G1 X207.691 Y202.103 E.00879
G1 X208.22 Y202.362 E.01714
G1 X208.889 Y202.468 E.01971
G1 X209.197 Y202.452 E.00899
G1 X209.665 Y202.346 E.01397
G1 X209.846 Y202.268 E.00572
G1 X209.682 Y204.671 E.07008
G1 X208.911 Y210.808 E.17998
G1 X208.636 Y210.631 E.00953
G1 X207.969 Y210.387 E.02068
G1 X207.499 Y210.354 E.01368
G1 X206.855 Y210.453 E.01897
G1 X206.303 Y210.72 E.01784
G1 X206.087 Y210.873 E.0077
G1 X205.728 Y211.247 E.0151
G1 X205.58 Y211.453 E.00738
G1 X205.36 Y211.935 E.01541
G1 X205.29 Y212.176 E.0073
G1 X205.244 Y212.707 E.0155
G1 X205.269 Y213.007 E.00878
G1 X205.46 Y213.654 E.01963
G1 X205.784 Y214.146 E.01715
G1 X205.993 Y214.364 E.00879
G1 X206.499 Y214.725 E.01808
G1 X207.112 Y214.926 E.01877
G1 X207.416 Y214.963 E.00891
G1 X207.896 Y214.939 E.01397
G1 X208.174 Y214.871 E.00832
G1 X207.717 Y217.313 E.07227
G1 X206.208 Y223.445 E.18377
G1 X205.71 Y223.097 E.01769
G1 X205.415 Y222.973 E.00929
G1 X204.946 Y222.869 E.01398
G1 X204.64 Y222.854 E.00894
G1 X204.162 Y222.915 E.014
G1 X203.873 Y223.003 E.0088
G1 X203.344 Y223.279 E.01737
G1 X202.868 Y223.747 E.01941
G1 X202.659 Y224.084 E.01155
G1 X202.599 Y223.693 E.01152
G1 X202.411 Y223.4 E.01014
G1 X202.268 Y223.279 E.00544
G1 X202.026 Y223.163 E.00782
G1 X201.767 Y223.125 E.00762
G1 X187.345 Y223.125 E.41964
G1 X187.298 Y223.131 E.00138
G1 E-.56 F1800
;WIPE_START
G1 F3000
G1 X186.993 Y223.17 E-.07369
G1 X186.727 Y223.312 E-.07246
G1 X186.525 Y223.531 E-.07157
G1 X186.488 Y223.617 E-.02227
;WIPE_END
G1 Z.6 F21000
G1 X204.491 Y227.802 Z.6
G1 Z.2
G1 E.8 F1800
G1 F3000
G1 X204.208 Y228.714 E.02779
G1 X203.685 Y228.893 E.01608
G1 X203.017 Y228.893 E.01945
G1 X203.017 Y227.221 E.04863
G1 X203.31 Y227.438 E.01062
G1 X203.695 Y227.63 E.01251
G1 X204.156 Y227.766 E.01398
G1 X204.452 Y227.797 E.00866
G1 X204.982 Y227.426 F21000
G1 F3000
G1 X204.495 Y228.993 E.04774
G1 X203.745 Y229.25 E.02308
G1 X202.659 Y229.25 E.03157
G1 X202.659 Y226.254 E.08717
G1 X202.925 Y226.646 E.01378
G1 X203.135 Y226.865 E.00882
G1 X203.522 Y227.15 E.014
G1 X203.797 Y227.287 E.00894
G1 X204.258 Y227.424 E.01398
G1 X204.584 Y227.458 E.00955
G1 X204.942 Y227.429 E.01046
G1 E-.56 F1800
;WIPE_START
G1 F3000
G1 X204.667 Y228.391 E-.24
;WIPE_END
G1 Z.6 F21000
G1 X184.512 Y227.803 Z.6
G1 Z.2
G1 E.8 F1800
G1 F3000
G1 X185.07 Y227.726 E.01637
G1 X185.554 Y227.536 E.01513
G1 X186.024 Y227.221 E.01647
G1 X186.024 Y228.893 E.04865
G1 X185.355 Y228.893 E.01945
G1 X184.812 Y228.706 E.01672
G1 X184.525 Y227.841 E.02653
G1 X184.022 Y227.425 F21000
G1 F3000
G1 X184.562 Y227.445 E.01572
G1 X184.949 Y227.39 E.01139
G1 X185.423 Y227.204 E.0148
G1 X185.684 Y227.044 E.00892
G1 X186.046 Y226.726 E.014
G1 X186.236 Y226.491 E.00879
G1 X186.381 Y226.23 E.00869
G1 X186.381 Y229.25 E.08785
G1 X185.296 Y229.25 E.03157
G1 X184.529 Y228.987 E.0236
G1 X184.034 Y227.463 E.04661
G1 E-.56 F1800
;WIPE_START
G1 F3000
G1 X184.562 Y227.445 E-.12671
G1 X184.949 Y227.39 E-.09394
G1 X185.024 Y227.361 E-.01935
;WIPE_END
G1 Z.6 F21000
G1 X187.338 Y223.487 Z.6
G1 Z.2
G1 E.8 F1800
G1 F3000
G1 X187.197 Y223.487 E.00408
G1 X186.946 Y223.594 E.00796
G1 X186.786 Y223.797 E.00753
G1 X186.738 Y224.017 E.00655
;WIDTH:0.44153
G1 X186.717 Y224.285 E.00872
;WIDTH:0.48306
G1 X186.697 Y224.553 E.00963
G1 X186.72 Y225.162 E.02185
;WIDTH:0.483323
G1 X186.697 Y225.774 E.02198
G1 X186.717 Y226.151 E.01358
;WIDTH:0.441661
G1 X186.738 Y226.529 E.01229
;WIDTH:0.399999
G1 X186.738 Y229.607 E.08956
G1 X185.237 Y229.607 E.0437
G1 X184.246 Y229.267 E.03048
G1 X183.639 Y227.397 E.05721
G1 X183.446 Y226.851 E.01687
G1 X183.685 Y226.955 E.0076
G1 X184.18 Y227.096 E.01497
G1 X184.659 Y227.085 E.01394
G1 X184.918 Y227.019 E.00777
G1 X185.449 Y226.776 E.01699
G1 X185.924 Y226.317 E.01922
;WIDTH:0.44153
G1 X186.092 Y226.025 E.01094
;WIDTH:0.48306
G1 X186.26 Y225.733 E.01208
G1 X186.326 Y225.162 E.02064
G1 X186.26 Y224.59 E.02064
G1 X186.214 Y224.505 E.00345
;WIDTH:0.453828
G1 X186.169 Y224.42 E.00322
;WIDTH:0.424595
G1 X185.81 Y223.865 E.02056
;WIDTH:0.399999
G1 X185.352 Y223.48 E.01742
G1 X184.848 Y223.273 E.01584
G1 X184.477 Y223.208 E.01097
G1 X183.863 Y223.272 E.01796
G1 X183.259 Y223.551 E.01935
G1 X183.105 Y223.672 E.00573
G1 X182.791 Y224.03 E.01383
G1 X182.666 Y224.272 E.00792
G1 X180.974 Y217.388 E.20626
G1 X180.372 Y214.226 E.09365
G1 X180.997 Y214.541 E.02036
G1 X181.66 Y214.605 E.01936
G1 X182.301 Y214.438 E.01927
G1 X182.846 Y214.067 E.01922
G1 X183.237 Y213.534 E.01921
G1 X183.428 Y212.902 E.01921
G1 X183.409 Y212.281 E.01809
G1 X183.242 Y211.799 E.01485
G1 X182.951 Y211.366 E.01518
G1 X182.468 Y210.967 E.01824
G1 X181.989 Y210.773 E.01503
G1 X181.617 Y210.708 E.01097
G1 X181.003 Y210.772 E.01797
G1 X180.4 Y211.052 E.01936
G1 X180.247 Y211.172 E.00565
