; HEADER_BLOCK_START
; generated by OrcaSlicer 2.1.0-beta on 2024-07-22 at 15:33:21
; total layer number: 187
; filament_density: 1.24
; filament_diameter: 1.75
; max_z_height: 44.94
; HEADER_BLOCK_END

; THUMBNAIL_BLOCK_START

;
; THUMBNAIL_BLOCK_END

; external perimeters extrusion width = 0.62mm
; perimeters extrusion width = 0.62mm
; infill extrusion width = 0.62mm
; solid infill extrusion width = 0.62mm
; top infill extrusion width = 0.62mm
; first layer extrusion width = 0.62mm

; external perimeters extrusion width = 0.62mm
; perimeters extrusion width = 0.62mm
; infill extrusion width = 0.62mm
; solid infill extrusion width = 0.62mm
; top infill extrusion width = 0.62mm
; first layer extrusion width = 0.62mm

; external perimeters extrusion width = 0.62mm
; perimeters extrusion width = 0.62mm
; infill extrusion width = 0.62mm
; solid infill extrusion width = 0.62mm
; top infill extrusion width = 0.62mm
; first layer extrusion width = 0.62mm

; external perimeters extrusion width = 0.62mm
; perimeters extrusion width = 0.62mm
; infill extrusion width = 0.62mm
; solid infill extrusion width = 0.62mm
; top infill extrusion width = 0.62mm
; first layer extrusion width = 0.62mm

; EXECUTABLE_BLOCK_START
EXCLUDE_OBJECT_DEFINE NAME=Rocket_middle.STL_id_0_copy_0 CENTER=194.521,183.435 POLYGON=[[177.465,191.857],[177.789,185.384],[178.49,178.94],[178.582,178.288],[178.664,177.725],[178.75,177.162],[179.565,172.547],[181.011,166.229],[182.824,160.005],[184.996,153.898],[185.184,153.416],[185.962,151.458],[186.078,151.172],[187.308,148.208],[188.385,145.714],[188.587,145.256],[188.79,144.799],[192.129,137.685],[192.364,137.294],[192.663,136.95],[193.017,136.662],[193.414,136.438],[193.843,136.285],[194.293,136.207],[194.749,136.207],[195.198,136.285],[195.627,136.438],[196.025,136.662],[196.378,136.95],[196.677,137.294],[196.913,137.685],[200.251,144.799],[200.454,145.256],[200.656,145.714],[201.731,148.202],[202.963,151.172],[203.079,151.458],[203.857,153.416],[204.046,153.898],[206.218,160.005],[208.03,166.229],[209.476,172.547],[210.291,177.162],[210.377,177.725],[210.459,178.288],[210.552,178.94],[211.252,185.384],[211.576,191.857],[211.522,198.339],[211.439,200.162],[211.09,204.807],[210.282,211.238],[209.1,217.612],[207.549,223.905],[207.349,224.617],[206.206,228.374],[206.156,228.529],[205.633,230.098],[203.98,230.664],[185.061,230.664],[183.408,230.098],[181.492,223.905],[179.941,217.612],[178.759,211.238],[177.951,204.807],[177.602,200.162],[177.519,198.339],[177.465,191.857]]
EXCLUDE_OBJECT_DEFINE NAME=Rocket_Right_Wing.STL_id_1_copy_0 CENTER=164.985,185.868 POLYGON=[[157.506,191.536],[161.11,150.74],[163.336,154.685],[165.333,158.751],[167.096,162.925],[168.617,167.192],[169.893,171.539],[170.918,175.951],[171.69,180.415],[172.206,184.916],[172.464,189.439],[172.464,193.969],[172.206,198.492],[171.69,202.993],[170.918,207.457],[169.893,211.869],[168.617,216.216],[167.096,220.483],[163.129,220.995],[159.861,218.474],[157.683,201.597],[157.506,191.536]]
EXCLUDE_OBJECT_DEFINE NAME=Rocket_Left_Wing.STL_id_2_copy_0 CENTER=145.903,183.374 POLYGON=[[138.424,177.705],[138.601,167.645],[140.778,150.767],[144.046,148.246],[148.013,148.758],[149.535,153.025],[150.81,157.372],[151.836,161.785],[152.608,166.249],[153.124,170.75],[153.382,175.272],[153.382,179.803],[153.124,184.325],[152.608,188.826],[151.836,193.29],[150.81,197.703],[149.535,202.05],[148.013,206.317],[146.251,210.49],[144.253,214.556],[142.027,218.502],[138.424,177.705]]
EXCLUDE_OBJECT_DEFINE NAME=Standard_Hook.STL_id_3_copy_0 CENTER=167.084,136.031 POLYGON=[[150.388,130.676],[150.404,130.517],[151.267,124.949],[151.291,124.826],[151.364,124.531],[151.495,124.208],[151.533,124.123],[151.709,123.801],[151.93,123.471],[152.19,123.145],[152.48,122.832],[153.887,121.426],[154.2,121.135],[154.526,120.875],[154.855,120.654],[155.178,120.479],[155.262,120.441],[155.585,120.31],[155.88,120.237],[156.004,120.213],[161.571,119.35],[161.842,119.336],[161.978,119.337],[162.112,119.364],[162.352,119.418],[162.485,119.471],[162.598,119.532],[162.721,119.609],[169.534,124.356],[169.668,124.471],[174.931,129.735],[175.033,129.854],[183.78,143.392],[174.446,152.726],[160.909,143.979],[160.789,143.877],[155.526,138.614],[155.41,138.479],[150.663,131.667],[150.586,131.544],[150.493,131.332],[150.441,131.201],[150.413,131.063],[150.389,130.808],[150.388,130.676]]
M73 P0 R63
;TYPE:Custom
; You can use following code instead if your PRINT_START macro support Chamber and print area bedmesh
PRINT_START EXTRUDER=210 BED=60 CHAMBER=35 PRINT_MIN=138.424,124.078 PRINT_MAX=211.576,230.664
M190 S60
M109 S210
G90
G21
M83 ; use relative distances for extrusion
; filament start gcode
SET_PRESSURE_ADVANCE ADVANCE=0.04; Override pressure advance value
M106 S0
;LAYER_CHANGE
;Z:0.3
;HEIGHT:0.3
;BEFORE_LAYER_CHANGE
;0.3
G92 E0

G1 E-.8 F1800
;AFTER_LAYER_CHANGE
;0.3
;_SET_FAN_SPEED_CHANGING_LAYER
SET_VELOCITY_LIMIT ACCEL=500 ACCEL_TO_DECEL=250
SET_VELOCITY_LIMIT SQUARE_CORNER_VELOCITY=9
; printing object Standard Hook.STL id:3 copy 0
EXCLUDE_OBJECT_START NAME=Standard_Hook.STL_id_3_copy_0
G1 Z.4 F21000
G1 X166.683 Y142.854
G1 Z.4
G1 Z.3
G1 E.8 F1800
;TYPE:Inner wall
;WIDTH:0.62
G1 F3000
G1 X166.447 Y142.734 E.01797
G1 X165.964 Y142.582 E.03438
G1 X165.465 Y142.532 E.03405
G1 X161.761 Y142.539 E.25154
G1 X156.97 Y137.748 E.46015
G1 X168.802 Y125.916 E1.13637
G1 X173.593 Y130.707 E.46015
G1 X173.587 Y134.408 E.25138
G1 X173.664 Y135.004 E.04078
G1 X173.758 Y135.332 E.02318
G1 X174.015 Y135.837 E.03846
G1 X174.35 Y136.254 E.03636
G1 X181.487 Y143.392 E.68555
G1 X174.446 Y150.433 E.67625
G1 X167.275 Y143.262 E.68873
G1 X166.833 Y142.93 E.0376
G1 X166.736 Y142.881 E.00734
G1 X166.483 Y143.369 F21000
G1 F3000
G1 X166.419 Y143.324 E.00535
G1 X165.907 Y143.143 E.03688
G1 X165.466 Y143.088 E.03017
G1 X161.642 Y143.095 E.25973
G1 X161.498 Y143.062 E.00999
G1 X156.296 Y137.859 E.49968
G1 X156.223 Y137.709 E.01131
G1 X168.77 Y125.162 E1.2051
G1 X168.905 Y125.234 E.01038
G1 X174.071 Y130.399 E.49615
G1 X174.149 Y130.556 E.0119
G1 X174.142 Y134.409 E.26167
G1 X174.236 Y135.022 E.0421
G1 X174.469 Y135.509 E.03665
G1 X174.742 Y135.861 E.0303
G1 X182.273 Y143.392 E.72328
G1 X174.446 Y151.219 E.75172
G1 X166.872 Y143.645 E.72744
G1 X166.532 Y143.404 E.02832
G1 X166.134 Y143.813 F21000
;TYPE:Outer wall
G1 F3000
G1 X165.736 Y143.671 E.02871
G1 X165.467 Y143.644 E.01834
G1 X161.643 Y143.65 E.25973
G1 X161.275 Y143.586 E.02535
G1 X161.136 Y143.485 E.01168
G1 X155.903 Y138.252 E.50261
G1 X155.732 Y138.036 E.01871
G1 X155.65 Y137.747 E.02039
G1 X155.699 Y137.489 E.01784
G1 X155.795 Y137.351 E.01138
G1 X168.417 Y124.73 E1.21224
G1 X168.717 Y124.601 E.0222
G1 X169.09 Y124.678 E.02586
G1 X169.27 Y124.812 E.01525
G1 X174.629 Y130.172 E.51472
G1 X174.705 Y130.492 E.02238
G1 X174.698 Y134.41 E.26609
G1 X174.761 Y134.829 E.02876
G1 X174.964 Y135.257 E.03217
G1 X175.135 Y135.469 E.0185
G1 X183.059 Y143.392 E.76101
G1 X174.446 Y152.005 E.82719
G1 X166.523 Y144.081 E.76101
G1 X166.189 Y143.836 E.02814
G1 E-.56 F1800
;WIPE_START
G1 F3000
G1 X165.736 Y143.671 E-.11578
G1 X165.467 Y143.644 E-.06479
G1 X165.219 Y143.644 E-.05943
;WIPE_END
G1 Z.7 F21000
G1 X173.426 Y131.137 Z.7
G1 Z.3
G1 E.8 F1800
;TYPE:Bottom surface
;WIDTH:0.631784
G1 F6300
G1 X168.798 Y126.51 E.4539
G1 X168.397 Y126.911 E.03935
G1 X173.175 Y131.689 E.46864
G1 X173.173 Y132.49 E.05556
G1 X167.995 Y127.312 E.50785
G1 X167.594 Y127.713 E.03935
G1 X173.172 Y133.291 E.54707
G1 X173.17 Y134.092 E.05556
G1 X167.193 Y128.114 E.58628
G1 X166.792 Y128.516 E.03935
G1 X173.235 Y134.959 E.63202
G1 X173.333 Y135.389 E.03058
G1 X173.425 Y135.602 E.01606
G1 X173.717 Y136.146 E.0428
G1 X174.051 Y136.545 E.03608
G1 X180.898 Y143.392 E.67161
G1 X180.882 Y143.408 E.00159
G1 X166.39 Y128.917 E1.42135
G1 X165.989 Y129.318 E.03935
G1 X180.481 Y143.81 E1.42135
G1 X180.079 Y144.211 E.03935
G1 X165.588 Y129.719 E1.42135
G1 X165.187 Y130.12 E.03935
G1 X179.678 Y144.612 E1.42135
G1 X179.277 Y145.013 E.03935
G1 X164.786 Y130.522 E1.42135
G1 X164.384 Y130.923 E.03935
G1 X178.876 Y145.414 E1.42135
G1 X178.475 Y145.816 E.03935
G1 X163.983 Y131.324 E1.42135
G1 X163.582 Y131.725 E.03935
G1 X178.073 Y146.217 E1.42135
G1 X177.672 Y146.618 E.03935
G1 X163.181 Y132.127 E1.42135
G1 X162.78 Y132.528 E.03935
G1 X177.271 Y147.019 E1.42135
G1 X176.87 Y147.42 E.03935
G1 X162.378 Y132.929 E1.42135
G1 X161.977 Y133.33 E.03935
G1 X176.469 Y147.822 E1.42135
G1 X176.067 Y148.223 E.03935
G1 X161.576 Y133.731 E1.42135
G1 X161.175 Y134.133 E.03935
G1 X175.666 Y148.624 E1.42135
G1 X175.265 Y149.025 E.03935
G1 X160.773 Y134.534 E1.42135
G1 X160.372 Y134.935 E.03935
G1 X174.864 Y149.427 E1.42135
G1 X174.462 Y149.828 E.03935
G1 X159.971 Y135.336 E1.42135
G1 X159.57 Y135.737 E.03935
G1 X166.005 Y142.172 E.63114
G1 X165.795 Y142.135 E.01478
G1 X165.146 Y142.116 E.045
G1 X159.169 Y136.139 E.58629
G1 X158.767 Y136.54 E.03935
G1 X164.345 Y142.118 E.54707
G1 X163.544 Y142.119 E.05556
G1 X158.366 Y136.941 E.50785
G1 X157.965 Y137.342 E.03935
G1 X162.743 Y142.12 E.46863
G1 X161.942 Y142.122 E.05556
G1 X157.387 Y137.567 E.44676
; stop printing object Standard Hook.STL id:3 copy 0
; printing object Rocket_Left Wing.STL id:2 copy 0
G1 E-.56 F1800
;WIPE_START
G1 F6300
G1 X158.094 Y138.274 E-.24
;WIPE_END
EXCLUDE_OBJECT_END NAME=Standard_Hook.STL_id_3_copy_0
EXCLUDE_OBJECT_START NAME=Rocket_Left_Wing.STL_id_2_copy_0
G1 Z.7 F21000
G1 X146.82 Y150.239 Z.7
G1 Z.3
G1 E.8 F1800
;TYPE:Inner wall
;WIDTH:0.62
G1 F3000
G1 X147.077 Y150.958 E.05187
;WIDTH:0.661852
G1 X147.134 Y151.181 E.01676
;WIDTH:0.703704
G1 X147.191 Y151.403 E.01793
;WIDTH:0.745557
G1 X147.248 Y151.625 E.0191
G1 X147.489 Y152.259 E.05649
;WIDTH:0.727261
G1 X147.691 Y152.841 E.04988
G1 X147.791 Y153.069 E.02022
;WIDTH:0.691507
G1 X147.892 Y153.298 E.01913
;WIDTH:0.655753
G1 X147.992 Y153.526 E.01804
;WIDTH:0.62
G1 X149.242 Y157.784 E.30138
G1 X150.246 Y162.107 E.30138
G1 X151.002 Y166.48 E.30138
G1 X151.508 Y170.888 E.30138
G1 X151.761 Y175.319 E.30138
G1 X151.761 Y179.756 E.30138
G1 X151.508 Y184.187 E.30138
G1 X151.002 Y188.596 E.30138
G1 X150.246 Y192.968 E.30138
G1 X149.242 Y197.291 E.30138
G1 X147.992 Y201.549 E.30138
G1 X146.502 Y205.729 E.30138
G1 X144.776 Y209.817 E.30138
G1 X143.689 Y212.028 E.16729
G1 X143.692 Y211.615 E.02801
G1 X143.476 Y204.743 E.46692
G1 X142.999 Y197.859 E.4687
G1 X142.262 Y190.997 E.4687
G1 X141.266 Y184.167 E.4687
G1 X140.048 Y177.571 E.45557
G1 X140.22 Y167.763 E.66618
G1 X141.626 Y156.847 E.74746
G1 X142.036 Y157.056 E.0312
G1 X142.622 Y157.243 E.04179
G1 X143.23 Y157.328 E.0417
G1 X143.844 Y157.308 E.04169
G1 X144.35 Y157.215 E.03495
G1 X144.855 Y157.034 E.03647
G1 X145.348 Y156.778 E.03769
G1 X145.838 Y156.409 E.04169
G1 X146.259 Y155.962 E.04169
G1 X146.598 Y155.451 E.04169
G1 X146.846 Y154.889 E.04169
G1 X146.995 Y154.294 E.04169
G1 X147.043 Y153.662 E.043
;WIDTH:0.658897
G1 X147.036 Y153.43 E.01686
;WIDTH:0.697795
G1 X147.029 Y153.198 E.01797
;WIDTH:0.736693
G1 X147.022 Y152.966 E.01907
G1 X146.849 Y152.401 E.0486
;WIDTH:0.745557
G1 X146.623 Y151.893 E.04633
G1 X146.545 Y151.797 E.01023
;WIDTH:0.713286
G1 X146.468 Y151.702 E.00974
;WIDTH:0.681016
G1 X146.234 Y151.44 E.02649
;WIDTH:0.650508
G1 X146 Y151.178 E.02518
;WIDTH:0.62
G1 X145.606 Y150.828 E.03575
G1 X145.087 Y150.5 E.04169
;WIDTH:0.66596
G1 X145.012 Y150.444 E.00689
;WIDTH:0.71192
G1 X144.937 Y150.389 E.00741
;WIDTH:0.75788
G1 X144.862 Y150.333 E.00794
;WIDTH:0.80384
G1 X144.787 Y150.277 E.00846
;WIDTH:0.8498
G1 X144.711 Y150.221 E.00899
;WIDTH:0.89576
G1 X144.636 Y150.165 E.00952
;WIDTH:0.941721
G1 X144.561 Y150.11 E.01004
G1 X144.655 Y150.099 E.01017
;WIDTH:0.89576
G1 X144.749 Y150.088 E.00964
;WIDTH:0.8498
G1 X144.844 Y150.077 E.0091
;WIDTH:0.80384
G1 X144.938 Y150.065 E.00857
;WIDTH:0.75788
G1 X145.032 Y150.054 E.00804
;WIDTH:0.71192
G1 X145.126 Y150.043 E.00751
;WIDTH:0.66596
G1 X145.22 Y150.032 E.00697
;WIDTH:0.62
G1 X146.761 Y150.231 E.10548
G1 X147.229 Y149.731 F21000
G1 F3000
G1 X148.521 Y153.355 E.26123
G1 X149.779 Y157.643 E.30353
G1 X150.791 Y161.996 E.30353
G1 X151.552 Y166.4 E.30353
G1 X152.062 Y170.841 E.30353
G1 X152.317 Y175.303 E.30353
G1 X152.317 Y179.772 E.30353
G1 X152.062 Y184.234 E.30353
G1 X151.552 Y188.675 E.30353
G1 X150.791 Y193.079 E.30353
G1 X149.779 Y197.432 E.30353
G1 X148.521 Y201.721 E.30353
G1 X147.02 Y205.93 E.30353
G1 X145.281 Y210.048 E.30353
G1 X143.115 Y214.458 E.33369
G1 X143.137 Y211.649 E.19075
G1 X142.921 Y204.771 E.46732
G1 X142.445 Y197.907 E.46728
G1 X141.71 Y191.066 E.46728
G1 X140.718 Y184.258 E.46727
G1 X139.491 Y177.617 E.45864
G1 X139.665 Y167.723 E.67205
G1 X141.126 Y156.384 E.77645
G1 X141.179 Y155.759 E.04259
G1 X141.628 Y156.191 E.04235
G1 X142.089 Y156.471 E.03663
G1 X142.579 Y156.659 E.03564
G1 X143.09 Y156.76 E.03536
G1 X143.609 Y156.772 E.03531
G1 X144.124 Y156.697 E.03531
G1 X144.663 Y156.513 E.03866
G1 X145.077 Y156.293 E.03188
G1 X145.49 Y155.976 E.0353
G1 X145.842 Y155.595 E.0353
G1 X146.125 Y155.159 E.0353
G1 X146.331 Y154.681 E.0353
G1 X146.452 Y154.176 E.0353
G1 X146.487 Y153.646 E.03609
G1 X146.42 Y153.092 E.03789
G1 X146.293 Y152.64 E.03188
G1 X146.07 Y152.17 E.0353
G1 X145.771 Y151.745 E.0353
G1 X145.405 Y151.377 E.0353
G1 X144.981 Y151.075 E.0353
G1 X144.513 Y150.85 E.0353
G1 X144.013 Y150.707 E.03532
G1 X143.446 Y150.653 E.03867
G1 X142.977 Y150.683 E.03195
G1 X142.47 Y150.805 E.03539
G1 X144.347 Y149.36 E.16089
G1 X147.17 Y149.724 E.19327
G1 X147.638 Y149.224 F21000
;TYPE:Outer wall
G1 F3000
G1 X149.05 Y153.183 E.28544
G1 X150.317 Y157.502 E.30568
G1 X151.336 Y161.886 E.30569
G1 X152.103 Y166.321 E.30569
G1 X152.615 Y170.793 E.30569
G1 X152.872 Y175.287 E.30569
G1 X152.872 Y179.788 E.30568
G1 X152.615 Y184.282 E.30569
G1 X152.103 Y188.754 E.30569
G1 X151.336 Y193.189 E.30569
G1 X150.317 Y197.573 E.30569
G1 X149.05 Y201.892 E.30569
G1 X147.538 Y206.132 E.30569
G1 X145.787 Y210.278 E.30569
G1 X143.802 Y214.32 E.30577
G1 X143.356 Y215.136 E.06317
G1 X142.86 Y216.396 E.09196
G1 X142.347 Y217.304 E.07085
G1 X142.358 Y216.088 E.08258
G1 X142.531 Y215.101 E.06807
G1 X142.558 Y214.598 E.03424
G1 X142.581 Y211.656 E.19981
G1 X142.366 Y204.799 E.46587
G1 X141.892 Y197.956 E.46585
G1 X141.159 Y191.136 E.46585
G1 X140.169 Y184.349 E.46585
G1 X138.935 Y177.663 E.46172
G1 X139.11 Y167.682 E.67793
G1 X140.599 Y156.118 E.79183
G1 X140.645 Y155.402 E.04873
;WIDTH:0.643496
G1 X140.671 Y154.764 E.04525
G1 X140.662 Y154.361 E.02851
;WIDTH:0.605997
G1 X140.653 Y153.958 E.02667
;WIDTH:0.568499
G1 X140.735 Y153.193 E.0474
;WIDTH:0.576047
G1 X140.821 Y152.698 E.03144
;WIDTH:0.62111
G1 X140.937 Y152.292 E.02877
;WIDTH:0.666175
G1 X141.053 Y151.885 E.03109
;WIDTH:0.707185
G1 X141.124 Y151.691 E.01625
;WIDTH:0.748195
G1 X141.195 Y151.497 E.01728
;WIDTH:0.789205
G1 X141.266 Y151.302 E.01832
;WIDTH:0.830216
G1 X141.337 Y151.108 E.01935
G1 X141.643 Y150.871 E.03628
;WIDTH:0.827059
G1 X141.771 Y150.745 E.01669
;WIDTH:0.784219
G1 X141.899 Y150.62 E.01575
;WIDTH:0.741379
G1 X142.027 Y150.495 E.01481
;WIDTH:0.698539
G1 X142.228 Y150.315 E.02088
;WIDTH:0.659269
G1 X142.429 Y150.136 E.01959
;WIDTH:0.62
G1 X144.19 Y148.779 E.15101
G1 X147.579 Y149.216 E.23201
G1 E-.56 F1800
;WIPE_START
G1 F3000
G1 X147.926 Y150.154 E-.24
;WIPE_END
G1 Z.7 F21000
G1 X141.746 Y151.879 Z.7
G1 Z.3
G1 E.8 F1800
;WIDTH:0.769269
G1 F3000
G1 X141.821 Y151.746 E.01316
;WIDTH:0.798236
G1 X141.961 Y151.614 E.01725
;WIDTH:0.827202
G1 X142.1 Y151.481 E.01793
G1 X142.248 Y151.43 E.01456
;WIDTH:0.784315
G1 X142.395 Y151.378 E.01374
;WIDTH:0.741427
G1 X142.542 Y151.326 E.01293
;WIDTH:0.698539
G1 X142.953 Y151.267 E.03217
;WIDTH:0.659269
G1 X143.364 Y151.207 E.03018
;WIDTH:0.62
G1 X143.873 Y151.244 E.03463
G1 X144.284 Y151.356 E.02893
G1 X144.67 Y151.535 E.02891
G1 X145.02 Y151.777 E.02891
G1 X145.324 Y152.075 E.02891
G1 X145.574 Y152.42 E.02891
G1 X145.762 Y152.802 E.02891
G1 X145.87 Y153.17 E.02607
G1 X145.932 Y153.633 E.0317
G1 X145.909 Y154.058 E.02893
G1 X145.815 Y154.474 E.02891
G1 X145.652 Y154.867 E.02891
G1 X145.425 Y155.227 E.02891
