; HEADER_BLOCK_START
; generated by OrcaSlicer 2.1.0-beta on 2024-07-13 at 15:37:56
; total layer number: 21
; filament_density: 1.24
; filament_diameter: 1.75
; max_z_height: 5.10
; HEADER_BLOCK_END

; THUMBNAIL_BLOCK_START

;
; THUMBNAIL_BLOCK_END

; external perimeters extrusion width = 0.62mm
; perimeters extrusion width = 0.62mm
; infill extrusion width = 0.62mm
; solid infill extrusion width = 0.62mm
; top infill extrusion width = 0.62mm
; support material extrusion width = 0.62mm
; first layer extrusion width = 0.62mm

; EXECUTABLE_BLOCK_START
EXCLUDE_OBJECT_DEFINE NAME=væg_beslag.step_id_0_copy_0 CENTER=175,175 POLYGON=[[34.4625,281.95],[281.95,34.4625],[315.537,68.0501],[68.0501,315.537],[34.4625,281.95]]
M73 P0 R47
;TYPE:Custom
; You can use following code instead if your PRINT_START macro support Chamber and print area bedmesh
PRINT_START EXTRUDER=210 BED=60 CHAMBER=35 PRINT_MIN=34.4625,34.4625 PRINT_MAX=315.537,315.537
M190 S60
M109 S210
G90
G21
M83 ; use relative distances for extrusion
; filament start gcode
SET_PRESSURE_ADVANCE ADVANCE=0.04; Override pressure advance value
M106 S0
;LAYER_CHANGE
;Z:0.3
;HEIGHT:0.3
;BEFORE_LAYER_CHANGE
;0.3
G92 E0

G1 E-.8 F1800
;AFTER_LAYER_CHANGE
;0.3
;_SET_FAN_SPEED_CHANGING_LAYER
SET_VELOCITY_LIMIT ACCEL=500 ACCEL_TO_DECEL=250
SET_VELOCITY_LIMIT SQUARE_CORNER_VELOCITY=9
; printing object væg beslag.step id:0 copy 0
EXCLUDE_OBJECT_START NAME=væg_beslag.step_id_0_copy_0
G1 Z.4 F21000
G1 X302.312 Y68.409
G1 Z.4
G1 Z.3
G1 E.8 F1800
;TYPE:Inner wall
;WIDTH:0.62
G1 F3000
G1 X302.181 Y68.507 E.01112
G1 X68.437 Y302.251 E22.44985
G1 X68.205 Y302.634 E.03042
G1 X68.114 Y302.967 E.0234
G1 X68.114 Y303.36 E.02668
G1 X68.242 Y303.774 E.02943
G1 X68.507 Y304.145 E.03102
G1 X72.828 Y308.466 E.41502
G1 X68.05 Y313.245 E.45893
G1 X36.755 Y281.95 E3.0057
G1 X281.95 Y36.755 E23.54964
G1 X313.245 Y68.05 E3.0057
G1 X308.466 Y72.828 E.45893
G1 X304.023 Y68.385 E.42681
G1 X303.568 Y68.161 E.03444
G1 X303.157 Y68.1 E.02816
G1 X302.792 Y68.151 E.02507
G1 X302.495 Y68.272 E.02173
G1 X302.36 Y68.373 E.01149
G1 X302.659 Y68.843 F21000
G1 F3000
G1 X302.574 Y68.9 E.00698
G1 X68.856 Y302.618 E22.44734
G1 X68.686 Y302.94 E.02475
G1 X68.664 Y303.281 E.02319
G1 X68.741 Y303.529 E.01766
G1 X68.9 Y303.752 E.01861
G1 X73.614 Y308.466 E.45275
G1 X68.05 Y314.03 E.5344
G1 X35.97 Y281.95 E3.08117
G1 X281.95 Y35.97 E23.62511
M73 P1 R47
G1 X314.03 Y68.05 E3.08117
G1 X308.466 Y73.614 E.5344
G1 X303.679 Y68.827 E.45983
G1 X303.406 Y68.692 E.02066
G1 X303.16 Y68.656 E.0169
G1 X302.846 Y68.719 E.02174
G1 X302.709 Y68.81 E.01115
G1 X302.967 Y69.293 F21000
;TYPE:Outer wall
G1 F3000
G1 X69.263 Y302.997 E22.44602
M73 P1 R46
G1 X69.214 Y303.202 E.01434
G1 X69.293 Y303.36 E.01193
G1 X74.4 Y308.466 E.49049
G1 X68.05 Y314.816 E.60987
G1 X35.184 Y281.95 E3.15664
G1 X281.95 Y35.184 E23.70058
G1 X314.816 Y68.05 E3.15664
G1 X308.466 Y74.4 E.60987
G1 X303.31 Y69.244 E.4952
G1 X303.124 Y69.214 E.01283
G1 X303.02 Y69.266 E.00786
G1 E-.56 F1800
;WIPE_START
G1 F3000
G1 X302.313 Y69.973 E-.24
;WIPE_END
G1 Z.7 F21000
G1 X284.135 Y65.263 Z.7
G1 Z.3
G1 E.8 F1800
;TYPE:Inner wall
G1 F3000
G1 X284.43 Y65.827 E.04326
G1 X284.729 Y66.899 E.0756
G1 X284.794 Y67.826 E.06307
G1 X284.637 Y68.93 E.07577
G1 X284.349 Y69.757 E.05944
G1 X283.912 Y70.523 E.05991
G1 X283.178 Y71.361 E.07563
G1 X282.483 Y71.896 E.05955
G1 X281.698 Y72.298 E.05993
G1 X280.626 Y72.597 E.0756
G1 X279.699 Y72.662 E.06308
G1 X278.595 Y72.505 E.07576
G1 X277.768 Y72.217 E.05944
G1 X277.002 Y71.78 E.05991
G1 X276.164 Y71.046 E.07563
G1 X275.63 Y70.351 E.05954
G1 X275.227 Y69.566 E.05993
G1 X274.928 Y68.494 E.0756
G1 X274.861 Y67.619 E.05956
G1 X274.954 Y66.742 E.05989
G1 X275.292 Y65.681 E.07561
G1 X275.714 Y64.912 E.05959
G1 X276.272 Y64.229 E.0599
G1 X277.135 Y63.526 E.07559
G1 X277.91 Y63.114 E.05961
G1 X278.755 Y62.848 E.06018
G1 X279.858 Y62.732 E.07532
G1 X280.628 Y62.799 E.05246
G1 X280.97 Y62.862 E.02366
G1 X281.585 Y63.051 E.0437
G1 X282.571 Y63.558 E.07529
G1 X283.296 Y64.14 E.06312
G1 X283.999 Y65.003 E.07558
G1 X284.107 Y65.209 E.01581
G1 X283.655 Y65.53 F21000
G1 F3000
G1 X283.93 Y66.069 E.04104
G1 X284.19 Y67.035 E.06794
G1 X284.239 Y67.847 E.05528
G1 X284.089 Y68.838 E.06807
G1 X283.83 Y69.557 E.05191
G1 X283.436 Y70.237 E.05336
G1 X282.77 Y70.984 E.06795
G1 X282.159 Y71.445 E.05201
G1 X281.457 Y71.798 E.05337
G1 X280.491 Y72.058 E.06794
G1 X279.678 Y72.107 E.05528
G1 X278.687 Y71.957 E.06807
G1 X277.968 Y71.698 E.05192
G1 X277.288 Y71.304 E.05335
G1 X276.542 Y70.638 E.06796
G1 X276.08 Y70.027 E.05201
G1 X275.727 Y69.325 E.05337
G1 X275.467 Y68.359 E.06794
G1 X275.416 Y67.594 E.05202
G1 X275.505 Y66.814 E.05333
G1 X275.817 Y65.863 E.06796
G1 X276.192 Y65.195 E.05204
G1 X276.694 Y64.591 E.05333
G1 X277.475 Y63.966 E.06795
G1 X278.155 Y63.613 E.05204
G1 X278.909 Y63.381 E.05358
G1 X279.902 Y63.286 E.06771
G1 X280.56 Y63.35 E.0449
G1 X281.422 Y63.582 E.06064
G1 X282.305 Y64.046 E.06769
G1 X282.934 Y64.562 E.05528
G1 X283.559 Y65.343 E.06795
G1 X283.628 Y65.477 E.01021
G1 X283.173 Y65.79 F21000
;TYPE:Outer wall
G1 F3000
G1 X283.429 Y66.31 E.03937
G1 X283.651 Y67.17 E.06028
G1 X283.683 Y67.868 E.04749
G1 X283.541 Y68.746 E.06038
G1 X283.312 Y69.358 E.0444
G1 X282.96 Y69.951 E.04681
G1 X282.362 Y70.607 E.06029
G1 X281.834 Y70.994 E.04448
G1 X281.215 Y71.297 E.04681
G1 X280.355 Y71.519 E.06028
G1 X279.657 Y71.551 E.04749
G1 X278.779 Y71.409 E.06038
G1 X278.167 Y71.18 E.0444
G1 X277.574 Y70.828 E.0468
G1 X276.919 Y70.23 E.06029
G1 X276.531 Y69.702 E.04448
G1 X276.228 Y69.083 E.04681
G1 X276.006 Y68.223 E.06029
G1 X275.971 Y67.569 E.04448
G1 X276.056 Y66.886 E.04676
G1 X276.342 Y66.045 E.06032
G1 X276.67 Y65.478 E.04449
G1 X277.116 Y64.953 E.04676
G1 X277.815 Y64.405 E.06033
G1 X278.4 Y64.111 E.04449
G1 X279.064 Y63.915 E.04699
G1 X279.945 Y63.84 E.0601
G1 X280.492 Y63.902 E.03735
G1 X281.259 Y64.114 E.05403
G1 X282.038 Y64.533 E.06009
G1 X282.572 Y64.984 E.04745
G1 X283.12 Y65.683 E.06032
G1 X283.146 Y65.736 E.00406
G1 E-.56 F1800
;WIPE_START
G1 F3000
G1 X283.429 Y66.31 E-.15354
G1 X283.519 Y66.659 E-.08646
;WIPE_END
G1 Z.7 F21000
G1 X221.563 Y112.47 Z.7
G1 Z.3
G1 E.8 F1800
;TYPE:Inner wall
G1 F3000
G1 X221.416 Y112.89 E.03024
G1 X220.98 Y113.657 E.05991
G1 X220.246 Y114.494 E.07563
G1 X219.551 Y115.029 E.05955
G1 X218.766 Y115.432 E.05993
G1 X217.693 Y115.73 E.0756
G1 X216.767 Y115.795 E.06308
G1 X215.662 Y115.639 E.07577
G1 X214.836 Y115.35 E.05944
G1 X214.069 Y114.914 E.05991
G1 X213.232 Y114.18 E.07563
G1 X212.697 Y113.485 E.05955
G1 X212.295 Y112.7 E.05992
G1 X211.996 Y111.627 E.0756
G1 X211.931 Y110.701 E.06308
G1 X212.087 Y109.596 E.07577
G1 X212.376 Y108.77 E.05944
G1 X212.812 Y108.003 E.0599
G1 X213.546 Y107.166 E.07563
G1 X214.241 Y106.631 E.05955
G1 X215.027 Y106.229 E.05993
G1 X215.725 Y106.002 E.04988
G1 X216.578 Y105.873 E.05856
G1 X217.089 Y105.864 E.03475
G1 X218.13 Y106.021 E.07149
G1 X218.956 Y106.31 E.05944
G1 X219.723 Y106.746 E.05991
G1 X220.56 Y107.48 E.07562
G1 X221.095 Y108.175 E.05955
G1 X221.498 Y108.96 E.05993
G1 X221.698 Y109.642 E.04823
G1 X221.819 Y110.142 E.03496
G1 X221.861 Y110.959 E.05557
G1 X221.705 Y112.064 E.07577
G1 X221.583 Y112.413 E.02513
G1 X221.038 Y112.302 F21000
G1 F3000
G1 X220.898 Y112.691 E.02808
G1 X220.504 Y113.371 E.05335
G1 X219.838 Y114.117 E.06796
G1 X219.226 Y114.578 E.05201
G1 X218.524 Y114.931 E.05337
G1 X217.558 Y115.191 E.06794
G1 X216.746 Y115.24 E.05528
G1 X215.755 Y115.091 E.06807
G1 X215.035 Y114.832 E.05192
G1 X214.356 Y114.438 E.05335
G1 X213.609 Y113.772 E.06796
G1 X213.148 Y113.16 E.05201
G1 X212.795 Y112.458 E.05336
G1 X212.535 Y111.492 E.06794
G1 X212.486 Y110.68 E.05528
G1 X212.635 Y109.688 E.06807
G1 X212.894 Y108.969 E.05192
G1 X213.288 Y108.29 E.05335
G1 X213.955 Y107.543 E.06796
G1 X214.566 Y107.082 E.05201
G1 X215.268 Y106.729 E.05337
G1 X215.884 Y106.535 E.04385
G1 X216.65 Y106.424 E.05255
G1 X217.085 Y106.419 E.02956
G1 X218.038 Y106.569 E.06551
G1 X218.757 Y106.828 E.05191
G1 X219.437 Y107.222 E.05336
G1 X220.183 Y107.888 E.06795
G1 X220.644 Y108.5 E.05202
G1 X220.997 Y109.202 E.05336
G1 X221.276 Y110.268 E.07482
G1 X221.306 Y110.981 E.04844
G1 X221.157 Y111.972 E.06807
G1 X221.058 Y112.245 E.01976
G1 X220.516 Y112.126 F21000
;TYPE:Outer wall
G1 F3000
G1 X220.379 Y112.491 E.02647
G1 X220.028 Y113.084 E.0468
G1 X219.43 Y113.74 E.06029
G1 X218.901 Y114.127 E.04448
G1 X218.283 Y114.431 E.04681
G1 X217.423 Y114.652 E.06028
G1 X216.724 Y114.685 E.04749
G1 X215.847 Y114.543 E.06038
G1 X215.235 Y114.313 E.0444
G1 X214.642 Y113.962 E.0468
G1 X213.986 Y113.364 E.06029
G1 X213.599 Y112.835 E.04448
G1 X213.295 Y112.217 E.0468
G1 X213.074 Y111.357 E.06029
G1 X213.041 Y110.658 E.04749
G1 X213.183 Y109.781 E.06038
G1 X213.413 Y109.169 E.0444
G1 X213.764 Y108.576 E.0468
G1 X214.363 Y107.92 E.06029
G1 X214.891 Y107.533 E.04448
M73 P2 R46
G1 X215.51 Y107.229 E.04681
G1 X216.042 Y107.067 E.03782
G1 X216.721 Y106.975 E.04655
G1 X217.08 Y106.975 E.02438
G1 X217.945 Y107.117 E.05953
G1 X218.557 Y107.347 E.0444
G1 X219.15 Y107.698 E.04681
G1 X219.806 Y108.297 E.06028
G1 X220.193 Y108.825 E.04448
G1 X220.497 Y109.444 E.0468
G1 X220.718 Y110.303 E.06029
G1 X220.751 Y111.002 E.04749
G1 X220.609 Y111.879 E.06038
G1 X220.537 Y112.07 E.01385
G1 E-.56 F1800
;WIPE_START
G1 F3000
G1 X220.379 Y112.491 E-.10794
G1 X220.099 Y112.965 E-.13206
;WIPE_END
G1 Z.7 F21000
G1 X178.512 Y175.11 Z.7
G1 Z.3
G1 E.8 F1800
;TYPE:Inner wall
G1 F3000
G1 X178.3 Y175.778 E.04757
G1 X177.877 Y176.547 E.05959
G1 X177.319 Y177.23 E.0599
G1 X176.771 Y177.716 E.04976
G1 X176.04 Y178.177 E.05866
G1 X175.264 Y178.498 E.05705
G1 X174.506 Y178.675 E.05288
G1 X173.687 Y178.73 E.05572
G1 X172.808 Y178.637 E.06001
G1 X171.747 Y178.3 E.07562
G1 X170.978 Y177.877 E.05959
G1 X170.295 Y177.319 E.05989
G1 X169.933 Y176.917 E.03676
G1 X169.679 Y176.589 E.02815
G1 X169.348 Y176.04 E.04353
G1 X169.027 Y175.264 E.05706
G1 X168.85 Y174.506 E.05288
G1 X168.795 Y173.687 E.05572
G1 X168.888 Y172.808 E.06
G1 X169.226 Y171.747 E.07562
G1 X169.648 Y170.978 E.05959
G1 X170.206 Y170.295 E.0599
G1 X171.069 Y169.592 E.07559
G1 X171.844 Y169.18 E.05964
G1 X172.583 Y168.937 E.05277
G1 X173.443 Y168.806 E.05913
G1 X173.958 Y168.797 E.03494
G1 X174.671 Y168.878 E.04877
G1 X175.519 Y169.117 E.05984
G1 X176.505 Y169.624 E.07529
G1 X177.23 Y170.206 E.06311
G1 X177.716 Y170.754 E.04977
G1 X178.177 Y171.485 E.05866
G1 X178.498 Y172.261 E.05706
G1 X178.675 Y173.02 E.05288
G1 X178.73 Y173.838 E.05572
G1 X178.637 Y174.717 E.06001
G1 X178.53 Y175.053 E.02397
G1 X177.984 Y174.956 F21000
G1 F3000
G1 X177.775 Y175.596 E.04577
G1 X177.399 Y176.264 E.05203
G1 X176.897 Y176.868 E.05333
G1 X176.412 Y177.292 E.04378
G1 X175.754 Y177.701 E.0526
G1 X175.064 Y177.979 E.0505
G1 X174.392 Y178.131 E.04683
G1 X173.662 Y178.175 E.04965
G1 X172.88 Y178.086 E.05344
G1 X171.929 Y177.775 E.06797
G1 X171.261 Y177.399 E.05204
G1 X170.657 Y176.897 E.05332
G1 X170.233 Y176.412 E.04378
G1 X169.824 Y175.754 E.05261
G1 X169.546 Y175.064 E.0505
G1 X169.394 Y174.392 E.04683
G1 X169.35 Y173.662 E.04965
G1 X169.439 Y172.88 E.05343
G1 X169.751 Y171.929 E.06797
G1 X170.126 Y171.261 E.05203
G1 X170.628 Y170.657 E.05333
G1 X171.409 Y170.032 E.06796
G1 X172.09 Y169.678 E.05208
G1 X172.744 Y169.469 E.04665
G1 X173.516 Y169.357 E.05297
G1 X174.052 Y169.359 E.03645
G1 X174.601 Y169.429 E.03756
G1 X175.356 Y169.648 E.05342
G1 X176.238 Y170.112 E.06768
G1 X176.868 Y170.628 E.05527
G1 X177.292 Y171.113 E.04379
G1 X177.701 Y171.771 E.0526
G1 X177.979 Y172.461 E.0505
G1 X178.131 Y173.133 E.04683
G1 X178.175 Y173.863 E.04965
G1 X178.086 Y174.645 E.05344
G1 X178.003 Y174.899 E.01812
G1 X177.46 Y174.794 F21000
;TYPE:Outer wall
G1 F3000
G1 X177.25 Y175.414 E.04448
G1 X176.921 Y175.981 E.04448
G1 X176.475 Y176.506 E.04676
G1 X176.053 Y176.868 E.0378
G1 X175.467 Y177.225 E.04655
G1 X174.865 Y177.461 E.04395
G1 X174.278 Y177.587 E.04078
G1 X173.637 Y177.62 E.04359
G1 X172.952 Y177.535 E.04687
G1 X172.111 Y177.25 E.06032
G1 X171.544 Y176.921 E.04449
G1 X171.019 Y176.476 E.04676
G1 X170.657 Y176.053 E.0378
G1 X170.301 Y175.467 E.04655
G1 X170.064 Y174.865 E.04395
G1 X169.938 Y174.278 E.04077
G1 X169.905 Y173.637 E.04359
G1 X169.99 Y172.952 E.04687
G1 X170.276 Y172.111 E.06033
G1 X170.604 Y171.544 E.04448
G1 X171.05 Y171.019 E.04676
G1 X171.749 Y170.471 E.06033
G1 X172.335 Y170.177 E.04452
G1 X172.905 Y170.001 E.04053
G1 X173.588 Y169.907 E.0468
G1 X173.982 Y169.91 E.02676
G1 X174.53 Y169.98 E.03756
G1 X175.193 Y170.18 E.047
G1 X175.972 Y170.599 E.06009
G1 X176.506 Y171.05 E.04745
G1 X176.868 Y171.472 E.0378
G1 X177.225 Y172.058 E.04655
G1 X177.461 Y172.66 E.04395
G1 X177.587 Y173.247 E.04077
G1 X177.62 Y173.888 E.04359
G1 X177.535 Y174.573 E.04687
G1 X177.479 Y174.737 E.01177
G1 E-.56 F1800
;WIPE_START
G1 F3000
G1 X177.25 Y175.414 E-.1716
G1 X177.106 Y175.661 E-.0684
;WIPE_END
G1 Z.7 F21000
G1 X111.414 Y221.796 Z.7
G1 Z.3
G1 E.8 F1800
;TYPE:Inner wall
G1 F3000
G1 X110.8 Y221.861 E.04192
G1 X109.876 Y221.77 E.06309
G1 X108.815 Y221.433 E.07562
G1 X108.046 Y221.01 E.05959
G1 X107.363 Y220.452 E.0599
G1 X106.66 Y219.59 E.07559
G1 X106.248 Y218.815 E.0596
G1 X105.981 Y217.969 E.06019
G1 X105.866 Y216.866 E.07532
G1 X105.956 Y215.942 E.06309
G1 X106.293 Y214.881 E.07562
G1 X106.716 Y214.112 E.05959
G1 X107.274 Y213.429 E.0599
G1 X108.137 Y212.726 E.07559
G1 X108.912 Y212.313 E.05965
G1 X109.65 Y212.071 E.05277
G1 X110.511 Y211.939 E.05917
G1 X111.68 Y212.005 E.07946
G1 X112.012 Y212.075 E.02306
G1 X112.84 Y212.357 E.05939
G1 X113.613 Y212.781 E.05991
G1 X114.297 Y213.34 E.05998
G1 X115 Y214.203 E.07559
G1 X115.413 Y214.977 E.0596
G1 X115.679 Y215.823 E.06019
G1 X115.795 Y216.926 E.07532
G1 X115.704 Y217.85 E.06309
G1 X115.367 Y218.911 E.07562
G1 X114.944 Y219.68 E.05959
G1 X114.386 Y220.363 E.0599
G1 X113.524 Y221.066 E.07559
G1 X112.749 Y221.479 E.0596
G1 X111.903 Y221.745 E.06019
G1 X111.474 Y221.79 E.02932
G1 X111.345 Y221.25 F21000
G1 F3000
G1 X110.757 Y221.307 E.04014
G1 X109.948 Y221.219 E.05527
G1 X108.997 Y220.908 E.06797
G1 X108.329 Y220.532 E.05203
G1 X107.725 Y220.031 E.05333
G1 X107.099 Y219.25 E.06795
G1 X106.746 Y218.57 E.05204
G1 X106.515 Y217.815 E.05359
G1 X106.42 Y216.823 E.0677
G1 X106.507 Y216.014 E.05527
G1 X106.818 Y215.063 E.06797
G1 X107.194 Y214.395 E.05203
G1 X107.696 Y213.791 E.05333
G1 X108.476 Y213.165 E.06795
G1 X109.157 Y212.812 E.05208
G1 X109.811 Y212.602 E.04665
G1 X110.584 Y212.49 E.053
G1 X111.633 Y212.559 E.07143
G1 X112.66 Y212.883 E.07315
G1 X113.33 Y213.259 E.05219
G1 X113.935 Y213.762 E.0534
G1 X114.561 Y214.542 E.06795
G1 X114.914 Y215.223 E.05204
G1 X115.145 Y215.977 E.05359
G1 X115.241 Y216.969 E.06771
G1 X115.153 Y217.778 E.05527
G1 X114.842 Y218.73 E.06797
G1 X114.466 Y219.397 E.05203
G1 X113.965 Y220.001 E.05333
G1 X113.184 Y220.627 E.06795
G1 X112.504 Y220.98 E.05204
G1 X111.749 Y221.211 E.05359
G1 X111.405 Y221.244 E.02349
G1 X111.283 Y220.704 F21000
;TYPE:Outer wall
G1 F3000
G1 X110.713 Y220.753 E.03887
G1 X110.02 Y220.668 E.04745
G1 X109.178 Y220.383 E.06033
G1 X108.612 Y220.054 E.04448
G1 X108.087 Y219.609 E.04676
G1 X107.539 Y218.91 E.06032
G1 X107.245 Y218.324 E.04449
G1 X107.049 Y217.661 E.04699
G1 X106.973 Y216.779 E.0601
G1 X107.058 Y216.086 E.04745
G1 X107.343 Y215.244 E.06033
G1 X107.672 Y214.678 E.04449
G1 X108.117 Y214.153 E.04676
G1 X108.816 Y213.605 E.06032
G1 X109.402 Y213.311 E.04453
G1 X109.972 Y213.134 E.04053
G1 X110.656 Y213.041 E.04684
G1 X111.587 Y213.113 E.06342
G1 X112.481 Y213.409 E.06397
G1 X113.047 Y213.737 E.04448
G1 X113.573 Y214.183 E.04682
G1 X114.121 Y214.882 E.06032
G1 X114.415 Y215.468 E.04449
G1 X114.612 Y216.131 E.04699
G1 X114.687 Y217.013 E.0601
G1 X114.602 Y217.707 E.04745
G1 X114.317 Y218.548 E.06033
G1 X113.988 Y219.114 E.04449
G1 X113.543 Y219.639 E.04676
G1 X112.844 Y220.187 E.06032
G1 X112.258 Y220.481 E.04449
G1 X111.595 Y220.678 E.04699
G1 X111.343 Y220.699 E.01716
G1 E-.56 F1800
;WIPE_START
G1 F3000
G1 X110.713 Y220.753 E-.15175
G1 X110.348 Y220.708 E-.08825
;WIPE_END
G1 Z.7 F21000
G1 X72.468 Y281.105 Z.7
G1 Z.3
